<?xml version="1.0" encoding="UTF-8"?>
<map version="1.10" tiledversion="1.11.2" orientation="orthogonal" renderorder="right-down" width="164" height="120" tilewidth="16" tileheight="16" infinite="0" nextlayerid="16" nextobjectid="1581">
 <editorsettings>
  <export target="final_game.json" format="json"/>
 </editorsettings>
 <properties>
  <property name="collides" type="bool" value="true"/>
 </properties>
 <tileset firstgid="1" name="1-bit-transparent" tilewidth="16" tileheight="16" tilecount="400" columns="20">
  <image source="monochrome_tilemap_transparent_packed.png" width="320" height="320"/>
  <tile id="12">
   <properties>
    <property name="collides" type="bool" value="true"/>
   </properties>
  </tile>
  <tile id="32">
   <properties>
    <property name="collides" type="bool" value="true"/>
   </properties>
  </tile>
  <tile id="44">
   <properties>
    <property name="collides" type="bool" value="true"/>
   </properties>
  </tile>
  <tile id="45">
   <properties>
    <property name="collides" type="bool" value="true"/>
   </properties>
  </tile>
  <tile id="46">
   <properties>
    <property name="collides" type="bool" value="true"/>
   </properties>
  </tile>
  <tile id="47">
   <properties>
    <property name="collides" type="bool" value="true"/>
   </properties>
  </tile>
  <tile id="52">
   <properties>
    <property name="collides" type="bool" value="true"/>
   </properties>
  </tile>
  <tile id="77">
   <animation>
    <frame tileid="77" duration="200"/>
    <frame tileid="78" duration="200"/>
    <frame tileid="79" duration="200"/>
   </animation>
  </tile>
  <tile id="123">
   <properties>
    <property name="collides" type="bool" value="true"/>
   </properties>
  </tile>
  <tile id="124">
   <properties>
    <property name="collides" type="bool" value="true"/>
   </properties>
  </tile>
  <tile id="125">
   <properties>
    <property name="collides" type="bool" value="true"/>
   </properties>
  </tile>
  <tile id="126">
   <properties>
    <property name="collides" type="bool" value="true"/>
   </properties>
  </tile>
  <tile id="225">
   <properties>
    <property name="collides" type="bool" value="true"/>
   </properties>
  </tile>
  <tile id="226">
   <properties>
    <property name="collides" type="bool" value="true"/>
   </properties>
  </tile>
  <tile id="227">
   <properties>
    <property name="collides" type="bool" value="true"/>
   </properties>
  </tile>
  <tile id="228">
   <properties>
    <property name="collides" type="bool" value="true"/>
   </properties>
  </tile>
  <tile id="229">
   <properties>
    <property name="collides" type="bool" value="true"/>
   </properties>
  </tile>
  <tile id="247">
   <properties>
    <property name="collides" type="bool" value="true"/>
   </properties>
  </tile>
  <tile id="249">
   <properties>
    <property name="collides" type="bool" value="true"/>
   </properties>
  </tile>
  <tile id="267">
   <properties>
    <property name="collides" type="bool" value="true"/>
   </properties>
  </tile>
  <tile id="268">
   <properties>
    <property name="collides" type="bool" value="true"/>
   </properties>
  </tile>
  <tile id="269">
   <properties>
    <property name="collides" type="bool" value="true"/>
   </properties>
  </tile>
  <tile id="357">
   <properties>
    <property name="collides" type="bool" value="true"/>
   </properties>
  </tile>
  <tile id="358">
   <properties>
    <property name="collides" type="bool" value="true"/>
   </properties>
  </tile>
  <tile id="359">
   <properties>
    <property name="collides" type="bool" value="true"/>
   </properties>
  </tile>
  <tile id="377">
   <properties>
    <property name="collides" type="bool" value="true"/>
   </properties>
  </tile>
  <tile id="378">
   <properties>
    <property name="collides" type="bool" value="true"/>
   </properties>
  </tile>
  <tile id="379">
   <properties>
    <property name="collides" type="bool" value="true"/>
   </properties>
  </tile>
  <tile id="397">
   <properties>
    <property name="collides" type="bool" value="true"/>
   </properties>
  </tile>
  <tile id="398">
   <properties>
    <property name="collides" type="bool" value="true"/>
   </properties>
  </tile>
  <tile id="399">
   <properties>
    <property name="collides" type="bool" value="true"/>
   </properties>
  </tile>
 </tileset>
 <tileset firstgid="401" name="black_tile" tilewidth="16" tileheight="16" tilecount="1" columns="1">
  <image source="black_tile.png" width="16" height="16"/>
  <tile id="0">
   <properties>
    <property name="collides" type="bool" value="true"/>
   </properties>
  </tile>
 </tileset>
 <tileset firstgid="402" name="crystal_tilemap" tilewidth="16" tileheight="16" tilecount="176" columns="16">
  <image source="crystal_tilemap.png" width="256" height="176"/>
  <tile id="84">
   <animation>
    <frame tileid="84" duration="300"/>
    <frame tileid="85" duration="300"/>
    <frame tileid="86" duration="300"/>
    <frame tileid="87" duration="300"/>
   </animation>
  </tile>
  <tile id="100">
   <animation>
    <frame tileid="100" duration="300"/>
    <frame tileid="101" duration="300"/>
    <frame tileid="102" duration="300"/>
    <frame tileid="103" duration="300"/>
    <frame tileid="104" duration="300"/>
   </animation>
  </tile>
  <tile id="116">
   <animation>
    <frame tileid="116" duration="160"/>
    <frame tileid="117" duration="160"/>
    <frame tileid="118" duration="160"/>
   </animation>
  </tile>
 </tileset>
 <tileset firstgid="578" name="Dungeon_Expanded_Tilemap" tilewidth="16" tileheight="16" tilecount="130" columns="13">
  <image source="DungeonTilesetExpanded.png" width="208" height="160"/>
 </tileset>
 <tileset firstgid="708" name="OvergrownSheetEx" tilewidth="16" tileheight="16" tilecount="324" columns="18">
  <image source="OvergrownSheetEx.png" width="300" height="288"/>
 </tileset>
 <tileset firstgid="1032" name="UnderwaterTiles" tilewidth="16" tileheight="16" tilecount="88" columns="11">
  <image source="UnderwaterTiles.png" width="176" height="128"/>
  <tile id="27">
   <animation>
    <frame tileid="27" duration="100"/>
    <frame tileid="28" duration="100"/>
   </animation>
  </tile>
 </tileset>
 <tileset firstgid="1120" name="AlgaeTiles" tilewidth="16" tileheight="16" tilecount="400" columns="20">
  <image source="AlgaeTiles.png" width="320" height="320"/>
 </tileset>
 <tileset firstgid="1520" name="AnimatedWater" tilewidth="16" tileheight="16" tilecount="80" columns="16">
  <image source="AnimatedWater.png" width="256" height="80"/>
  <tile id="0">
   <animation>
    <frame tileid="0" duration="160"/>
    <frame tileid="0" duration="160"/>
    <frame tileid="0" duration="160"/>
    <frame tileid="0" duration="160"/>
    <frame tileid="0" duration="160"/>
    <frame tileid="0" duration="160"/>
    <frame tileid="0" duration="160"/>
    <frame tileid="48" duration="160"/>
    <frame tileid="49" duration="160"/>
    <frame tileid="50" duration="160"/>
    <frame tileid="51" duration="160"/>
    <frame tileid="52" duration="160"/>
    <frame tileid="53" duration="160"/>
    <frame tileid="54" duration="160"/>
    <frame tileid="55" duration="160"/>
    <frame tileid="56" duration="160"/>
   </animation>
  </tile>
  <tile id="6">
   <animation>
    <frame tileid="6" duration="200"/>
    <frame tileid="22" duration="200"/>
    <frame tileid="9" duration="200"/>
    <frame tileid="25" duration="200"/>
   </animation>
  </tile>
  <tile id="7">
   <animation>
    <frame tileid="7" duration="200"/>
    <frame tileid="23" duration="200"/>
    <frame tileid="10" duration="200"/>
    <frame tileid="26" duration="200"/>
   </animation>
  </tile>
  <tile id="8">
   <animation>
    <frame tileid="8" duration="200"/>
    <frame tileid="24" duration="200"/>
    <frame tileid="11" duration="200"/>
    <frame tileid="27" duration="200"/>
   </animation>
  </tile>
  <tile id="15">
   <animation>
    <frame tileid="15" duration="160"/>
    <frame tileid="28" duration="160"/>
    <frame tileid="15" duration="160"/>
    <frame tileid="28" duration="160"/>
    <frame tileid="29" duration="160"/>
    <frame tileid="30" duration="160"/>
    <frame tileid="31" duration="160"/>
    <frame tileid="43" duration="160"/>
    <frame tileid="57" duration="160"/>
    <frame tileid="57" duration="160"/>
    <frame tileid="57" duration="160"/>
    <frame tileid="12" duration="160"/>
    <frame tileid="13" duration="160"/>
    <frame tileid="14" duration="160"/>
   </animation>
  </tile>
  <tile id="16">
   <animation>
    <frame tileid="16" duration="160"/>
    <frame tileid="17" duration="160"/>
    <frame tileid="18" duration="160"/>
    <frame tileid="19" duration="160"/>
    <frame tileid="20" duration="160"/>
    <frame tileid="21" duration="160"/>
    <frame tileid="32" duration="160"/>
    <frame tileid="32" duration="160"/>
    <frame tileid="32" duration="160"/>
    <frame tileid="32" duration="160"/>
    <frame tileid="32" duration="160"/>
    <frame tileid="32" duration="160"/>
    <frame tileid="32" duration="160"/>
    <frame tileid="48" duration="160"/>
    <frame tileid="49" duration="160"/>
    <frame tileid="50" duration="160"/>
   </animation>
  </tile>
  <tile id="32">
   <animation>
    <frame tileid="32" duration="160"/>
    <frame tileid="32" duration="160"/>
    <frame tileid="34" duration="160"/>
    <frame tileid="35" duration="160"/>
    <frame tileid="36" duration="160"/>
    <frame tileid="37" duration="160"/>
    <frame tileid="38" duration="160"/>
    <frame tileid="39" duration="160"/>
    <frame tileid="40" duration="160"/>
    <frame tileid="41" duration="160"/>
    <frame tileid="42" duration="160"/>
    <frame tileid="32" duration="160"/>
    <frame tileid="32" duration="160"/>
    <frame tileid="32" duration="160"/>
    <frame tileid="32" duration="160"/>
    <frame tileid="32" duration="160"/>
   </animation>
  </tile>
  <tile id="47">
   <animation>
    <frame tileid="47" duration="160"/>
    <frame tileid="47" duration="160"/>
    <frame tileid="47" duration="160"/>
    <frame tileid="47" duration="160"/>
    <frame tileid="47" duration="160"/>
    <frame tileid="47" duration="160"/>
    <frame tileid="47" duration="160"/>
    <frame tileid="59" duration="160"/>
    <frame tileid="60" duration="160"/>
    <frame tileid="61" duration="160"/>
    <frame tileid="62" duration="160"/>
    <frame tileid="63" duration="160"/>
    <frame tileid="47" duration="160"/>
    <frame tileid="47" duration="160"/>
   </animation>
  </tile>
 </tileset>
 <tileset firstgid="1600" name="CypherStatues" tilewidth="16" tileheight="32" tilecount="6" columns="6">
  <image source="CypherStatues.png" width="96" height="32"/>
 </tileset>
 <layer id="5" name="Black" width="164" height="120" visible="0">
  <data encoding="csv">
401,401,401,401,401,401,401,401,401,401,401,401,401,401,401,401,401,401,401,401,401,401,401,401,401,401,401,401,401,401,401,401,401,401,401,401,401,401,401,401,645,645,645,645,645,645,645,645,645,645,645,645,645,645,645,645,645,645,645,645,645,645,645,645,645,645,645,645,645,645,645,645,645,645,645,645,645,645,645,645,645,645,645,645,645,645,645,645,645,645,645,645,645,645,645,645,645,645,645,645,645,645,645,645,645,645,645,645,645,645,645,645,645,645,645,645,645,645,645,645,645,645,645,645,645,645,645,645,645,645,645,645,645,645,645,645,645,645,645,645,645,645,645,645,645,645,645,645,645,645,645,645,645,645,645,645,645,645,645,645,645,645,645,645,
401,401,401,401,401,401,401,401,401,401,401,401,401,401,401,401,401,401,401,401,401,401,401,401,401,401,401,401,401,401,401,401,401,401,401,401,401,401,401,401,645,645,645,645,645,645,645,645,645,645,645,645,645,645,645,645,645,645,645,645,645,645,645,645,645,645,645,645,645,645,645,645,645,645,645,645,645,645,645,645,645,645,645,645,645,645,645,645,645,645,645,645,645,645,645,645,645,645,645,645,645,645,645,645,645,645,645,645,645,645,645,645,645,645,645,645,645,645,645,645,645,645,645,645,645,645,645,645,645,645,645,645,645,645,645,645,645,645,645,645,645,645,645,645,645,645,645,645,645,645,645,645,645,645,645,645,645,645,645,645,645,645,645,645,
401,401,401,401,401,401,401,401,401,401,401,401,401,401,401,401,401,401,401,401,401,401,401,401,401,401,401,401,401,401,401,401,401,401,401,401,401,401,401,401,645,645,645,645,645,645,645,645,645,645,645,645,645,645,645,645,645,645,645,645,645,645,645,645,645,645,645,645,645,645,645,645,645,645,645,645,645,645,645,645,645,645,645,645,645,645,645,645,645,645,645,645,645,645,645,645,645,645,645,645,645,645,645,645,645,645,645,645,645,645,645,645,645,645,645,645,645,645,645,645,645,645,645,645,645,645,645,645,645,645,645,645,645,645,645,645,645,645,645,645,645,645,645,645,645,645,645,645,645,645,645,645,645,645,645,645,645,645,645,645,645,645,645,645,
401,401,401,401,401,401,401,401,401,401,401,401,401,401,401,401,401,401,401,401,401,401,401,401,401,401,401,401,401,401,401,401,401,401,401,401,401,401,401,401,645,645,645,645,645,645,645,645,645,645,645,645,645,645,645,645,645,645,645,645,645,645,645,645,645,645,645,645,645,645,645,645,645,645,645,645,645,645,645,645,645,645,645,645,645,645,645,645,645,645,645,645,645,645,645,645,645,645,645,645,645,645,645,645,645,645,645,645,645,645,645,645,645,645,645,645,645,645,645,645,645,645,645,645,645,645,645,645,645,645,645,645,645,645,645,645,645,645,645,645,645,645,645,645,645,645,645,645,645,645,645,645,645,645,645,645,645,645,645,645,645,645,645,645,
401,401,401,401,401,401,401,401,401,401,401,401,401,401,401,401,401,401,401,401,401,401,401,401,401,401,401,401,401,401,401,401,401,401,401,401,401,401,401,401,645,645,645,645,645,645,645,645,645,645,645,645,645,645,645,645,645,645,645,645,645,645,645,645,645,645,645,645,645,645,645,645,645,645,645,645,645,645,645,645,645,645,645,645,645,645,645,645,645,645,645,645,645,645,645,645,645,645,645,645,645,645,645,645,645,645,645,645,645,645,645,645,645,645,645,645,645,645,645,645,645,645,645,645,645,645,645,645,645,645,645,645,645,645,645,645,645,645,645,645,645,645,645,645,645,645,645,645,645,645,645,645,645,645,645,645,645,645,645,645,645,645,645,645,
401,401,401,401,401,401,401,401,401,401,401,401,401,401,401,401,401,401,401,401,401,401,401,401,401,401,401,401,401,401,401,401,401,401,401,401,401,401,401,401,645,645,645,645,645,645,645,645,645,645,645,645,645,645,645,645,645,645,645,645,645,645,645,645,645,645,645,645,645,645,645,645,645,645,645,645,645,645,645,645,645,645,645,645,645,645,645,645,645,645,645,645,645,645,645,645,645,645,645,645,645,645,645,645,645,645,645,645,645,645,645,645,645,645,645,645,645,645,645,645,645,645,645,645,645,645,645,645,645,645,645,645,645,645,645,645,645,645,645,645,645,645,645,645,645,645,645,645,645,645,645,645,645,645,645,645,645,645,645,645,645,645,645,645,
401,401,401,401,401,401,401,401,401,401,401,401,401,401,401,401,401,401,401,401,401,401,401,401,401,401,401,401,401,401,401,401,401,401,401,401,401,401,401,401,645,645,645,645,645,645,645,645,645,645,645,645,645,645,645,645,645,645,645,645,645,645,645,645,645,645,645,645,645,645,645,645,645,645,645,645,645,645,645,645,645,645,645,645,645,645,645,645,645,645,645,645,645,645,645,645,645,645,645,645,645,645,645,645,645,645,645,645,645,645,645,645,645,645,645,645,645,645,645,645,645,645,645,645,645,645,645,645,645,645,645,645,645,645,645,645,645,645,645,645,645,645,645,645,645,645,645,645,645,645,645,645,645,645,645,645,645,645,645,645,645,645,645,645,
401,401,401,401,401,401,401,401,401,401,401,401,401,401,401,401,401,401,401,401,401,401,401,401,401,401,401,401,401,401,401,401,401,401,401,401,401,401,401,401,645,645,645,645,645,645,645,645,645,645,645,645,645,645,645,645,645,645,645,645,645,645,645,645,645,645,645,645,645,645,645,645,645,645,645,645,645,645,645,645,645,645,645,645,645,645,645,645,645,645,645,645,645,645,645,645,645,645,645,645,645,645,645,645,645,645,645,645,645,645,645,645,645,645,645,645,645,645,645,645,645,645,645,645,645,645,645,645,645,645,645,645,645,645,645,645,645,645,645,645,645,645,645,645,645,645,645,645,645,645,645,645,645,645,645,645,645,645,645,645,645,645,645,645,
401,401,401,401,401,401,401,401,401,401,401,401,401,401,401,401,401,401,401,401,401,401,401,401,401,401,401,401,401,401,401,401,401,401,401,401,401,401,401,401,645,645,645,645,645,645,645,645,645,645,645,645,645,645,645,645,645,645,645,645,645,645,645,645,645,645,645,645,645,645,645,645,645,645,645,645,645,645,645,645,645,645,645,645,645,645,645,645,645,645,645,645,645,645,645,645,645,645,645,645,645,645,645,645,645,645,645,645,645,645,645,645,645,645,645,645,645,645,645,645,645,645,645,645,645,645,645,645,645,645,645,645,645,645,645,645,645,645,645,645,645,645,645,645,645,645,645,645,645,645,645,645,645,645,645,645,645,645,645,645,645,645,645,645,
401,401,401,401,401,401,401,401,401,401,401,401,401,401,401,401,401,401,401,401,401,401,401,401,401,401,401,401,401,401,401,401,401,401,401,401,401,401,401,401,645,645,645,645,645,645,645,645,645,645,645,645,645,645,645,645,645,645,645,645,645,645,645,645,645,645,645,645,645,645,645,645,645,645,645,645,645,645,645,645,645,645,645,645,645,645,645,645,645,645,645,645,645,645,645,645,645,645,645,645,645,645,645,645,645,645,645,645,645,645,645,645,645,645,645,645,645,645,645,645,645,645,645,645,645,645,645,645,645,645,645,645,645,645,645,645,645,645,645,645,645,645,645,645,645,645,645,645,645,645,645,645,645,645,645,645,645,645,645,645,645,645,645,645,
401,401,401,401,401,401,401,401,401,401,401,401,401,401,401,401,401,401,401,401,401,401,401,401,401,401,401,401,401,401,401,401,401,401,401,401,401,401,401,401,645,645,645,645,645,645,645,645,645,645,645,645,645,645,645,645,645,645,645,645,645,645,645,645,645,645,645,645,645,645,645,645,645,645,645,645,645,645,645,645,645,645,645,645,645,645,645,645,645,645,645,645,645,645,645,645,645,645,645,645,645,645,645,645,645,645,645,645,645,645,645,645,645,645,645,645,645,645,645,645,645,645,645,645,645,645,645,645,645,645,645,645,645,645,645,645,645,645,645,645,645,645,645,645,645,645,645,645,645,645,645,645,645,645,645,645,645,645,645,645,645,645,645,645,
401,401,401,401,401,401,401,401,401,401,401,401,401,401,401,401,401,401,401,401,401,401,401,401,401,401,401,401,401,401,401,401,401,401,401,401,401,401,401,401,645,645,645,645,645,645,645,645,645,645,645,645,645,645,645,645,645,645,645,645,645,645,645,645,645,645,645,645,645,645,645,645,645,645,645,645,645,645,645,645,645,645,645,645,645,645,645,645,645,645,645,645,645,645,645,645,645,645,645,645,645,645,645,645,645,645,645,645,645,645,645,645,645,645,645,645,645,645,645,645,645,645,645,645,645,645,645,645,645,645,645,645,645,645,645,645,645,645,645,645,645,645,645,645,645,645,645,645,645,645,645,645,645,645,645,645,645,645,645,645,645,645,645,645,
401,401,401,401,401,401,401,401,401,401,401,401,401,401,401,401,401,401,401,401,401,401,401,401,401,401,401,401,401,401,401,401,401,401,401,401,401,401,401,401,645,645,645,645,645,645,645,645,645,645,645,645,645,645,645,645,645,645,645,645,645,645,645,645,645,645,645,645,645,645,645,645,645,645,645,645,645,645,645,645,645,645,645,645,645,645,645,645,645,645,645,645,645,645,645,645,645,645,645,645,645,645,645,645,645,645,645,645,645,645,645,645,645,645,645,645,645,645,645,645,645,645,645,645,645,645,645,645,645,645,645,645,645,645,645,645,645,645,645,645,645,645,645,645,645,645,645,645,645,645,645,645,645,645,645,645,645,645,645,645,645,645,645,645,
401,401,401,401,401,401,401,401,401,401,401,401,401,401,401,401,401,401,401,401,401,401,401,401,401,401,401,401,401,401,401,401,401,401,401,401,401,401,401,401,645,645,645,645,645,645,645,645,645,645,645,645,645,645,645,645,645,645,645,645,645,645,645,645,645,645,645,645,645,645,645,645,645,645,645,645,645,645,645,645,645,645,645,645,645,645,645,645,645,645,645,645,645,645,645,645,645,645,645,645,645,645,645,645,645,645,645,645,645,645,645,645,645,645,645,645,645,645,645,645,645,645,645,645,645,645,645,645,645,645,645,645,645,645,645,645,645,645,645,645,645,645,645,645,645,645,645,645,645,645,645,645,645,645,645,645,645,645,645,645,645,645,645,645,
401,401,401,401,401,401,401,401,401,401,401,401,401,401,401,401,401,401,401,401,401,401,401,401,401,401,401,401,401,401,401,401,401,401,401,401,401,401,401,401,645,645,645,645,645,645,645,645,645,645,645,645,645,645,645,645,645,645,645,645,645,645,645,645,645,645,645,645,645,645,645,645,645,645,645,645,645,645,645,645,645,645,645,645,645,645,645,645,645,645,645,645,645,645,645,645,645,645,645,645,645,645,645,645,645,645,645,645,645,645,645,645,645,645,645,645,645,645,645,645,645,645,645,645,645,645,645,645,645,645,645,645,645,645,645,645,645,645,645,645,645,645,645,645,645,645,645,645,645,645,645,645,645,645,645,645,645,645,645,645,645,645,645,645,
401,401,401,401,401,401,401,401,401,401,401,401,401,401,401,401,401,401,401,401,401,401,401,401,401,401,401,401,401,401,401,401,401,401,401,401,401,401,401,401,645,645,645,645,645,645,645,645,645,645,645,645,645,645,645,645,645,645,645,645,645,645,645,645,645,645,645,645,645,645,645,645,645,645,645,645,645,645,645,645,645,645,645,645,645,645,645,645,645,645,645,645,645,645,645,645,645,645,645,645,645,645,645,645,645,645,645,645,645,645,645,645,645,645,645,645,645,645,645,645,645,645,645,645,645,645,645,645,645,645,645,645,645,645,645,645,645,645,645,645,645,645,645,645,645,645,645,645,645,645,645,645,645,645,645,645,645,645,645,645,645,645,645,645,
401,401,401,401,401,401,401,401,401,401,401,401,401,401,401,401,401,401,401,401,401,401,401,401,401,401,401,401,401,401,401,401,401,401,401,401,401,401,401,401,645,645,645,645,645,645,645,645,645,645,645,645,645,645,645,645,645,645,645,645,645,645,645,645,645,645,645,645,645,645,645,645,645,645,645,645,645,645,645,645,645,645,645,645,645,645,645,645,645,645,645,645,645,645,645,645,645,645,645,645,645,645,645,645,645,645,645,645,645,645,645,645,645,645,645,645,645,645,645,645,645,645,645,645,645,645,645,645,645,645,645,645,645,645,645,645,645,645,645,645,645,645,645,645,645,645,645,645,645,645,645,645,645,645,645,645,645,645,645,645,645,645,645,645,
401,401,401,401,401,401,401,401,401,401,401,401,401,401,401,401,401,401,401,401,401,401,401,401,401,401,401,401,401,401,401,401,401,401,401,401,401,401,401,401,645,645,645,645,645,645,645,645,645,645,645,645,645,645,645,645,645,645,645,645,645,645,645,645,645,645,645,645,645,645,645,645,645,645,645,645,645,645,645,645,645,645,645,645,645,645,645,645,645,645,645,645,645,645,645,645,645,645,645,645,645,645,645,645,645,645,645,645,645,645,645,645,645,645,645,645,645,645,645,645,645,645,645,645,645,645,645,645,645,645,645,645,645,645,645,645,645,645,645,645,645,645,645,645,645,645,645,645,645,645,645,645,645,645,645,645,645,645,645,645,645,645,645,645,
401,401,401,401,401,401,401,401,401,401,401,401,401,401,401,401,401,401,401,401,401,401,401,401,401,401,401,401,401,401,401,401,401,401,401,401,401,401,401,401,645,645,645,645,645,645,645,645,645,645,645,645,645,645,645,645,645,645,645,645,645,645,645,645,645,645,645,645,645,645,645,645,645,645,645,645,645,645,645,645,645,645,645,645,645,645,645,645,645,645,645,645,645,645,645,645,645,645,645,645,645,645,645,645,645,645,645,645,645,645,645,645,645,645,645,645,645,645,645,645,645,645,645,645,645,645,645,645,645,645,645,645,645,645,645,645,645,645,645,645,645,645,645,645,645,645,645,645,645,645,645,645,645,645,645,645,645,645,645,645,645,645,645,645,
401,401,401,401,401,401,401,401,401,401,401,401,401,401,401,401,401,401,401,401,401,401,401,401,401,401,401,401,401,401,401,401,401,401,401,401,401,401,401,401,645,645,645,645,645,645,645,645,645,645,645,645,645,645,645,645,645,645,645,645,645,645,645,645,645,645,645,645,645,645,645,645,645,645,645,645,645,645,645,645,645,645,645,645,645,645,645,645,645,645,645,645,645,645,645,645,645,645,645,645,645,645,645,645,645,645,645,645,645,645,645,645,645,645,645,645,645,645,645,645,645,645,645,645,645,645,645,645,645,645,645,645,645,645,645,645,645,645,645,645,645,645,645,645,645,645,645,645,645,645,645,645,645,645,645,645,645,645,645,645,645,645,645,645,
401,401,401,401,401,401,401,401,401,401,401,401,401,401,401,401,401,401,401,401,401,401,401,401,401,401,401,401,401,401,401,401,401,401,401,401,401,401,401,401,645,645,645,645,645,645,645,645,645,645,645,645,645,645,645,645,645,645,645,645,645,645,645,645,645,645,645,645,645,645,645,645,645,645,645,645,645,645,645,645,645,645,645,645,645,645,645,645,645,645,645,645,645,645,645,645,645,645,645,645,645,645,645,645,645,645,645,645,645,645,645,645,645,645,645,645,645,645,645,645,645,645,645,645,645,645,645,645,645,645,645,645,645,645,645,645,645,645,645,645,645,645,645,645,645,645,645,645,645,645,645,645,645,645,645,645,645,645,645,645,645,645,645,645,
401,401,401,401,401,401,401,401,401,401,401,401,401,401,401,401,401,401,401,401,401,401,401,401,401,401,401,401,401,401,401,401,401,401,401,401,401,401,401,401,645,645,645,645,645,645,645,645,645,645,645,645,645,645,645,645,645,645,645,645,645,645,645,645,645,645,645,645,645,645,645,645,645,645,645,645,645,645,645,645,645,645,645,645,645,645,645,645,645,645,645,645,645,645,645,645,645,645,645,645,645,645,645,645,645,645,645,645,645,645,645,645,645,645,645,645,645,645,645,645,645,645,645,645,645,645,645,645,645,645,645,645,645,645,645,645,645,645,645,645,645,645,645,645,645,645,645,645,645,645,645,645,645,645,645,645,645,645,645,645,645,645,645,645,
401,401,401,401,401,401,401,401,401,401,401,401,401,401,401,401,401,401,401,401,401,401,401,401,401,401,401,401,401,401,401,401,401,401,401,401,401,401,401,401,645,645,645,645,645,645,645,645,645,645,645,645,645,645,645,645,645,645,645,645,645,645,645,645,645,645,645,645,645,645,645,645,645,645,645,645,645,645,645,645,645,645,645,645,645,645,645,645,645,645,645,645,645,645,645,645,645,645,645,645,645,645,645,645,645,645,645,645,645,645,645,645,645,645,645,645,645,645,645,645,645,645,645,645,645,645,645,645,645,645,645,645,645,645,645,645,645,645,645,645,645,645,645,645,645,645,645,645,645,645,645,645,645,645,645,645,645,645,645,645,645,645,645,645,
401,401,401,401,401,401,401,401,401,401,401,401,401,401,401,401,401,401,401,401,401,401,401,401,401,401,401,401,401,401,401,401,401,401,401,401,401,401,401,401,645,645,645,645,645,645,645,645,645,645,645,645,645,645,645,645,645,645,645,645,645,645,645,645,645,645,645,645,645,645,645,645,645,645,645,645,645,645,645,645,645,645,645,645,645,645,645,645,645,645,645,645,645,645,645,645,645,645,645,645,645,645,645,645,645,645,645,645,645,645,645,645,645,645,645,645,645,645,645,645,645,645,645,645,645,645,645,645,645,645,645,645,645,645,645,645,645,645,645,645,645,645,645,645,645,645,645,645,645,645,645,645,645,645,645,645,645,645,645,645,645,645,645,645,
401,401,401,401,401,401,401,401,401,401,401,401,401,401,401,401,401,401,401,401,401,401,401,401,401,401,401,401,401,401,401,401,401,401,401,401,401,401,401,401,645,645,645,645,645,645,645,645,645,645,645,645,645,645,645,645,645,645,645,645,645,645,645,645,645,645,645,645,645,645,645,645,645,645,645,645,645,645,645,645,645,645,645,645,645,645,645,645,645,645,645,645,645,645,645,645,645,645,645,645,645,645,645,645,645,645,645,645,645,645,645,645,645,645,645,645,645,645,645,645,645,645,645,645,645,645,645,645,645,645,645,645,645,645,645,645,645,645,645,645,645,645,645,645,645,645,645,645,645,645,645,645,645,645,645,645,645,645,645,645,645,645,645,645,
401,401,401,401,401,401,401,401,401,401,401,401,401,401,401,401,401,401,401,401,401,401,401,401,401,401,401,401,401,401,401,401,401,401,401,401,401,401,401,401,645,645,645,645,645,645,645,645,645,645,645,645,645,645,645,645,645,645,645,645,645,645,645,645,645,645,645,645,645,645,645,645,645,645,645,645,645,645,645,645,645,645,645,645,645,645,645,645,645,645,645,645,645,645,645,645,645,645,645,645,645,645,645,645,645,645,645,645,645,645,645,645,645,645,645,645,645,645,645,645,645,645,645,645,645,645,645,645,645,645,645,645,645,645,645,645,645,645,645,645,645,645,645,645,645,645,645,645,645,645,645,645,645,645,645,645,645,645,645,645,645,645,645,645,
401,401,401,401,401,401,401,401,401,401,401,401,401,401,401,401,401,401,401,401,401,401,401,401,401,401,401,401,401,401,401,401,401,401,401,401,401,401,401,401,645,645,645,645,645,645,645,645,645,645,645,645,645,645,645,645,645,645,645,645,645,645,645,645,645,645,645,645,645,645,645,645,645,645,645,645,645,645,645,645,645,645,645,645,645,645,645,645,645,645,645,645,645,645,645,645,645,645,645,645,645,645,645,645,645,645,645,645,645,645,645,645,645,645,645,645,645,645,645,645,645,645,645,645,645,645,645,645,645,645,645,645,645,645,645,645,645,645,645,645,645,645,645,645,645,645,645,645,645,645,645,645,645,645,645,645,645,645,645,645,645,645,645,645,
401,401,401,401,401,401,401,401,401,401,401,401,401,401,401,401,401,401,401,401,401,401,401,401,401,401,401,401,401,401,401,401,401,401,401,401,401,401,401,401,645,645,645,645,645,645,645,645,645,645,645,645,645,645,645,645,645,645,645,645,645,645,645,645,645,645,645,645,645,645,645,645,645,645,645,645,645,645,645,645,645,645,645,645,645,645,645,645,645,645,645,645,645,645,645,645,645,645,645,645,645,645,645,645,645,645,645,645,645,645,645,645,645,645,645,645,645,645,645,645,645,645,645,645,645,645,645,645,645,645,645,645,645,645,645,645,645,645,645,645,645,645,645,645,645,645,645,645,645,645,645,645,645,645,645,645,645,645,645,645,645,645,645,645,
401,401,401,401,401,401,401,401,401,401,401,401,401,401,401,401,401,401,401,401,401,401,401,401,401,401,401,401,401,401,401,401,401,401,401,401,401,401,401,401,645,645,645,645,645,645,645,645,645,645,645,645,645,645,645,645,645,645,645,645,645,645,645,645,645,645,645,645,645,645,645,645,645,645,645,645,645,645,645,645,645,645,645,645,645,645,645,645,645,645,645,645,645,645,645,645,645,645,645,645,645,645,645,645,645,645,645,645,645,645,645,645,645,645,645,645,645,645,645,645,645,645,645,645,645,645,645,645,645,645,645,645,645,645,645,645,645,645,645,645,645,645,645,645,645,645,645,645,645,645,645,645,645,645,645,645,645,645,645,645,645,645,645,645,
401,401,401,401,401,401,401,401,401,401,401,401,401,401,401,401,401,401,401,401,401,401,401,401,401,401,401,401,401,401,401,401,401,401,401,401,401,401,401,401,645,645,645,645,645,645,645,645,645,645,645,645,645,645,645,645,645,645,645,645,645,645,645,645,645,645,645,645,645,645,645,645,645,645,645,645,645,645,645,645,645,645,645,645,645,645,645,645,645,645,645,645,645,645,645,645,645,645,645,645,645,645,645,645,645,645,645,645,645,645,645,645,645,645,645,645,645,645,645,645,645,645,645,645,645,645,645,645,645,645,645,645,645,645,645,645,645,645,645,645,645,645,645,645,645,645,645,645,645,645,645,645,645,645,645,645,645,645,645,645,645,645,645,645,
645,645,645,645,645,645,645,645,645,645,645,645,645,645,645,645,645,645,645,645,645,645,645,645,645,645,645,645,645,645,645,645,645,645,645,645,645,645,645,645,645,645,645,645,645,645,645,645,645,645,645,645,645,645,645,645,645,645,645,645,645,645,645,645,645,645,645,645,645,645,645,645,645,645,645,645,645,645,645,645,645,645,645,645,645,645,645,645,645,645,645,645,645,645,645,645,645,645,645,645,645,645,645,645,645,645,645,645,645,645,645,645,645,645,645,645,645,645,645,645,645,645,645,645,645,645,645,645,645,645,645,645,645,645,645,645,645,645,645,645,645,645,645,645,645,645,645,645,645,645,645,645,645,645,645,645,645,645,645,645,645,645,645,645,
645,645,645,645,645,645,645,645,645,645,645,645,645,645,645,645,645,645,645,645,645,645,645,645,645,645,645,645,645,645,645,645,645,645,645,645,645,645,645,645,645,645,645,645,645,645,645,645,645,645,645,645,645,645,645,645,645,645,645,645,645,645,645,645,645,645,645,645,645,645,645,645,645,645,645,645,645,645,645,645,645,645,645,645,645,645,645,645,645,645,645,645,645,645,645,645,645,645,645,645,645,645,645,645,645,645,645,645,645,645,645,645,645,645,645,645,645,645,645,645,645,645,645,645,645,645,645,645,645,645,645,645,645,645,645,645,645,645,645,645,645,645,645,645,645,645,645,645,645,645,645,645,645,645,645,645,645,645,645,645,645,645,645,645,
645,645,645,645,645,645,645,645,645,645,645,645,645,645,645,645,645,645,645,645,645,645,645,645,645,645,645,645,645,645,645,645,645,645,645,645,645,645,645,645,645,645,645,645,645,645,645,645,645,645,645,645,645,645,645,645,645,645,645,645,645,645,645,645,645,645,645,645,645,645,645,645,645,645,645,645,645,645,645,645,645,645,645,645,645,645,645,645,645,645,645,645,645,645,645,645,645,645,645,645,645,645,645,645,645,645,645,645,645,645,645,645,645,645,645,645,645,645,645,645,645,645,645,645,645,645,645,645,645,645,645,645,645,645,645,645,645,645,645,645,645,645,645,645,645,645,645,645,645,645,645,645,645,645,645,645,645,645,645,645,645,645,645,645,
645,645,645,645,645,645,645,645,645,645,645,645,645,645,645,645,645,645,645,645,645,645,645,645,645,645,645,645,645,645,645,645,645,645,645,645,645,645,645,645,645,645,645,645,645,645,645,645,645,645,645,645,645,645,645,645,645,645,645,645,645,645,645,645,645,645,645,645,645,645,645,645,645,645,645,645,645,645,645,645,645,645,645,645,645,645,645,645,645,645,645,645,645,645,645,645,645,645,645,645,645,645,645,645,645,645,645,645,645,645,645,645,645,645,645,645,645,645,645,645,645,645,645,645,645,645,645,645,645,645,645,645,645,645,645,645,645,645,645,645,645,645,645,645,645,645,645,645,645,645,645,645,645,645,645,645,645,645,645,645,645,645,645,645,
645,645,645,645,645,645,645,645,645,645,645,645,645,645,645,645,645,645,645,645,645,645,645,645,645,645,645,645,645,645,645,645,645,645,645,645,645,645,645,645,645,645,645,645,645,645,645,645,645,645,645,645,645,645,645,645,645,645,645,645,645,645,645,645,645,645,645,645,645,645,645,645,645,645,645,645,645,645,645,645,645,645,645,645,645,645,645,645,645,645,645,645,645,645,645,645,645,645,645,645,645,645,645,645,645,645,645,645,645,645,645,645,645,645,645,645,645,645,645,645,645,645,645,645,645,645,645,645,645,645,645,645,645,645,645,645,645,645,645,645,645,645,645,645,645,645,645,645,645,645,645,645,645,645,645,645,645,645,645,645,645,645,645,645,
645,645,645,645,645,645,645,645,645,645,645,645,645,645,645,645,645,645,645,645,645,645,645,645,645,645,645,645,645,645,645,645,645,645,645,645,645,645,645,645,645,645,645,645,645,645,645,645,645,645,645,645,645,645,645,645,645,645,645,645,645,645,645,645,645,645,645,645,645,645,645,645,645,645,645,645,645,645,645,645,645,645,645,645,645,645,645,645,645,645,645,645,645,645,645,645,645,645,645,645,645,645,645,645,645,645,645,645,645,645,645,645,645,645,645,645,645,645,645,645,645,645,645,645,645,645,645,645,645,645,645,645,645,645,645,645,645,645,645,645,645,645,645,645,645,645,645,645,645,645,645,645,645,645,645,645,645,645,645,645,645,645,645,645,
645,645,645,645,645,645,645,645,645,645,645,645,645,645,645,645,645,645,645,645,645,645,645,645,645,645,645,645,645,645,645,645,645,645,645,645,645,645,645,645,645,645,645,645,645,645,645,645,645,645,645,645,645,645,645,645,645,645,645,645,645,645,645,645,645,645,645,645,645,645,645,645,645,645,645,645,645,645,645,645,645,645,645,645,645,645,645,645,645,645,645,645,645,645,645,645,645,645,645,645,645,645,645,645,645,645,645,645,645,645,645,645,645,645,645,645,645,645,645,645,645,645,645,645,645,645,645,645,645,645,645,645,645,645,645,645,645,645,645,645,645,645,645,645,645,645,645,645,645,645,645,645,645,645,645,645,645,645,645,645,645,645,645,645,
645,645,645,645,645,645,645,645,645,645,645,645,645,645,645,645,645,645,645,645,645,645,645,645,645,645,645,645,645,645,645,645,645,645,645,645,645,645,645,645,645,645,645,645,645,645,645,645,645,645,645,645,645,645,645,645,645,645,645,645,645,645,645,645,645,645,645,645,645,645,645,645,645,645,645,645,645,645,645,645,645,645,645,645,645,645,645,645,645,645,645,645,645,645,645,645,645,645,645,645,645,645,645,645,645,645,645,645,645,645,645,645,645,645,645,645,645,645,645,645,645,645,645,645,645,645,645,645,645,645,645,645,645,645,645,645,645,645,645,645,645,645,645,645,645,645,645,645,645,645,645,645,645,645,645,645,645,645,645,645,645,645,645,645,
645,645,645,645,645,645,645,645,645,645,645,645,645,645,645,645,645,645,645,645,645,645,645,645,645,645,645,645,645,645,645,645,645,645,645,645,645,645,645,645,645,645,645,645,645,645,645,645,645,645,645,645,645,645,645,645,645,645,645,645,645,645,645,645,645,645,645,645,645,645,645,645,645,645,645,645,645,645,645,645,645,645,645,645,645,645,645,645,645,645,645,645,645,645,645,645,645,645,645,645,645,645,645,645,645,645,645,645,645,645,645,645,645,645,645,645,645,645,645,645,645,645,645,645,645,645,645,645,645,645,645,645,645,645,645,645,645,645,645,645,645,645,645,645,645,645,645,645,645,645,645,645,645,645,645,645,645,645,645,645,645,645,645,645,
645,645,645,645,645,645,645,645,645,645,645,645,645,645,645,645,645,645,645,645,645,645,645,645,645,645,645,645,645,645,645,645,645,645,645,645,645,645,645,645,645,645,645,645,645,645,645,645,645,645,645,645,645,645,645,645,645,645,645,645,645,645,645,645,645,645,645,645,645,645,645,645,645,645,645,645,645,645,645,645,645,645,645,645,645,645,645,645,645,645,645,645,645,645,645,645,645,645,645,645,645,645,645,645,645,645,645,645,645,645,645,645,645,645,645,645,645,645,645,645,645,645,645,645,645,645,645,645,645,645,645,645,645,645,645,645,645,645,645,645,645,645,645,645,645,645,645,645,645,645,645,645,645,645,645,645,645,645,645,645,645,645,645,645,
645,645,645,645,645,645,645,645,645,645,645,645,645,645,645,645,645,645,645,645,645,645,645,645,645,645,645,645,645,645,645,645,645,645,645,645,645,645,645,645,645,645,645,645,645,645,645,645,645,645,645,645,645,645,645,645,645,645,645,645,645,645,645,645,645,645,645,645,645,645,645,645,645,645,645,645,645,645,645,645,645,645,645,645,645,645,645,645,645,645,645,645,645,645,645,645,645,645,645,645,645,645,645,645,645,645,645,645,645,645,645,645,645,645,645,645,645,645,645,645,645,645,645,645,645,645,645,645,645,645,645,645,645,645,645,645,645,645,645,645,645,645,645,645,645,645,645,645,645,645,645,645,645,645,645,645,645,645,645,645,645,645,645,645,
645,645,645,645,645,645,645,645,645,645,645,645,645,645,645,645,645,645,645,645,645,645,645,645,645,645,645,645,645,645,645,645,645,645,645,645,645,645,645,645,645,645,645,645,645,645,645,645,645,645,645,645,645,645,645,645,645,645,645,645,645,645,645,645,645,645,645,645,645,645,645,645,645,645,645,645,645,645,645,645,645,645,645,645,645,645,645,645,645,645,645,645,645,645,645,645,645,645,645,645,645,645,645,645,645,645,645,645,645,645,645,645,645,645,645,645,645,645,645,645,645,645,645,645,645,645,645,645,645,645,645,645,645,645,645,645,645,645,645,645,645,645,645,645,645,645,645,645,645,645,645,645,645,645,645,645,645,645,645,645,645,645,645,645,
645,645,645,645,645,645,645,645,645,645,645,645,645,645,645,645,645,645,645,645,645,645,645,645,645,645,645,645,645,645,645,645,645,645,645,645,645,645,645,645,645,645,645,645,645,645,645,645,645,645,645,645,645,645,645,645,645,645,645,645,645,645,645,645,645,645,645,645,645,645,645,645,645,645,645,645,645,645,645,645,645,645,645,645,645,645,645,645,645,645,645,645,645,645,645,645,645,645,645,645,645,645,645,645,645,645,645,645,645,645,645,645,645,645,645,645,645,645,645,645,645,645,645,645,645,645,645,645,645,645,645,645,645,645,645,645,645,645,645,645,645,645,645,645,645,645,645,645,645,645,645,645,645,645,645,645,645,645,645,645,645,645,645,645,
645,645,645,645,645,645,645,645,645,645,645,645,645,645,645,645,645,645,645,645,645,645,645,645,645,645,645,645,645,645,645,645,645,645,645,645,645,645,645,645,645,645,645,645,645,645,645,645,645,645,645,645,645,645,645,645,645,645,645,645,645,645,645,645,645,645,645,645,645,645,645,645,645,645,645,645,645,645,645,645,645,645,645,645,645,645,645,645,645,645,645,645,645,645,645,645,645,645,645,645,645,645,645,645,645,645,645,645,645,645,645,645,645,645,645,645,645,645,645,645,645,645,645,645,645,645,645,645,645,645,645,645,645,645,645,645,645,645,645,645,645,645,645,645,645,645,645,645,645,645,645,645,645,645,645,645,645,645,645,645,645,645,645,645,
645,645,645,645,645,645,645,645,645,645,645,645,645,645,645,645,645,645,645,645,645,645,645,645,645,645,645,645,645,645,645,645,645,645,645,645,645,645,645,645,645,645,645,645,645,645,645,645,645,645,645,645,645,645,645,645,645,645,645,645,645,645,645,645,645,645,645,645,645,645,645,645,645,645,645,645,645,645,645,645,645,645,645,645,645,645,645,645,645,645,645,645,645,645,645,645,645,645,645,645,645,645,645,645,645,645,645,645,645,645,645,645,645,645,645,645,645,645,645,645,645,645,645,645,645,645,645,645,645,645,645,645,645,645,645,645,645,645,645,645,645,645,645,645,645,645,645,645,645,645,645,645,645,645,645,645,645,645,645,645,645,645,645,645,
645,645,645,645,645,645,645,645,645,645,645,645,645,645,645,645,645,645,645,645,645,645,645,645,645,645,645,645,645,645,645,645,645,645,645,645,645,645,645,645,645,645,645,645,645,645,645,645,645,645,645,645,645,645,645,645,645,645,645,645,645,645,645,645,645,645,645,645,645,645,645,645,645,645,645,645,645,645,645,645,645,645,645,645,645,645,645,645,645,645,645,645,645,645,645,645,645,645,645,645,645,645,645,645,645,645,645,645,645,645,645,645,645,645,645,645,645,645,645,645,645,645,645,645,645,645,645,645,645,645,645,645,645,645,645,645,645,645,645,645,645,645,645,645,645,645,645,645,645,645,645,645,645,645,645,645,645,645,645,645,645,645,645,645,
645,645,645,645,645,645,645,645,645,645,645,645,645,645,645,645,645,645,645,645,645,645,645,645,645,645,645,645,645,645,645,645,645,645,645,645,645,645,645,645,645,645,645,645,645,645,645,645,645,645,645,645,645,645,645,645,645,645,645,645,645,645,645,645,645,645,645,645,645,645,645,645,645,645,645,645,645,645,645,645,645,645,645,645,645,645,645,645,645,645,645,645,645,645,645,645,645,645,645,645,645,645,645,645,645,645,645,645,645,645,645,645,645,645,645,645,645,645,645,645,645,645,645,645,645,645,645,645,645,645,645,645,645,645,645,645,645,645,645,645,645,645,645,645,645,645,645,645,645,645,645,645,645,645,645,645,645,645,645,645,645,645,645,645,
645,645,645,645,645,645,645,645,645,645,645,645,645,645,645,645,645,645,645,645,645,645,645,645,645,645,645,645,645,645,645,645,645,645,645,645,645,645,645,645,645,645,645,645,645,645,645,645,645,645,645,645,645,645,645,645,645,645,645,645,645,645,645,645,645,645,645,645,645,645,645,645,645,645,645,645,645,645,645,645,645,645,645,645,645,645,645,645,645,645,645,645,645,645,645,645,645,645,645,645,645,645,645,645,645,645,645,645,645,645,645,645,645,645,645,645,645,645,645,645,645,645,645,645,645,645,645,645,645,645,645,645,645,645,645,645,645,645,645,645,645,645,645,645,645,645,645,645,645,645,645,645,645,645,645,645,645,645,645,645,645,645,645,645,
645,645,645,645,645,645,645,645,645,645,645,645,645,645,645,645,645,645,645,645,645,645,645,645,645,645,645,645,645,645,645,645,645,645,645,645,645,645,645,645,645,645,645,645,645,645,645,645,645,645,645,645,645,645,645,645,645,645,645,645,645,645,645,645,645,645,645,645,645,645,645,645,645,645,645,645,645,645,645,645,645,645,645,645,645,645,645,645,645,645,645,645,645,645,645,645,645,645,645,645,645,645,645,645,645,645,645,645,645,645,645,645,645,645,645,645,645,645,645,645,645,645,645,645,645,645,645,645,645,645,645,645,645,645,645,645,645,645,645,645,645,645,645,645,645,645,645,645,645,645,645,645,645,645,645,645,645,645,645,645,645,645,645,645,
645,645,645,645,645,645,645,645,645,645,645,645,645,645,645,645,645,645,645,645,645,645,645,645,645,645,645,645,645,645,645,645,645,645,645,645,645,645,645,645,645,645,645,645,645,645,645,645,645,645,645,645,645,645,645,645,645,645,645,645,645,645,645,645,645,645,645,645,645,645,645,645,645,645,645,645,645,645,645,645,645,645,645,645,645,645,645,645,645,645,645,645,645,645,645,645,645,645,645,645,645,645,645,645,645,645,645,645,645,645,645,645,645,645,645,645,645,645,645,645,645,645,645,645,645,645,645,645,645,645,645,645,645,645,645,645,645,645,645,645,645,645,645,645,645,645,645,645,645,645,645,645,645,645,645,645,645,645,645,645,645,645,645,645,
645,645,645,645,645,645,645,645,645,645,645,645,645,645,645,645,645,645,645,645,645,645,645,645,645,645,645,645,645,645,645,0,0,0,0,0,0,0,0,0,0,0,0,0,645,645,645,645,645,645,645,645,645,645,645,645,645,645,645,645,645,645,645,645,645,645,645,645,645,645,645,645,645,645,645,645,645,645,645,645,645,645,645,645,645,645,645,645,645,645,645,645,645,645,645,645,645,645,645,645,645,645,645,645,645,645,645,645,645,645,645,645,645,645,645,645,645,645,645,645,645,645,645,645,645,645,645,645,645,645,645,645,645,645,645,645,645,645,645,645,645,645,645,645,645,645,645,645,645,645,645,645,645,645,645,645,645,645,645,645,645,645,645,645,
645,645,645,645,645,645,645,645,645,645,645,645,645,645,645,645,645,645,645,645,645,645,645,645,645,645,645,645,645,645,645,645,645,645,645,645,645,645,645,645,645,645,645,645,645,645,645,645,645,645,645,645,645,645,645,645,645,645,645,645,645,645,645,645,645,645,645,645,645,645,645,645,645,645,645,645,645,645,645,645,645,645,645,645,645,645,645,645,645,645,645,645,645,645,645,645,645,645,645,645,645,645,645,645,645,645,645,645,645,645,645,645,645,645,645,645,645,645,645,645,645,645,645,645,645,645,645,645,645,645,645,645,645,645,645,645,645,645,645,645,645,645,645,645,645,645,645,645,645,645,645,645,645,645,645,645,645,645,645,645,645,645,645,645,
645,645,645,645,645,645,645,645,645,645,645,645,645,645,645,645,645,645,645,645,645,645,645,645,645,645,645,645,645,645,645,645,645,645,645,645,645,645,645,645,645,645,645,645,645,645,645,645,645,645,645,645,645,645,645,645,645,645,645,645,645,645,645,645,645,645,645,645,645,645,645,645,645,645,645,645,645,645,645,645,645,645,645,645,645,645,645,645,645,645,645,645,645,645,645,645,645,645,645,645,645,645,645,645,645,645,645,645,645,645,645,645,645,645,645,645,645,645,645,645,645,645,645,645,645,645,645,645,645,645,645,645,645,645,645,645,645,645,645,645,645,645,645,645,645,645,645,645,645,645,645,645,645,645,645,645,645,645,645,645,645,645,645,645,
645,645,645,645,645,645,645,645,645,645,645,645,645,645,645,645,645,645,645,645,645,645,645,645,645,645,645,645,645,645,645,645,645,645,645,645,645,645,645,645,645,645,645,645,645,645,645,645,645,645,645,645,645,645,645,645,645,645,645,645,645,645,645,645,645,645,645,645,645,645,645,645,645,645,645,645,645,645,645,645,645,645,645,645,645,645,645,645,645,645,645,645,645,645,645,645,645,645,645,645,645,645,645,645,645,645,645,645,645,645,645,645,645,645,645,645,645,645,645,645,645,645,645,645,645,645,645,645,645,645,645,645,645,645,645,645,645,645,645,645,645,645,645,645,645,645,645,645,645,645,645,645,645,645,645,645,645,645,645,645,645,645,645,645,
645,645,645,645,645,645,645,645,645,645,645,645,645,645,645,645,645,645,645,645,645,645,645,645,645,645,645,645,645,645,645,645,645,645,645,645,645,645,645,645,645,645,645,645,645,645,645,645,645,645,645,645,645,645,645,645,645,645,645,645,645,645,645,645,645,645,645,645,645,645,645,645,645,645,645,645,645,645,645,645,645,645,645,645,645,645,645,645,645,645,645,645,645,645,645,645,645,645,645,645,645,645,645,645,645,645,645,645,645,645,645,645,645,645,645,645,645,645,645,645,645,645,645,645,645,645,645,645,645,645,645,645,645,645,645,645,645,645,645,645,645,645,645,645,645,645,645,645,645,645,645,645,645,645,645,645,645,645,645,645,645,645,645,645,
645,645,645,645,645,645,645,645,645,645,645,645,645,645,645,645,645,645,645,645,645,645,645,645,645,645,645,645,645,645,645,645,645,645,645,645,645,645,645,645,645,645,645,645,645,645,645,645,645,645,645,645,645,645,645,645,645,645,645,645,645,645,645,645,645,645,645,645,645,645,645,645,645,645,645,645,645,645,645,645,645,645,645,645,645,645,645,645,645,645,645,645,645,645,645,645,645,645,645,645,645,645,645,645,645,645,645,645,645,645,645,645,645,645,645,645,645,645,645,645,645,645,645,645,645,645,645,645,645,645,645,645,645,645,645,645,645,645,645,645,645,645,645,645,645,645,645,645,645,645,645,645,645,645,645,645,645,645,645,645,645,645,645,645,
645,645,645,645,645,645,645,645,645,645,645,645,645,645,645,645,645,645,645,645,645,645,645,645,645,645,645,645,645,645,645,645,645,645,645,645,645,645,645,645,645,645,645,645,645,645,645,645,645,645,645,645,645,645,645,645,645,645,645,645,645,645,645,645,645,645,645,645,645,645,645,645,645,645,645,645,645,645,645,645,645,645,645,645,645,645,645,645,645,645,645,645,645,645,645,645,645,645,645,645,645,645,645,645,645,645,645,645,645,645,645,645,645,645,645,645,645,645,645,645,645,645,645,645,645,645,645,645,645,645,645,645,645,645,645,645,645,645,645,645,645,645,645,645,645,645,645,645,645,645,645,645,645,645,645,645,645,645,645,645,645,645,645,645,
645,645,645,645,645,645,645,645,645,645,645,645,645,645,645,645,645,645,645,645,645,645,645,645,645,645,645,645,645,645,645,645,645,645,645,645,645,645,645,645,645,645,645,645,645,645,645,645,645,645,645,645,645,645,645,645,645,645,645,645,645,645,645,645,645,645,645,645,645,645,645,645,645,645,645,645,645,645,645,645,645,645,645,645,645,645,645,645,645,645,645,645,645,645,645,645,645,645,645,645,645,645,645,645,645,645,645,645,645,645,645,645,645,645,645,645,645,645,645,645,645,645,645,645,645,645,645,645,645,645,645,645,645,645,645,645,645,645,645,645,645,645,645,645,645,645,645,645,645,645,645,645,645,645,645,645,645,645,645,645,645,645,645,645,
645,645,645,645,645,645,645,645,645,645,645,645,645,645,645,645,645,645,645,645,645,645,645,645,645,645,645,645,645,645,645,645,645,645,645,645,645,645,645,645,645,645,645,645,645,645,645,645,645,645,645,645,645,645,645,645,645,645,645,645,645,645,645,645,645,645,645,645,645,645,645,645,645,645,645,645,645,645,645,645,645,645,645,645,645,645,645,645,645,645,645,645,645,645,645,645,645,645,645,645,645,645,645,645,645,645,645,645,645,645,645,645,645,645,645,645,645,645,645,645,645,645,645,645,645,645,645,645,645,645,645,645,645,645,645,645,645,645,645,645,645,645,645,645,645,645,645,645,645,645,645,645,645,645,645,645,645,645,645,645,645,645,645,645,
645,645,645,645,645,645,645,645,645,645,645,645,645,645,645,645,645,645,645,645,645,645,645,645,645,645,645,645,645,645,645,645,645,645,645,645,645,645,645,645,645,645,645,645,645,645,645,645,645,645,645,645,645,645,645,645,645,645,645,645,645,645,645,645,645,645,645,645,645,645,645,645,645,645,645,645,645,645,645,645,645,645,645,645,645,645,645,645,645,645,645,645,645,645,645,645,645,645,645,645,645,645,645,645,645,645,645,645,645,645,645,645,645,645,645,645,645,645,645,645,645,645,645,645,645,645,645,645,645,645,645,645,645,645,645,645,645,645,645,645,645,645,645,645,645,645,645,645,645,645,645,645,645,645,645,645,645,645,645,645,645,645,645,645,
645,645,645,645,645,645,645,645,645,645,645,645,645,645,645,645,645,645,645,645,645,645,645,645,645,645,645,645,645,645,645,645,645,645,645,645,645,645,645,645,645,645,645,645,645,645,645,645,645,645,645,645,645,645,645,645,645,645,645,645,645,645,645,645,645,645,645,645,645,645,645,645,645,645,645,645,645,645,645,645,645,645,645,645,645,645,645,645,645,645,645,645,645,645,645,645,645,645,645,645,645,645,645,645,645,645,645,645,645,645,645,645,645,645,645,645,645,645,645,645,645,645,645,645,645,645,645,645,645,645,645,645,645,645,645,645,645,645,645,645,645,645,645,645,645,645,645,645,645,645,645,645,645,645,645,645,645,645,645,645,645,645,645,645,
645,645,645,645,645,645,645,645,645,645,645,645,645,645,645,645,645,645,645,645,645,645,645,645,645,645,645,645,645,645,645,645,645,645,645,645,645,645,645,645,645,645,645,645,645,645,645,645,645,645,645,645,645,645,645,645,645,645,645,645,645,645,645,645,645,645,645,645,645,645,645,645,645,645,645,645,645,645,645,645,645,645,645,645,645,645,645,645,645,645,645,645,645,645,645,645,645,645,645,645,645,645,645,645,645,645,645,645,645,645,645,645,645,645,645,645,645,645,645,645,645,645,645,645,645,645,645,645,645,645,645,645,645,645,645,645,645,645,645,645,645,645,645,645,645,645,645,645,645,645,645,645,645,645,645,645,645,645,645,645,645,645,645,645,
645,645,645,645,645,645,645,645,645,645,645,645,645,645,645,645,645,645,645,645,645,645,645,645,645,645,645,645,645,645,645,645,645,645,645,645,645,645,645,645,645,645,645,645,645,645,645,645,645,645,645,645,645,645,645,645,645,645,645,645,645,645,645,645,645,645,645,645,645,645,645,645,645,645,645,645,645,645,645,645,645,645,645,645,645,645,645,645,645,645,645,645,645,645,645,645,645,645,645,645,645,645,645,645,645,645,645,645,645,645,645,645,645,645,645,645,645,645,645,645,645,645,645,645,645,645,645,645,645,645,645,645,645,645,645,645,645,645,645,645,645,645,645,645,645,645,645,645,645,645,645,645,645,645,645,645,645,645,645,645,645,645,645,645,
645,645,645,645,645,645,645,645,645,645,645,645,645,645,645,645,645,645,645,645,645,645,645,645,645,645,645,645,645,645,645,645,645,645,645,645,645,645,645,645,645,645,645,645,645,645,645,645,645,645,645,645,645,645,645,645,645,645,645,645,645,645,645,645,645,645,645,645,645,645,645,645,645,645,645,645,645,645,645,645,645,645,645,645,645,645,645,645,645,645,645,645,645,645,645,645,645,645,645,645,645,645,645,645,645,645,645,645,645,645,645,645,645,645,645,645,645,645,645,645,645,645,645,645,645,645,645,645,645,645,645,645,645,645,645,645,645,645,645,645,645,645,645,645,645,645,645,645,645,645,645,645,645,645,645,645,645,645,645,645,645,645,645,645,
645,645,645,645,645,645,645,645,645,645,645,645,645,645,645,645,645,645,645,645,645,645,645,645,645,645,645,645,645,645,645,645,645,645,645,645,645,645,645,645,645,645,645,645,645,645,645,645,645,645,645,645,645,645,645,645,645,645,645,645,645,645,645,645,645,645,645,645,645,645,645,645,645,645,645,645,645,645,645,645,645,645,645,645,645,645,645,645,645,645,645,645,645,645,645,645,645,645,645,645,645,645,645,645,645,645,645,645,645,645,645,645,645,645,645,645,645,645,645,645,645,645,645,645,645,645,645,645,645,645,645,645,645,645,645,645,645,645,645,645,645,645,645,645,645,645,645,645,645,645,645,645,645,645,645,645,645,645,645,645,645,645,645,645,
645,645,645,645,645,645,645,645,645,645,645,645,645,645,645,645,645,645,645,645,645,645,645,645,645,645,645,645,645,645,645,645,645,645,645,645,645,645,645,645,645,645,645,645,645,645,645,645,645,645,645,645,645,645,645,645,645,645,645,645,645,645,645,645,645,645,645,645,645,645,645,645,645,645,645,645,645,645,645,645,645,645,645,645,645,645,645,645,645,645,645,645,645,645,645,645,645,645,645,645,645,645,645,645,645,645,645,645,645,645,645,645,645,645,645,645,645,645,645,645,645,645,645,645,645,645,645,645,645,645,645,645,645,645,645,645,645,645,645,645,645,645,645,645,645,645,645,645,645,645,645,645,645,645,645,645,645,645,645,645,645,645,645,645,
645,645,645,645,645,645,645,645,645,645,645,645,645,645,645,645,645,645,645,645,645,645,645,645,645,645,645,645,645,645,645,645,645,645,645,645,645,645,645,645,645,645,645,645,645,645,645,645,645,645,645,645,645,645,645,645,645,645,645,645,645,645,645,645,645,645,645,645,645,645,645,645,645,645,645,645,645,645,645,645,645,645,645,645,645,645,645,645,645,645,645,645,645,645,645,645,645,645,645,645,645,645,645,645,645,645,645,645,645,645,645,645,645,645,645,645,645,645,645,645,645,645,645,645,645,645,645,645,645,645,645,645,645,645,645,645,645,645,645,645,645,645,645,645,645,645,645,645,645,645,645,645,645,645,645,645,645,645,645,645,645,645,645,645,
645,645,645,645,645,645,645,645,645,645,645,645,645,645,645,645,645,645,645,645,645,645,645,645,645,645,645,645,645,645,645,645,645,645,645,645,645,645,645,645,645,645,645,645,645,645,645,645,645,645,645,645,645,645,645,645,645,645,645,645,645,645,645,645,645,645,645,645,645,645,645,645,645,645,645,645,645,645,645,645,645,645,645,645,645,645,645,645,645,645,645,645,645,645,645,645,645,645,645,645,645,645,645,645,645,645,645,645,645,645,645,645,645,645,645,645,645,645,645,645,645,645,645,645,645,645,645,645,645,645,645,645,645,645,645,645,645,645,645,645,645,645,645,645,645,645,645,645,645,645,645,645,645,645,645,645,645,645,645,645,645,645,645,645,
645,645,645,645,645,645,645,645,645,645,645,645,645,645,645,645,645,645,645,645,645,645,645,645,645,645,645,645,645,645,645,645,645,645,645,645,645,645,645,645,645,645,645,645,645,645,645,645,645,645,645,645,645,645,645,645,645,645,645,645,645,645,645,645,645,645,645,645,645,645,645,645,645,645,645,645,645,645,645,645,645,645,645,645,645,645,645,645,645,645,645,645,645,645,645,645,645,645,645,645,645,645,645,645,645,645,645,645,645,645,645,645,645,645,645,645,645,645,645,645,645,645,645,645,645,645,645,645,645,645,645,645,645,645,645,645,645,645,645,645,645,645,645,645,645,645,645,645,645,645,645,645,645,645,645,645,645,645,645,645,645,645,645,645,
645,645,645,645,645,645,645,645,645,645,645,645,645,645,645,645,645,645,645,645,645,645,645,645,645,645,645,645,645,645,645,645,645,645,645,645,645,645,645,645,645,645,645,645,645,645,645,645,645,645,645,645,645,645,645,645,645,645,645,645,645,645,645,645,645,645,645,645,645,645,645,645,645,645,645,645,645,645,645,645,645,645,645,645,645,645,645,645,645,645,645,645,645,645,645,645,645,645,645,645,645,645,645,645,645,645,645,645,645,645,645,645,645,645,645,645,645,645,645,645,645,645,645,645,645,645,645,645,645,645,645,645,645,645,645,645,645,645,645,645,645,645,645,645,645,645,645,645,645,645,645,645,645,645,645,645,645,645,645,645,645,645,645,645,
645,645,645,645,645,645,645,645,645,645,645,645,645,645,645,645,645,645,645,645,645,645,645,645,645,645,645,645,645,645,645,645,645,645,645,645,645,645,645,645,645,645,645,645,645,645,645,645,645,645,645,645,645,645,645,645,645,645,645,645,645,645,645,645,645,645,645,645,645,645,645,645,645,645,645,645,645,645,645,645,645,645,645,645,645,645,645,645,645,645,645,645,645,645,645,645,645,645,645,645,645,645,645,645,645,645,645,645,645,645,645,645,645,645,645,645,645,645,645,645,645,645,645,645,645,645,645,645,645,645,645,645,645,645,645,645,645,645,645,645,645,645,645,645,645,645,645,645,645,645,645,645,645,645,645,645,645,645,645,645,645,645,645,645,
645,645,645,645,645,645,645,645,645,645,645,645,645,645,645,645,645,645,645,645,645,645,645,645,645,645,645,645,645,645,645,645,645,645,645,645,645,645,645,645,645,645,645,645,645,645,645,645,645,645,645,645,645,645,645,645,645,645,645,645,645,645,645,645,645,645,645,645,645,645,645,645,645,645,645,645,645,645,645,645,645,645,645,645,645,645,645,645,645,645,645,645,645,645,645,645,645,645,645,645,645,645,645,645,645,645,645,645,645,645,645,645,645,645,645,645,645,645,645,645,645,645,645,645,645,645,645,645,645,645,645,645,645,645,645,645,645,645,645,645,645,645,645,645,645,645,645,645,645,645,645,645,645,645,645,645,645,645,645,645,645,645,645,645,
645,645,645,645,645,645,645,645,645,645,645,645,645,645,645,645,645,645,645,645,645,645,645,645,645,645,645,645,645,645,645,645,645,645,645,645,645,645,645,645,645,645,645,645,645,645,645,645,645,645,645,645,645,645,645,645,645,645,645,645,645,645,645,645,645,645,645,645,645,645,645,645,645,645,645,645,645,645,645,645,645,645,645,645,645,645,645,645,645,645,645,645,645,645,645,645,645,645,645,645,645,645,645,645,645,645,645,645,645,645,645,645,645,645,645,645,645,645,645,645,645,645,645,645,645,645,645,645,645,645,645,645,645,645,645,645,645,645,645,645,645,645,645,645,645,645,645,645,645,645,645,645,645,645,645,645,645,645,645,645,645,645,645,645,
645,645,645,645,645,645,645,645,645,645,645,645,645,645,645,645,645,645,645,645,645,645,645,645,645,645,645,645,645,645,645,645,645,645,645,645,645,645,645,645,645,645,645,645,645,645,645,645,645,645,645,645,645,645,645,645,645,645,645,645,645,645,645,645,645,645,645,645,645,645,645,645,645,645,645,645,645,645,645,645,645,645,645,645,645,645,645,645,645,645,645,645,645,645,645,645,645,645,645,645,645,645,645,645,645,645,645,645,645,645,645,645,645,645,645,645,645,645,645,645,645,645,645,645,645,645,645,645,645,645,645,645,645,645,645,645,645,645,645,645,645,645,645,645,645,645,645,645,645,645,645,645,645,645,645,645,645,645,645,645,645,645,645,645,
645,645,645,645,645,645,645,645,645,645,645,645,645,645,645,645,645,645,645,645,645,645,645,645,645,645,645,645,645,645,645,645,645,645,645,645,645,645,645,645,645,645,645,645,645,645,645,645,645,645,645,645,645,645,645,645,645,645,645,645,645,645,645,645,645,645,645,645,645,645,645,645,645,645,645,645,645,645,645,645,645,645,645,645,645,645,645,645,645,645,645,645,645,645,645,645,645,645,645,645,645,645,645,645,645,645,645,645,645,645,645,645,645,645,645,645,645,645,645,645,645,645,645,645,645,645,645,645,645,645,645,645,645,645,645,645,645,645,645,645,645,645,645,645,645,645,645,645,645,645,645,645,645,645,645,645,645,645,645,645,645,645,645,645,
645,645,645,645,645,645,645,645,645,645,645,645,645,645,645,645,645,645,645,645,645,645,645,645,645,645,645,645,645,645,645,645,645,645,645,645,645,645,645,645,645,645,645,645,645,645,645,645,645,645,645,645,645,645,645,645,645,645,645,645,645,645,645,645,645,645,645,645,645,645,645,645,645,645,645,645,645,645,645,645,645,645,645,645,645,645,645,645,645,645,645,645,645,645,645,645,645,645,645,645,645,645,645,645,645,645,645,645,645,645,645,645,645,645,645,645,645,645,645,645,645,645,645,645,645,645,645,645,645,645,645,645,645,645,645,645,645,645,645,645,645,645,645,645,645,645,645,645,645,645,645,645,645,645,645,645,645,645,645,645,645,645,645,645,
645,645,645,645,645,645,645,645,645,645,645,645,645,645,645,645,645,645,645,645,645,645,645,645,645,645,645,645,645,645,645,645,645,645,645,645,645,645,645,645,645,645,645,645,645,645,645,645,645,645,645,645,645,645,645,645,645,645,645,645,645,645,645,645,645,645,645,645,645,645,645,645,645,645,645,645,645,645,645,645,645,645,645,645,645,645,645,645,645,645,645,645,645,645,645,645,645,645,645,645,645,645,645,645,645,645,645,645,645,645,645,645,645,645,645,645,645,645,645,645,645,645,645,645,645,645,645,645,645,645,645,645,645,645,645,645,645,645,645,645,645,645,645,645,645,645,645,645,645,645,645,645,645,645,645,645,645,645,645,645,645,645,645,645,
645,645,645,645,645,645,645,645,645,645,645,645,645,645,645,645,645,645,645,645,645,645,645,645,645,645,645,645,645,645,645,645,645,645,645,645,645,645,645,645,645,645,645,645,645,645,645,645,645,645,645,645,645,645,645,645,645,645,645,645,645,645,645,645,645,645,645,645,645,645,645,645,645,645,645,645,645,645,645,645,645,645,645,645,645,645,645,645,645,645,645,645,645,645,645,645,645,645,645,645,645,645,645,645,645,645,645,645,645,645,645,645,645,645,645,645,645,645,645,645,645,645,645,645,645,645,645,645,645,645,645,645,645,645,645,645,645,645,645,645,645,645,645,645,645,645,645,645,645,645,645,645,645,645,645,645,645,645,645,645,645,645,645,645,
645,645,645,645,645,645,645,645,645,645,645,645,645,645,645,645,645,645,645,645,645,645,645,645,645,645,645,645,645,645,645,645,645,645,645,645,645,645,645,645,645,645,645,645,645,645,645,645,645,645,645,645,645,645,645,645,645,645,645,645,645,645,645,645,645,645,645,645,645,645,645,645,645,645,645,645,645,645,645,645,645,645,645,645,645,645,645,645,645,645,645,645,645,645,645,645,645,645,645,645,645,645,645,645,645,645,645,645,645,645,645,645,645,645,645,645,645,645,645,645,645,645,645,645,645,645,645,645,645,645,645,645,645,645,645,645,645,645,645,645,645,645,645,645,645,645,645,645,645,645,645,645,645,645,645,645,645,645,645,645,645,645,645,645,
645,645,645,645,645,645,645,645,645,645,645,645,645,645,645,645,645,645,645,645,645,645,645,645,645,645,645,645,645,645,645,645,645,645,645,645,645,645,645,645,645,645,645,645,645,645,645,645,645,645,645,645,645,645,645,645,645,645,645,645,645,645,645,645,645,645,645,645,645,645,645,645,645,645,645,645,645,645,645,645,645,645,645,645,645,645,645,645,645,645,645,645,645,645,645,645,645,645,645,645,645,645,645,645,645,645,645,645,645,645,645,645,645,645,645,645,645,645,645,645,645,645,645,645,645,645,645,645,645,645,645,645,645,645,645,645,645,645,645,645,645,645,645,645,645,645,645,645,645,645,645,645,645,645,645,645,645,645,645,645,645,645,645,645,
645,645,645,645,645,645,645,645,645,645,645,645,645,645,645,645,645,645,645,645,645,645,645,645,645,645,645,645,645,645,645,645,645,645,645,645,645,645,645,645,645,645,645,645,645,645,645,645,645,645,645,645,645,645,645,645,645,645,645,645,645,645,645,645,645,645,645,645,645,645,645,645,645,645,645,645,645,645,645,645,645,645,645,645,645,645,645,645,645,645,645,645,645,645,645,645,645,645,645,645,645,645,645,645,645,645,645,645,645,645,645,645,645,645,645,645,645,645,645,645,645,645,645,645,645,645,645,645,645,645,645,645,645,645,645,645,645,645,645,645,645,645,645,645,645,645,645,645,645,645,645,645,645,645,645,645,645,645,645,645,645,645,645,645,
645,645,645,645,645,645,645,645,645,645,645,645,645,645,645,645,645,645,645,645,645,645,645,645,645,645,645,645,645,645,645,645,645,645,645,645,645,645,645,645,645,645,645,645,645,645,645,645,645,645,645,645,645,645,645,645,645,645,645,645,645,645,645,645,645,645,645,645,645,645,645,645,645,645,645,645,645,645,645,645,645,645,645,645,645,645,645,645,645,645,645,645,645,645,645,645,645,645,645,645,645,645,645,645,645,645,645,645,645,645,645,645,645,645,645,645,645,645,645,645,645,645,645,645,645,645,645,645,645,645,645,645,645,645,645,645,645,645,645,645,645,645,645,645,645,645,645,645,645,645,645,645,645,645,645,645,645,645,645,645,645,645,645,645,
645,645,645,645,645,645,645,645,645,645,645,645,645,645,645,645,645,645,645,645,645,645,645,645,645,645,645,645,645,645,645,645,645,645,645,645,645,645,645,645,645,645,645,645,645,645,645,645,645,645,645,645,645,645,645,645,645,645,645,645,645,645,645,645,645,645,645,645,645,645,645,645,645,645,645,645,645,645,645,645,645,645,645,645,645,645,645,645,645,645,645,645,645,645,645,645,645,645,645,645,645,645,645,645,645,645,645,645,645,645,645,645,645,645,645,645,645,645,645,645,645,645,645,645,645,645,645,645,645,645,645,645,645,645,645,645,645,645,645,645,645,645,645,645,645,645,645,645,645,645,645,645,645,645,645,645,645,645,645,645,645,645,645,645,
645,645,645,645,645,645,645,645,645,645,645,645,645,645,645,645,645,645,645,645,645,645,645,645,645,645,645,645,645,645,645,645,645,645,645,645,645,645,645,645,645,645,645,645,645,645,645,645,645,645,645,645,645,645,645,645,645,645,645,645,645,645,645,645,645,645,645,645,645,645,645,645,645,645,645,645,645,645,645,645,645,645,645,645,645,645,645,645,645,645,645,645,645,645,645,645,645,645,645,645,645,645,645,645,645,645,645,645,645,645,645,645,645,645,645,645,645,645,645,645,645,645,645,645,645,645,645,645,645,645,645,645,645,645,645,645,645,645,645,645,645,645,645,645,645,645,645,645,645,645,645,645,645,645,645,645,645,645,645,645,645,645,645,645,
645,645,645,645,645,645,645,645,645,645,645,645,645,645,645,645,645,645,645,645,645,645,645,645,645,645,645,645,645,645,645,645,645,645,645,645,645,645,645,645,645,645,645,645,645,645,645,645,645,645,645,645,645,645,645,645,645,645,645,645,645,645,645,645,645,645,645,645,645,645,645,645,645,645,645,645,645,645,645,645,645,645,645,645,645,645,645,645,645,645,645,645,645,645,645,645,645,645,645,645,645,645,645,645,645,645,645,645,645,645,645,645,645,645,645,645,645,645,645,645,645,645,645,645,645,645,645,645,645,645,645,645,645,645,645,645,645,645,645,645,645,645,645,645,645,645,645,645,645,645,645,645,645,645,645,645,645,645,645,645,645,645,645,645,
645,645,645,645,645,645,645,645,645,645,645,645,645,645,645,645,645,645,645,645,645,645,645,645,645,645,645,645,645,645,645,645,645,645,645,645,645,645,645,645,645,645,645,645,645,645,645,645,645,645,645,645,645,645,645,645,645,645,645,645,645,645,645,645,645,645,645,645,645,645,645,645,645,645,645,645,645,645,645,645,645,645,645,645,645,645,645,645,645,645,645,645,645,645,645,645,645,645,645,645,645,645,645,645,645,645,645,645,645,645,645,645,645,645,645,645,645,645,645,645,645,645,645,645,645,645,645,645,645,645,645,645,645,645,645,645,645,645,645,645,645,645,645,645,645,645,645,645,645,645,645,645,645,645,645,645,645,645,645,645,645,645,645,645,
645,645,645,645,645,645,645,645,645,645,645,645,645,645,645,645,645,645,645,645,645,645,645,645,645,645,645,645,645,645,645,645,645,645,645,645,645,645,645,645,645,645,645,645,645,645,645,645,645,645,645,645,645,645,645,645,645,645,645,645,645,645,645,645,645,645,645,645,645,645,645,645,645,645,645,645,645,645,645,645,645,645,645,645,645,645,645,645,645,645,645,645,645,645,645,645,645,645,645,645,645,645,645,645,645,645,645,645,645,645,645,645,645,645,645,645,645,645,645,645,645,645,645,645,645,645,645,645,645,645,645,645,645,645,645,645,645,645,645,645,645,645,645,645,645,645,645,645,645,645,645,645,645,645,645,645,645,645,645,645,645,645,645,645,
645,645,645,645,645,645,645,645,645,645,645,645,645,645,645,645,645,645,645,645,645,645,645,645,645,645,645,645,645,645,645,645,645,645,645,645,645,645,645,645,645,645,645,645,645,645,645,645,645,645,645,645,645,645,645,645,645,645,645,645,645,645,645,645,645,645,645,645,645,645,645,645,645,645,645,645,645,645,645,645,645,645,645,645,645,645,645,645,645,645,645,645,645,645,645,645,645,645,645,645,645,645,645,645,645,645,645,645,645,645,645,645,645,645,645,645,645,645,645,645,645,645,645,645,645,645,645,645,645,645,645,645,645,645,645,645,645,645,645,645,645,645,645,645,645,645,645,645,645,645,645,645,645,645,645,645,645,645,645,645,645,645,645,645,
645,645,645,645,645,645,645,645,645,645,645,645,645,645,645,645,645,645,645,645,645,645,645,645,645,645,645,645,645,645,645,645,645,645,645,645,645,645,645,645,645,645,645,645,645,645,645,645,645,645,645,645,645,645,645,645,645,645,645,645,645,645,645,645,645,645,645,645,645,645,645,645,645,645,645,645,645,645,645,645,645,645,645,645,645,645,645,645,645,645,645,645,645,645,645,645,645,645,645,645,645,645,645,645,645,645,645,645,645,645,645,645,645,645,645,645,645,645,645,645,645,645,645,645,645,645,645,645,645,645,645,645,645,645,645,645,645,645,645,645,645,645,645,645,645,645,645,645,645,645,645,645,645,645,645,645,645,645,645,645,645,645,645,645,
645,645,645,645,645,645,645,645,645,645,645,645,645,645,645,645,645,645,645,645,645,645,645,645,645,645,645,645,645,645,645,645,645,645,645,645,645,645,645,645,645,645,645,645,645,645,645,645,645,645,645,645,645,645,645,645,645,645,645,645,645,645,645,645,645,645,645,645,645,645,645,645,645,645,645,645,645,645,645,645,645,645,645,645,645,645,645,645,645,645,645,645,645,645,645,645,645,645,645,645,645,645,645,645,645,645,645,645,645,645,645,645,645,645,645,645,645,645,645,645,645,645,645,645,645,645,645,645,645,645,645,645,645,645,645,645,645,645,645,645,645,645,645,645,645,645,645,645,645,645,645,645,645,645,645,645,645,645,645,645,645,645,645,645,
645,645,645,645,645,645,645,645,645,645,645,645,645,645,645,645,645,645,645,645,645,645,645,645,645,645,645,645,645,645,645,645,645,645,645,645,645,645,645,645,645,645,645,645,645,645,645,645,645,645,645,645,645,645,645,645,645,645,645,645,645,645,645,645,645,645,645,645,645,645,645,645,645,645,645,645,645,645,645,645,645,645,645,645,645,645,645,645,645,645,645,645,645,645,645,645,645,645,645,645,645,645,645,645,645,645,645,645,645,645,645,645,645,645,645,645,645,645,645,645,645,645,645,645,645,645,645,645,645,645,645,645,645,645,645,645,645,645,645,645,645,645,645,645,645,645,645,645,645,645,645,645,645,645,645,645,645,645,645,645,645,645,645,645,
645,645,645,645,645,645,645,645,645,645,645,645,645,645,645,645,645,645,645,645,645,645,645,645,645,645,645,645,645,645,645,645,645,645,645,645,645,645,645,645,645,645,645,645,645,645,645,645,645,645,645,645,645,645,645,645,645,645,645,645,645,645,645,645,645,645,645,645,645,645,645,645,645,645,645,645,645,645,645,645,645,645,645,645,645,645,645,645,645,645,645,645,645,645,645,645,645,645,645,645,645,645,645,645,645,645,645,645,645,645,645,645,645,645,645,645,645,645,645,645,645,645,645,645,645,645,645,645,645,645,645,645,645,645,645,645,645,645,645,645,645,645,645,645,645,645,645,645,645,645,645,645,645,645,645,645,645,645,645,645,645,645,645,645,
645,645,645,645,645,645,645,645,645,645,645,645,645,645,645,645,645,645,645,645,645,645,645,645,645,645,645,645,645,645,645,645,645,645,645,645,645,645,645,645,645,645,645,645,645,645,645,645,645,645,645,645,645,645,645,645,645,645,645,645,645,645,645,645,645,645,645,645,645,645,645,645,645,645,645,645,645,645,645,645,645,645,645,645,645,645,645,645,645,645,645,645,645,645,645,645,645,645,645,645,645,645,645,645,645,645,645,645,645,645,645,645,645,645,645,645,645,645,645,645,645,645,645,645,645,645,645,645,645,645,645,645,645,645,645,645,645,645,645,645,645,645,645,645,645,645,645,645,645,645,645,645,645,645,645,645,645,645,645,645,645,645,645,645,
645,645,645,645,645,645,645,645,645,645,645,645,645,645,645,645,645,645,645,645,645,645,645,645,645,645,645,645,645,645,645,645,645,645,645,645,645,645,645,645,645,645,645,645,645,645,645,645,645,645,645,645,645,645,645,645,645,645,645,645,645,645,645,645,645,645,645,645,645,645,645,645,645,645,645,645,645,645,645,645,645,645,645,645,645,645,645,645,645,645,645,645,645,645,645,645,645,645,645,645,645,645,645,645,645,645,645,645,645,645,645,645,645,645,645,645,645,645,645,645,645,645,645,645,645,645,645,645,645,645,645,645,645,645,645,645,645,645,645,645,645,645,645,645,645,645,645,645,645,645,645,645,645,645,645,645,645,645,645,645,645,645,645,645,
645,645,645,645,645,645,645,645,645,645,645,645,645,645,645,645,645,645,645,645,645,645,645,645,645,645,645,645,645,645,645,645,645,645,645,645,645,645,645,645,645,645,645,645,645,645,645,645,645,645,645,645,645,645,645,645,645,645,645,645,645,645,645,645,645,645,645,645,645,645,645,645,645,645,645,645,645,645,645,645,645,645,645,645,645,645,645,645,645,645,645,645,645,645,645,645,645,645,645,645,645,645,645,645,645,645,645,645,645,645,645,645,645,645,645,645,645,645,645,645,645,645,645,645,645,645,645,645,645,645,645,645,645,645,645,645,645,645,645,645,645,645,645,645,645,645,645,645,645,645,645,645,645,645,645,645,645,645,645,645,645,645,645,645,
645,645,645,645,645,645,645,645,645,645,645,645,645,645,645,645,645,645,645,645,645,645,645,645,645,645,645,645,645,645,645,645,645,645,645,645,645,645,645,645,645,645,645,645,645,645,645,645,645,645,645,645,645,645,645,645,645,645,645,645,645,645,645,645,645,645,645,645,645,645,645,645,645,645,645,645,645,645,645,645,645,645,645,645,645,645,645,645,645,645,645,645,645,645,645,645,645,645,645,645,645,645,645,645,645,645,645,645,645,645,645,645,645,645,645,645,645,645,645,645,645,645,645,645,645,645,645,645,645,645,645,645,645,645,645,645,645,645,645,645,645,645,645,645,645,645,645,645,645,645,645,645,645,645,645,645,645,645,645,645,645,645,645,645,
645,645,645,645,645,645,645,645,645,645,645,645,645,645,645,645,645,645,645,645,645,645,645,645,645,645,645,645,645,645,645,645,645,645,645,645,645,645,645,645,645,645,645,645,645,645,645,645,645,645,645,645,645,645,645,645,645,645,645,645,645,645,645,645,645,645,645,645,645,645,645,645,645,645,645,645,645,645,645,645,645,645,645,645,645,645,645,645,645,645,645,645,645,645,645,645,645,645,645,645,645,645,645,645,645,645,645,645,645,645,645,645,645,645,645,645,645,645,645,645,645,645,645,645,645,645,645,645,645,645,645,645,645,645,645,645,645,645,645,645,645,645,645,645,645,645,645,645,645,645,645,645,645,645,645,645,645,645,645,645,645,645,645,645,
645,645,645,645,645,645,645,645,645,645,645,645,645,645,645,645,645,645,645,645,645,645,645,645,645,645,645,645,645,645,645,645,645,645,645,645,645,645,645,645,645,645,645,645,645,645,645,645,645,645,645,645,645,645,645,645,645,645,645,645,645,645,645,645,645,645,645,645,645,645,645,645,645,645,645,645,645,645,645,645,645,645,645,645,645,645,645,645,645,645,645,645,645,645,645,645,645,645,645,645,645,645,645,645,645,645,645,645,645,645,645,645,645,645,645,645,645,645,645,645,645,645,645,645,645,645,645,645,645,645,645,645,645,645,645,645,645,645,645,645,645,645,645,645,645,645,645,645,645,645,645,645,645,645,645,645,645,645,645,645,645,645,645,645,
645,645,645,645,645,645,645,645,645,645,645,645,645,645,645,645,645,645,645,645,645,645,645,645,645,645,645,645,645,645,645,645,645,645,645,645,645,645,645,645,645,645,645,645,645,645,645,645,645,645,645,645,645,645,645,645,645,645,645,645,645,645,645,645,645,645,645,645,645,645,645,645,645,645,645,645,645,645,645,645,645,645,645,645,645,645,645,645,645,645,645,645,645,645,645,645,645,645,645,645,645,645,645,645,645,645,645,645,645,645,645,645,645,645,645,645,645,645,645,645,645,645,645,645,645,645,645,645,645,645,645,645,645,645,645,645,645,645,645,645,645,645,645,645,645,645,645,645,645,645,645,645,645,645,645,645,645,645,645,645,645,645,645,645,
645,645,645,645,645,645,645,645,645,645,645,645,645,645,645,645,645,645,645,645,645,645,645,645,645,645,645,645,645,645,645,645,645,645,645,645,645,645,645,645,645,645,645,645,645,645,645,645,645,645,645,645,645,645,645,645,645,645,645,645,645,645,645,645,645,645,645,645,645,645,645,645,645,645,645,645,645,645,645,645,645,645,645,645,645,645,645,645,645,645,645,645,645,645,645,645,645,645,645,645,645,645,645,645,645,645,645,645,645,645,645,645,645,645,645,645,645,645,645,645,645,645,645,645,645,645,645,645,645,645,645,645,645,645,645,645,645,645,645,645,645,645,645,645,645,645,645,645,645,645,645,645,645,645,645,645,645,645,645,645,645,645,645,645,
645,645,645,645,645,645,645,645,645,645,645,645,645,645,645,645,645,645,645,645,645,645,645,645,645,645,645,645,645,645,645,645,645,645,645,645,645,645,645,645,645,645,645,645,645,645,645,645,645,645,645,645,645,645,645,645,645,645,645,645,645,645,645,645,645,645,645,645,645,645,645,645,645,645,645,645,645,645,645,645,645,645,645,645,645,645,645,645,645,645,645,645,645,645,645,645,645,645,645,645,645,645,645,645,645,645,645,645,645,645,645,645,645,645,645,645,645,645,645,645,645,645,645,645,645,645,645,645,645,645,645,645,645,645,645,645,645,645,645,645,645,645,645,645,645,645,645,645,645,645,645,645,645,645,645,645,645,645,645,645,645,645,645,645,
645,645,645,645,645,645,645,645,645,645,645,645,645,645,645,645,645,645,645,645,645,645,645,645,645,645,645,645,645,645,645,645,645,645,645,645,645,645,645,645,645,645,645,645,645,645,645,645,645,645,645,645,645,645,645,645,645,645,645,645,645,645,645,645,645,645,645,645,645,645,645,645,645,645,645,645,645,645,645,645,645,645,645,645,645,645,645,645,645,645,645,645,645,645,645,645,645,645,645,645,645,645,645,645,645,645,645,645,645,645,645,645,645,645,645,645,645,645,645,645,645,645,645,645,645,645,645,645,645,645,645,645,645,645,645,645,645,645,645,645,645,645,645,645,645,645,645,645,645,645,645,645,645,645,645,645,645,645,645,645,645,645,645,645,
645,645,645,645,645,645,645,645,645,645,645,645,645,645,645,645,645,645,645,645,645,645,645,645,645,645,645,645,645,645,645,645,645,645,645,645,645,645,645,645,645,645,645,645,645,645,645,645,645,645,645,645,645,645,645,645,645,645,645,645,645,645,645,645,645,645,645,645,645,645,645,645,645,645,645,645,645,645,645,645,645,645,645,645,645,645,645,645,645,645,645,645,645,645,645,645,645,645,645,645,645,645,645,645,645,645,645,645,645,645,645,645,645,645,645,645,645,645,645,645,645,645,645,645,645,645,645,645,645,645,645,645,645,645,645,645,645,645,645,645,645,645,645,645,645,645,645,645,645,645,645,645,645,645,645,645,645,645,645,645,645,645,645,645,
645,645,645,645,645,645,645,645,645,645,645,645,645,645,645,645,645,645,645,645,645,645,645,645,645,645,645,645,645,645,645,645,645,645,645,645,645,645,645,645,645,645,645,645,645,645,645,645,645,645,645,645,645,645,645,645,645,645,645,645,645,645,645,645,645,645,645,645,645,645,645,645,645,645,645,645,645,645,645,645,645,645,645,645,645,645,645,645,645,645,645,645,645,645,645,645,645,645,645,645,645,645,645,645,645,645,645,645,645,645,645,645,645,645,645,645,645,645,645,645,645,645,645,645,645,645,645,645,645,645,645,645,645,645,645,645,645,645,645,645,645,645,645,645,645,645,645,645,645,645,645,645,645,645,645,645,645,645,645,645,645,645,645,645,
645,645,645,645,645,645,645,645,645,645,645,645,645,645,645,645,645,645,645,645,645,645,645,645,645,645,645,645,645,645,645,645,645,645,645,645,645,645,645,645,645,645,645,645,645,645,645,645,645,645,645,645,645,645,645,645,645,645,645,645,645,645,645,645,645,645,645,645,645,645,645,645,645,645,645,645,645,645,645,645,645,645,645,645,645,645,645,645,645,645,645,645,645,645,645,645,645,645,645,645,645,645,645,645,645,645,645,645,645,645,645,645,645,645,645,645,645,645,645,645,645,645,645,645,645,645,645,645,645,645,645,645,645,645,645,645,645,645,645,645,645,645,645,645,645,645,645,645,645,645,645,645,645,645,645,645,645,645,645,645,645,645,645,645,
645,645,645,645,645,645,645,645,645,645,645,645,645,645,645,645,645,645,645,645,645,645,645,645,645,645,645,645,645,645,645,645,645,645,645,645,645,645,645,645,645,645,645,645,645,645,645,645,645,645,645,645,645,645,645,645,645,645,645,645,645,645,645,645,645,645,645,645,645,645,645,645,645,645,645,645,645,645,645,645,645,645,645,645,645,645,645,645,645,645,645,645,645,645,645,645,645,645,645,645,645,645,645,645,645,645,645,645,645,645,645,645,645,645,645,645,645,645,645,645,645,645,645,645,645,645,645,645,645,645,645,645,645,645,645,645,645,645,645,645,645,645,645,645,645,645,645,645,645,645,645,645,645,645,645,645,645,645,645,645,645,645,645,645,
645,645,645,645,645,645,645,645,645,645,645,645,645,645,645,645,645,645,645,645,645,645,645,645,645,645,645,645,645,645,645,645,645,645,645,645,645,645,645,645,645,645,645,645,645,645,645,645,645,645,645,645,645,645,645,645,645,645,645,645,645,645,645,645,645,645,645,645,645,645,645,645,645,645,645,645,645,645,645,645,645,645,645,645,645,645,645,645,645,645,645,645,645,645,645,645,645,645,645,645,645,645,645,645,645,645,645,645,645,645,645,645,645,645,645,645,645,645,645,645,645,645,645,645,645,645,645,645,645,645,645,645,645,645,645,645,645,645,645,645,645,645,645,645,645,645,645,645,645,645,645,645,645,645,645,645,645,645,645,645,645,645,645,645,
645,645,645,645,645,645,645,645,645,645,645,645,645,645,645,645,645,645,645,645,645,645,645,645,645,645,645,645,645,645,645,645,645,645,645,645,645,645,645,645,645,645,645,645,645,645,645,645,645,645,645,645,645,645,645,645,645,645,645,645,645,645,645,645,645,645,645,645,645,645,645,645,645,645,645,645,645,645,645,645,645,645,645,645,645,645,645,645,645,645,645,645,645,645,645,645,645,645,645,645,645,645,645,645,645,645,645,645,645,645,645,645,645,645,645,645,645,645,645,645,645,645,645,645,645,645,645,645,645,645,645,645,645,645,645,645,645,645,645,645,645,645,645,645,645,645,645,645,645,645,645,645,645,645,645,645,645,645,645,645,645,645,645,645,
645,645,645,645,645,645,645,645,645,645,645,645,645,645,645,645,645,645,645,645,645,645,645,645,645,645,645,645,645,645,645,645,645,645,645,645,645,645,645,645,645,645,645,645,645,645,645,645,645,645,645,645,645,645,645,645,645,645,645,645,645,645,645,645,645,645,645,645,645,645,645,645,645,645,645,645,645,645,645,645,645,645,645,645,645,645,645,645,645,645,645,645,645,645,645,645,645,645,645,645,645,645,645,645,645,645,645,645,645,645,645,645,645,645,645,645,645,645,645,645,645,645,645,645,645,645,645,645,645,645,645,645,645,645,645,645,645,645,645,645,645,645,645,645,645,645,645,645,645,645,645,645,645,645,645,645,645,645,645,645,645,645,645,645,
645,645,645,645,645,645,645,645,645,645,645,645,645,645,645,645,645,645,645,645,645,645,645,645,645,645,645,645,645,645,645,645,645,645,645,645,645,645,645,645,645,645,645,645,645,645,645,645,645,645,645,645,645,645,645,645,645,645,645,645,645,645,645,645,645,645,645,645,645,645,645,645,645,645,645,645,645,645,645,645,645,645,645,645,645,645,645,645,645,645,645,645,645,645,645,645,645,645,645,645,645,645,645,645,645,645,645,645,645,645,645,645,645,645,645,645,645,645,645,645,645,645,645,645,645,645,645,645,645,645,645,645,645,645,645,645,645,645,645,645,645,645,645,645,645,645,645,645,645,645,645,645,645,645,645,645,645,645,645,645,645,645,645,645,
645,645,645,645,645,645,645,645,645,645,645,645,645,645,645,645,645,645,645,645,645,645,645,645,645,645,645,645,645,645,645,645,645,645,645,645,645,645,645,645,645,645,645,645,645,645,645,645,645,645,645,645,645,645,645,645,645,645,645,645,645,645,645,645,645,645,645,645,645,645,645,645,645,645,645,645,645,645,645,645,645,645,645,645,645,645,645,645,645,645,645,645,645,645,645,645,645,645,645,645,645,645,645,645,645,645,645,645,645,645,645,645,645,645,645,645,645,645,645,645,645,645,645,645,645,645,645,645,645,645,645,645,645,645,645,645,645,645,645,645,645,645,645,645,645,645,645,645,645,645,645,645,645,645,645,645,645,645,645,645,645,645,645,645,
645,645,645,645,645,645,645,645,645,645,645,645,645,645,645,645,645,645,645,645,645,645,645,645,645,645,645,645,645,645,645,645,645,645,645,645,645,645,645,645,645,645,645,645,645,645,645,645,645,645,645,645,645,645,645,645,645,645,645,645,645,645,645,645,645,645,645,645,645,645,645,645,645,645,645,645,645,645,645,645,645,645,645,645,645,645,645,645,645,645,645,645,645,645,645,645,645,645,645,645,645,645,645,645,645,645,645,645,645,645,645,645,645,645,645,645,645,645,645,645,645,645,645,645,645,645,645,645,645,645,645,645,645,645,645,645,645,645,645,645,645,645,645,645,645,645,645,645,645,645,645,645,645,645,645,645,645,645,645,645,645,645,645,645,
645,645,645,645,645,645,645,645,645,645,645,645,645,645,645,645,645,645,645,645,645,645,645,645,645,645,645,645,645,645,645,645,645,645,645,645,645,645,645,645,645,645,645,645,645,645,645,645,645,645,645,645,645,645,645,645,645,645,645,645,645,645,645,645,645,645,645,645,645,645,645,645,645,645,645,645,645,645,645,645,645,645,645,645,645,645,645,645,645,645,645,645,645,645,645,645,645,645,645,645,645,645,645,645,645,645,645,645,645,645,645,645,645,645,645,645,645,645,645,645,645,645,645,645,645,645,645,645,645,645,645,645,645,645,645,645,645,645,645,645,645,645,645,645,645,645,645,645,645,645,645,645,645,645,645,645,645,645,645,645,645,645,645,645,
645,645,645,645,645,645,645,645,645,645,645,645,645,645,645,645,645,645,645,645,645,645,645,645,645,645,645,645,645,645,645,645,645,645,645,645,645,645,645,645,645,645,645,645,645,645,645,645,645,645,645,645,645,645,645,645,645,645,645,645,645,645,645,645,645,645,645,645,645,645,645,645,645,645,645,645,645,645,645,645,645,645,645,645,645,645,645,645,645,645,645,645,645,645,645,645,645,645,645,645,645,645,645,645,645,645,645,645,645,645,645,645,645,645,645,645,645,645,645,645,645,645,645,645,645,645,645,645,645,645,645,645,645,645,645,645,645,645,645,645,645,645,645,645,645,645,645,645,645,645,645,645,645,645,645,645,645,645,645,645,645,645,645,645,
645,645,645,645,645,645,645,645,645,645,645,645,645,645,645,645,645,645,645,645,645,645,645,645,645,645,645,645,645,645,645,645,645,645,645,645,645,645,645,645,645,645,645,645,645,645,645,645,645,645,645,645,645,645,645,645,645,645,645,645,645,645,645,645,645,645,645,645,645,645,645,645,645,645,645,645,645,645,645,645,645,645,645,645,645,645,645,645,645,645,645,645,645,645,645,645,645,645,645,645,645,645,645,645,645,645,645,645,645,645,645,645,645,645,645,645,645,645,645,645,645,645,645,645,645,645,645,645,645,645,645,645,645,645,645,645,645,645,645,645,645,645,645,645,645,645,645,645,645,645,645,645,645,645,645,645,645,645,645,645,645,645,645,645,
645,645,645,645,645,645,645,645,645,645,645,645,645,645,645,645,645,645,645,645,645,645,645,645,645,645,645,645,645,645,645,645,645,645,645,645,645,645,645,645,645,645,645,645,645,645,645,645,645,645,645,645,645,645,645,645,645,645,645,645,645,645,645,645,645,645,645,645,645,645,645,645,645,645,645,645,645,645,645,645,645,645,645,645,645,645,645,645,645,645,645,645,645,645,645,645,645,645,645,645,645,645,645,645,645,645,645,645,645,645,645,645,645,645,645,645,645,645,645,645,645,645,645,645,645,645,645,645,645,645,645,645,645,645,645,645,645,645,645,645,645,645,645,645,645,645,645,645,645,645,645,645,645,645,645,645,645,645,645,645,645,645,645,645,
645,645,645,645,645,645,645,645,645,645,645,645,645,645,645,645,645,645,645,645,645,645,645,645,645,645,645,645,645,645,645,645,645,645,645,645,645,645,645,645,645,645,645,645,645,645,645,645,645,645,645,645,645,645,645,645,645,645,645,645,645,645,645,645,645,645,645,645,645,645,645,645,645,645,645,645,645,645,645,645,645,645,645,645,645,645,645,645,645,645,645,645,645,645,645,645,645,645,645,645,645,645,645,645,645,645,645,645,645,645,645,645,645,645,645,645,645,645,645,645,645,645,645,645,645,645,645,645,645,645,645,645,645,645,645,645,645,645,645,645,645,645,645,645,645,645,645,645,645,645,645,645,645,645,645,645,645,645,645,645,645,645,645,645,
645,645,645,645,645,645,645,645,645,645,645,645,645,645,645,645,645,645,645,645,645,645,645,645,645,645,645,645,645,645,645,645,645,645,645,645,645,645,645,645,645,645,645,645,645,645,645,645,645,645,645,645,645,645,645,645,645,645,645,645,645,645,645,645,645,645,645,645,645,645,645,645,645,645,645,645,645,645,645,645,645,645,645,645,645,645,645,645,645,645,645,645,645,645,645,645,645,645,645,645,645,645,645,645,645,645,645,645,645,645,645,645,645,645,645,645,645,645,645,645,645,645,645,645,645,645,645,645,645,645,645,645,645,645,645,645,645,645,645,645,645,645,645,645,645,645,645,645,645,645,645,645,645,645,645,645,645,645,645,645,645,645,645,645,
645,645,645,645,645,645,645,645,645,645,645,645,645,645,645,645,645,645,645,645,645,645,645,645,645,645,645,645,645,645,645,645,645,645,645,645,645,645,645,645,645,645,645,645,645,645,645,645,645,645,645,645,645,645,645,645,645,645,645,645,645,645,645,645,645,645,645,645,645,645,645,645,645,645,645,645,645,645,645,645,645,645,645,645,645,645,645,645,645,645,645,645,645,645,645,645,645,645,645,645,645,645,645,645,645,645,645,645,645,645,645,645,645,645,645,645,645,645,645,645,645,645,645,645,645,645,645,645,645,645,645,645,645,645,645,645,645,645,645,645,645,645,645,645,645,645,645,645,645,645,645,645,645,645,645,645,645,645,645,645,645,645,645,645,
645,645,645,645,645,645,645,645,645,645,645,645,645,645,645,645,645,645,645,645,645,645,645,645,645,645,645,645,645,645,645,645,645,645,645,645,645,645,645,645,645,645,645,645,645,645,645,645,645,645,645,645,645,645,645,645,645,645,645,645,645,645,645,645,645,645,645,645,645,645,645,645,645,645,645,645,645,645,645,645,645,645,645,645,645,645,645,645,645,645,645,645,645,645,645,645,645,645,645,645,645,645,645,645,645,645,645,645,645,645,645,645,645,645,645,645,645,645,645,645,645,645,645,645,645,645,645,645,645,645,645,645,645,645,645,645,645,645,645,645,645,645,645,645,645,645,645,645,645,645,645,645,645,645,645,645,645,645,645,645,645,645,645,645
</data>
 </layer>
 <layer id="3" name="Background" width="164" height="120" opacity="0.27">
  <data encoding="csv">
0,0,0,0,0,0,0,0,0,0,0,0,0,0,0,0,0,0,0,0,0,0,0,0,0,0,0,0,0,0,0,0,0,0,0,0,0,0,0,0,0,0,0,0,0,0,0,0,0,0,0,0,0,0,0,0,0,0,0,0,0,0,0,0,0,0,0,0,0,0,0,0,0,0,0,0,0,0,0,0,0,0,0,0,0,0,0,0,0,0,0,0,0,0,0,0,0,0,0,0,0,30,30,30,0,0,0,0,0,0,0,0,0,0,0,0,0,0,0,0,0,0,0,0,0,0,0,0,0,0,0,0,0,0,0,0,0,0,0,0,0,0,0,0,0,0,0,0,0,0,0,0,0,0,0,0,0,0,0,0,0,0,0,0,
0,0,0,0,0,0,0,0,0,0,0,0,0,0,0,0,0,0,0,0,0,0,0,0,0,0,0,0,0,0,0,0,755,755,907,755,755,755,755,907,755,907,755,755,755,755,907,755,755,0,0,0,0,0,0,0,0,0,0,0,0,0,0,0,0,0,0,0,0,0,0,0,0,0,0,0,0,0,0,0,0,0,0,0,0,0,0,0,0,0,0,0,0,0,0,0,0,0,0,0,0,50,50,50,0,0,0,0,0,0,0,0,0,0,0,0,0,0,0,0,0,0,0,0,630,631,632,633,634,0,623,624,625,0,630,631,632,633,634,0,623,624,625,0,630,631,632,633,634,0,623,624,625,0,0,0,0,0,0,0,0,0,0,0,
0,0,0,0,0,0,0,0,0,0,0,0,0,0,0,0,0,0,0,0,0,0,0,0,0,0,0,0,0,755,907,755,755,773,925,755,755,824,755,925,755,925,755,824,755,755,925,773,755,755,907,755,755,0,0,0,0,0,0,0,0,0,0,0,0,0,0,0,0,0,0,0,0,0,0,0,0,0,0,0,0,0,0,0,0,0,0,0,0,0,0,0,0,0,0,0,0,0,0,0,0,70,70,70,0,0,0,0,0,0,0,0,0,0,0,0,0,0,0,0,0,0,0,0,643,644,645,646,647,0,636,637,638,0,643,644,645,646,647,0,636,637,638,0,643,644,645,646,647,0,636,637,638,0,0,0,0,0,0,0,0,0,0,0,
0,0,0,0,0,0,0,0,0,0,0,0,0,0,0,0,0,0,0,0,0,0,0,0,0,759,17,20,755,755,925,773,755,0,943,755,755,824,773,943,773,943,773,824,755,755,943,0,755,773,925,755,755,17,17,757,0,0,0,0,0,0,0,0,0,0,0,0,0,824,824,824,0,0,0,0,0,0,0,0,0,0,0,0,0,0,0,0,0,0,0,0,0,0,0,0,0,0,0,0,0,90,90,90,0,0,0,0,0,0,0,0,0,0,0,0,0,0,0,0,0,0,0,0,656,657,658,659,660,0,636,637,638,0,656,657,658,659,660,0,636,637,638,0,656,657,658,659,660,0,636,637,638,0,0,0,0,0,0,0,0,0,0,0,
0,0,0,0,0,0,0,0,0,0,0,0,0,0,0,0,0,0,0,0,0,0,0,824,825,777,759,40,755,755,943,0,755,0,0,773,755,824,807,0,0,0,805,824,755,773,0,0,755,0,943,755,755,0,757,775,17,0,0,0,0,0,0,0,0,0,0,0,0,825,752,823,824,824,824,825,752,0,0,0,0,0,0,0,0,0,0,0,0,0,0,0,0,0,0,0,0,0,0,0,0,110,110,110,0,0,0,0,0,0,0,0,0,0,0,0,0,0,0,0,0,0,0,0,630,631,632,633,634,0,636,637,638,0,630,631,632,633,634,0,636,637,638,0,630,631,632,633,634,0,636,637,638,0,0,0,0,0,0,0,0,0,0,0,
0,0,0,0,0,0,0,0,0,0,0,0,0,0,0,0,0,0,0,0,0,0,0,824,825,0,755,759,773,755,925,0,773,0,0,0,823,824,825,0,857,0,823,824,825,0,0,0,773,0,913,755,773,757,755,0,0,823,824,0,0,0,0,0,0,0,0,0,824,825,752,823,824,824,824,825,752,823,0,0,0,0,0,0,0,0,0,0,0,0,0,0,0,0,0,0,0,0,0,0,78,0,0,0,78,0,0,0,0,0,0,299,299,300,300,0,299,300,299,299,300,0,0,0,643,644,645,646,647,0,636,637,638,0,643,644,645,646,647,0,636,637,638,0,643,644,645,646,647,0,636,637,638,0,0,0,0,0,0,0,0,0,0,0,
0,0,0,0,0,0,0,0,0,0,0,0,0,0,0,0,0,0,0,0,0,0,0,824,825,0,755,777,759,755,943,0,0,0,0,854,805,824,824,806,806,806,824,824,807,854,0,0,0,0,931,755,757,775,755,0,0,823,824,824,825,17,0,857,858,733,734,824,824,825,752,823,824,824,824,825,752,823,0,0,0,0,0,0,0,0,0,0,0,0,0,0,0,0,0,0,0,0,0,0,0,0,0,0,0,0,0,0,0,0,0,0,0,0,0,0,0,0,0,0,0,0,0,0,656,657,658,659,660,0,636,637,638,0,656,657,658,659,660,0,636,637,638,0,656,657,658,659,660,0,636,637,638,0,0,0,0,0,0,0,0,0,0,0,
0,0,0,0,0,0,0,0,0,0,0,0,0,0,0,0,0,0,0,0,0,0,0,842,843,0,773,0,777,759,0,0,0,0,0,872,823,0,0,0,0,0,0,0,825,872,0,0,0,0,0,757,775,0,773,0,0,823,824,824,825,835,836,875,876,751,752,753,824,825,752,823,824,824,824,825,752,823,0,0,0,110,110,110,110,110,110,110,110,110,110,110,0,0,0,0,0,0,0,0,0,0,0,0,0,0,0,0,0,0,0,0,0,0,0,0,0,0,0,0,0,0,0,0,630,631,632,633,634,0,636,637,638,0,630,631,632,633,634,0,636,637,638,0,630,631,632,633,634,0,636,637,638,0,0,0,0,0,0,0,0,0,0,0,
0,0,0,0,0,0,0,0,0,0,0,0,0,0,0,0,0,0,0,0,0,0,0,0,0,0,0,0,841,777,759,0,0,0,0,0,0,0,0,0,0,0,0,0,0,0,0,0,0,0,757,775,843,0,0,0,0,823,824,842,843,0,0,0,0,769,770,771,824,825,752,823,824,824,824,825,752,734,735,0,0,0,0,0,0,0,0,0,0,0,0,0,0,0,0,0,0,0,0,0,0,0,0,0,0,0,0,0,0,0,0,0,0,0,0,0,0,0,0,0,0,0,0,0,643,644,645,646,647,0,636,637,638,0,643,644,645,646,647,0,636,637,638,0,643,644,645,646,647,0,636,637,638,0,0,0,0,0,0,0,0,0,0,0,
0,0,0,0,0,0,0,0,0,0,0,0,0,0,0,0,0,0,0,0,0,0,0,0,0,0,0,0,0,0,777,759,856,805,806,0,0,0,0,0,0,0,0,0,0,0,806,807,855,757,775,0,0,0,0,0,0,841,842,0,0,0,0,0,0,0,0,0,0,0,0,0,0,0,0,825,752,752,753,0,0,0,0,0,0,0,0,0,0,0,0,0,0,0,0,0,0,0,0,0,0,0,0,0,0,0,0,0,0,0,0,0,0,0,0,0,0,0,0,0,0,0,0,0,656,657,658,659,660,0,649,650,651,0,656,657,658,659,660,0,649,650,651,0,656,657,658,659,660,0,649,650,651,0,0,0,0,0,0,0,0,0,0,0,
0,0,0,0,0,0,0,0,0,0,0,0,0,0,0,0,0,0,0,0,0,0,0,806,806,806,807,805,806,806,807,777,874,823,824,0,0,0,0,0,0,0,0,0,0,0,824,825,873,775,805,806,806,807,805,806,806,806,0,0,0,0,0,0,0,0,0,0,0,0,0,0,0,0,757,843,769,759,771,0,0,110,0,110,0,110,0,110,0,110,0,110,0,0,0,0,0,0,645,645,645,645,645,0,0,0,0,0,0,0,0,0,0,0,0,0,0,0,0,0,0,0,0,0,0,0,0,0,0,0,0,0,0,0,0,0,0,0,0,0,0,0,0,0,0,0,0,0,0,0,0,0,0,0,0,0,0,0,0,0,0,0,0,0,
0,0,0,0,0,0,0,0,0,0,0,0,0,0,0,0,0,0,0,0,0,0,0,824,0,0,752,752,755,755,752,752,0,0,0,0,0,0,0,0,0,0,0,0,0,0,0,0,0,752,752,755,755,752,752,0,0,824,0,0,0,0,0,0,0,0,0,17,755,755,0,773,0,757,775,0,0,777,0,0,0,0,0,0,0,0,0,0,0,0,0,0,0,0,0,0,297,298,645,645,645,315,645,645,315,297,298,645,0,0,0,0,0,0,0,0,0,0,0,0,0,0,0,0,0,0,0,0,0,0,0,0,0,0,0,0,0,0,0,0,0,0,0,0,0,0,0,0,0,0,0,0,0,0,0,0,0,0,0,0,0,0,0,0,
0,0,0,0,0,0,0,0,0,0,0,0,0,0,0,0,0,0,0,0,0,0,752,752,752,752,0,825,755,773,0,805,806,752,753,17,875,907,0,0,0,0,0,907,875,17,733,752,806,0,0,755,773,823,0,824,752,752,752,0,0,0,0,0,0,0,0,807,755,773,0,0,0,775,836,837,857,857,0,0,0,0,0,0,0,0,0,0,0,0,0,0,0,0,0,645,645,645,645,645,645,335,645,645,335,645,645,645,645,645,0,0,0,0,0,0,0,0,0,0,0,0,0,0,0,0,0,0,0,0,0,0,0,0,0,0,0,0,0,0,0,0,0,0,0,0,0,0,0,0,0,0,0,0,0,0,0,0,0,0,0,0,0,0,
0,0,0,0,0,0,0,0,0,0,0,0,0,0,0,0,0,0,0,0,0,824,824,824,824,752,0,759,773,0,0,823,824,752,806,807,0,927,907,0,0,0,907,927,875,805,806,752,824,825,0,773,0,757,0,752,824,824,824,824,0,0,0,0,0,0,0,825,773,0,0,0,0,0,0,0,0,0,0,0,0,0,0,0,0,0,0,0,0,0,0,0,0,0,0,0,299,300,299,300,645,645,645,645,645,645,645,645,645,645,0,0,623,624,625,623,624,625,0,0,0,0,0,0,0,0,0,0,0,0,0,0,0,0,0,0,0,0,0,0,0,0,0,0,0,0,630,631,632,633,633,634,18,19,18,0,0,0,0,0,0,0,0,0,
0,0,0,0,0,0,0,0,0,0,0,0,0,0,0,0,0,0,0,0,0,752,752,0,824,752,824,777,759,0,0,823,824,824,824,752,752,945,925,0,0,0,925,945,752,752,752,752,824,825,0,0,757,775,824,752,824,0,752,752,0,0,0,0,0,0,0,825,0,0,0,0,0,0,0,0,0,0,0,0,0,0,0,0,0,0,0,0,0,0,0,0,0,0,0,0,0,0,0,645,645,645,645,645,645,645,645,645,645,0,0,0,636,637,638,636,637,638,0,0,0,0,0,0,0,0,0,0,630,631,632,633,634,0,0,0,0,0,0,0,0,0,0,0,0,0,643,644,645,646,646,647,38,39,38,297,298,0,0,0,0,0,0,0,
0,0,0,0,0,0,0,0,0,0,0,0,0,0,0,0,0,0,0,0,0,824,824,824,824,752,824,825,777,759,0,841,842,824,843,0,0,0,943,0,0,0,943,0,0,823,824,824,825,0,0,757,755,823,824,752,824,824,824,824,0,0,0,0,0,0,0,825,0,0,733,734,0,0,0,0,909,907,0,0,0,0,0,0,0,0,0,0,0,0,0,0,0,0,0,0,0,0,315,297,298,645,645,645,645,645,645,645,645,0,0,0,636,637,638,636,637,638,0,0,0,0,0,0,0,0,17,0,643,644,645,646,647,0,0,0,0,0,0,0,0,0,0,0,0,0,656,657,658,659,659,660,0,0,0,0,0,0,0,0,0,0,0,0,
0,0,0,0,0,0,0,0,0,0,0,0,0,0,0,0,0,0,0,0,0,824,824,824,824,752,824,825,841,755,759,0,0,752,0,0,0,0,0,909,0,909,0,0,0,823,824,824,825,0,757,775,755,823,824,752,824,824,824,824,0,0,0,0,0,0,0,752,909,0,751,752,753,0,755,0,927,925,0,0,0,0,0,0,0,0,0,0,0,0,0,0,0,0,0,0,0,645,335,645,645,645,645,645,645,0,0,0,0,0,0,0,636,637,638,636,637,638,0,0,0,0,0,0,0,0,0,0,656,657,658,659,660,0,0,0,0,0,0,0,0,0,0,0,0,0,630,631,632,633,633,634,0,0,0,0,0,0,0,0,0,0,0,0,
0,0,0,0,0,0,0,0,0,0,0,0,0,0,0,0,0,0,0,0,0,0,0,0,0,0,0,843,0,755,777,759,0,752,0,0,0,0,0,909,0,909,0,0,0,0,823,824,843,757,775,0,773,841,0,0,0,0,0,0,0,0,0,0,0,0,0,843,909,0,769,770,771,0,773,0,945,943,0,0,0,0,0,0,0,0,0,0,0,0,0,0,0,0,0,0,315,645,645,645,645,645,645,645,645,0,0,645,0,0,0,0,649,636,651,636,637,637,638,0,0,0,0,0,0,0,0,0,630,631,632,633,634,0,0,0,0,0,0,0,0,0,0,0,0,0,643,644,645,646,646,647,0,0,0,0,0,0,0,0,0,0,0,0,
0,0,0,0,0,0,0,0,0,0,0,0,0,0,0,0,0,0,0,0,0,0,0,0,755,755,755,0,0,773,0,777,805,824,807,857,806,806,0,909,837,909,0,806,806,806,841,752,857,775,843,0,0,0,755,755,755,0,0,0,0,0,0,0,0,0,0,0,909,0,805,806,806,807,791,0,963,0,0,0,0,0,0,0,0,0,0,0,0,0,0,0,0,0,0,645,335,645,645,645,645,645,645,647,20,18,643,645,315,645,297,298,645,649,0,636,637,637,638,0,0,0,0,0,0,0,0,0,643,18,19,646,647,0,315,0,315,0,297,298,315,18,19,0,0,0,656,657,658,659,659,660,0,0,0,0,0,0,0,0,0,0,0,0,
0,0,0,0,0,0,0,0,0,0,0,0,0,0,0,0,0,0,0,0,0,0,20,875,755,755,773,0,0,0,0,757,0,0,0,808,755,755,811,0,0,0,811,755,755,755,0,0,0,759,0,0,0,0,773,755,755,875,875,0,0,0,0,0,0,0,0,0,909,805,824,0,0,0,0,0,0,0,0,0,0,0,0,0,0,0,0,0,0,0,0,0,0,0,0,645,645,645,645,645,645,645,645,660,40,38,656,645,335,645,645,645,645,645,645,649,650,650,651,355,356,357,358,355,356,357,358,0,656,38,39,659,660,0,295,0,335,0,0,0,295,38,39,0,0,315,630,297,298,633,633,634,0,0,0,0,0,0,0,0,0,0,0,0,
0,0,0,0,0,0,0,0,0,0,0,0,0,0,0,0,0,0,0,0,0,907,40,875,755,773,0,0,0,0,757,775,759,0,0,0,755,773,0,0,0,0,0,755,773,755,0,0,757,777,759,0,0,0,0,773,755,875,875,823,0,0,0,0,0,0,0,0,909,823,824,0,0,0,0,0,0,0,0,0,0,825,0,0,0,0,0,0,0,0,0,0,0,0,0,645,645,645,645,0,0,0,672,673,0,0,669,670,671,670,671,672,645,645,645,0,0,650,651,0,0,0,0,0,0,0,0,0,630,631,632,633,634,0,0,0,0,0,0,0,0,0,0,0,0,295,643,644,645,646,646,647,17,0,0,0,0,0,0,0,0,0,0,0,
0,0,0,0,0,0,907,752,773,773,773,752,773,0,0,0,0,0,0,0,0,925,0,875,773,0,0,0,0,757,755,0,777,759,0,0,773,0,0,0,0,0,0,755,0,773,0,757,775,0,777,759,0,0,0,0,773,875,0,823,0,0,0,0,0,0,0,0,909,823,824,0,0,0,0,806,806,0,0,0,0,0,0,0,0,0,0,0,0,0,0,0,0,0,0,645,645,645,645,646,647,315,0,0,0,0,0,0,0,315,18,19,643,645,645,315,645,646,0,0,0,0,0,0,0,0,0,0,643,644,645,646,647,0,0,0,0,0,0,0,0,0,0,0,0,0,656,657,658,659,659,660,0,0,0,0,0,0,0,0,0,0,0,0,
0,0,0,0,0,17,925,752,0,0,0,752,0,17,0,0,0,0,0,0,0,943,0,875,0,0,0,0,757,775,773,0,0,777,759,0,0,0,0,0,0,0,0,773,0,0,757,775,0,0,841,777,759,0,0,0,0,875,0,823,0,0,0,0,0,733,734,735,927,841,824,752,752,752,752,755,755,0,0,0,0,0,0,0,0,0,0,0,0,0,0,0,0,0,0,645,645,645,658,659,660,295,0,0,0,0,0,0,0,295,38,39,656,645,645,335,645,659,0,0,623,624,623,624,625,0,0,358,656,657,658,659,660,355,356,0,0,0,0,0,0,0,0,0,0,0,630,631,632,633,633,634,0,0,0,0,0,0,0,0,0,0,0,0,
0,0,0,0,0,0,943,752,0,0,0,752,0,0,907,0,0,0,0,0,0,0,0,0,0,0,0,757,775,843,0,0,0,841,777,0,0,0,752,0,0,0,752,0,0,0,775,0,0,0,0,0,777,759,0,0,0,0,0,823,911,909,0,927,0,751,752,753,945,0,823,0,0,0,0,773,755,0,0,0,0,0,0,0,0,0,0,0,0,0,0,0,0,0,0,659,645,671,671,672,673,0,0,0,0,0,0,0,0,0,0,0,669,670,671,670,671,672,0,0,649,650,651,649,650,651,0,0,0,0,0,0,0,0,0,0,0,0,0,0,0,0,0,0,0,0,630,631,632,633,646,647,0,0,0,0,0,17,0,0,0,0,0,0,
0,0,0,0,0,857,0,752,0,0,0,752,0,0,925,752,0,0,0,17,17,0,0,0,0,0,757,775,843,0,0,0,0,0,0,809,810,811,752,752,752,752,752,809,810,811,0,0,0,805,806,807,841,777,759,0,0,0,0,841,929,927,17,945,929,769,770,771,963,0,823,0,0,0,0,0,755,0,0,0,0,825,0,0,0,0,0,0,0,0,0,0,0,0,0,672,673,18,18,19,0,0,0,0,0,0,0,0,0,0,0,0,0,0,315,18,19,0,0,0,0,0,0,0,0,0,0,0,0,0,0,0,0,0,0,0,0,0,0,0,0,0,0,0,0,0,643,644,645,646,633,634,0,0,0,0,0,0,297,0,0,0,0,0,
0,0,0,0,0,811,812,0,0,0,0,0,0,0,943,752,0,839,838,839,0,857,0,0,0,757,755,0,0,805,806,806,806,807,0,0,0,823,824,755,0,755,824,825,0,0,0,805,806,824,824,825,0,841,755,759,0,805,806,0,947,945,0,963,947,927,0,0,0,0,823,0,0,0,0,807,773,857,0,0,0,0,0,0,0,0,0,0,0,0,0,0,0,0,0,315,0,38,38,0,0,0,0,0,0,0,0,0,0,0,0,0,0,0,295,38,39,0,0,0,0,0,0,0,0,0,297,298,315,17,677,0,0,677,297,298,297,298,0,0,0,0,0,0,0,0,656,657,658,659,646,647,0,0,0,0,0,0,0,0,0,0,0,0,
0,0,0,0,0,0,0,0,0,0,0,0,0,0,0,0,0,0,0,0,0,0,857,0,757,775,755,0,805,823,824,824,824,825,857,0,0,0,752,773,0,773,752,0,0,0,857,823,824,824,824,825,0,0,755,777,759,823,824,0,965,963,0,0,965,0,0,0,0,0,0,17,823,752,824,825,0,0,0,0,0,0,0,0,0,0,0,0,0,0,0,0,0,0,0,335,0,0,0,0,0,0,0,0,0,0,0,0,0,0,0,0,0,0,0,0,0,0,630,631,633,634,0,630,645,634,0,0,335,0,677,0,0,677,0,0,0,0,315,17,0,630,631,297,633,634,0,0,0,0,659,660,0,0,0,0,0,355,356,0,0,0,0,0,
0,0,0,0,0,837,838,839,0,0,0,806,806,0,806,0,0,0,0,0,0,0,0,757,775,843,773,0,823,0,0,0,0,0,811,812,813,814,752,752,752,752,752,811,812,813,814,0,0,0,0,0,0,0,773,0,777,759,0,0,0,0,0,0,0,0,0,0,0,0,0,857,823,824,824,825,0,0,0,0,0,0,0,0,0,0,0,0,0,0,0,0,0,0,0,0,0,0,0,0,0,0,0,0,0,0,0,0,0,0,0,0,620,621,0,0,412,412,630,631,646,647,413,643,645,647,412,412,0,78,677,78,78,677,78,0,0,0,335,0,0,643,644,645,646,647,297,298,18,19,18,19,297,298,0,0,0,0,0,0,0,0,0,0,
0,0,0,0,0,824,824,0,0,752,752,755,755,752,755,0,0,0,0,0,0,0,0,775,0,0,0,0,841,907,0,0,0,907,0,0,0,0,752,771,0,769,752,0,0,0,0,907,0,0,0,913,0,0,0,0,841,777,0,0,0,0,0,0,0,0,0,0,0,0,0,0,0,0,0,0,0,911,0,0,0,0,0,0,0,0,0,0,0,0,0,0,0,0,0,299,300,0,0,0,0,0,315,19,315,18,643,297,298,0,0,0,0,0,620,621,0,0,643,644,659,660,647,656,0,660,0,0,0,0,677,0,0,677,0,0,357,358,359,0,0,656,657,658,659,660,0,0,38,39,38,39,0,0,0,0,0,0,0,0,0,0,0,0,
0,0,0,0,0,824,824,0,0,0,0,773,755,0,773,0,757,0,0,0,0,0,0,857,857,0,0,0,0,925,842,842,913,925,0,0,0,0,752,806,806,806,752,0,0,0,0,925,907,0,0,931,0,0,0,0,0,0,0,0,0,0,0,0,17,0,0,0,0,0,0,0,0,757,0,0,0,929,0,0,0,2684355397,0,0,0,0,0,0,0,0,0,0,0,0,0,0,0,0,0,0,0,0,295,0,335,38,656,0,0,0,0,0,0,0,633,634,0,0,656,657,658,659,660,0,0,0,0,0,0,0,677,0,0,677,0,0,0,0,0,0,0,630,631,632,633,634,0,0,0,0,0,0,0,0,0,0,0,0,0,0,0,0,0,0,
0,0,0,0,0,20,0,805,752,0,0,0,773,0,0,757,775,0,0,0,0,0,0,0,0,0,0,0,0,943,0,0,931,943,0,0,805,0,0,0,0,0,0,0,807,0,0,943,925,0,0,949,0,805,806,806,0,0,0,0,0,0,0,17,805,806,806,807,0,0,0,0,757,775,0,0,755,947,0,0,0,0,0,0,0,0,0,0,0,0,0,0,0,0,0,0,0,0,0,0,0,0,0,0,0,0,669,670,671,0,0,0,0,0,0,0,0,0,0,0,0,0,0,0,0,0,0,0,0,0,0,0,0,0,0,0,0,0,0,0,0,643,644,645,646,647,0,0,0,0,0,0,0,0,0,0,0,0,0,0,0,0,0,0,
0,0,0,0,20,40,0,823,824,807,0,0,0,0,757,775,0,755,0,0,0,0,0,0,0,0,855,0,0,0,0,0,949,0,0,805,0,0,0,0,0,0,0,0,0,807,0,0,943,0,0,0,0,823,824,824,0,0,0,0,0,0,0,0,823,0,0,0,0,0,0,757,775,843,0,0,755,965,17,0,17,0,0,0,0,0,0,0,0,0,0,0,0,0,623,624,625,0,0,0,0,0,0,0,0,0,0,18,19,643,0,0,0,0,0,0,0,623,624,623,624,625,0,623,624,625,0,0,0,0,0,0,0,0,0,0,0,0,0,0,0,656,657,658,659,660,0,0,0,78,0,0,0,0,0,0,0,0,0,0,0,0,0,0,
0,0,0,0,40,0,0,823,824,825,805,806,0,0,775,0,0,755,0,0,0,0,0,0,0,856,873,855,0,0,0,0,0,0,805,824,0,0,0,0,0,0,0,0,0,824,807,0,0,0,0,0,0,823,824,824,0,0,0,0,0,0,20,0,823,0,0,0,0,0,757,775,0,0,0,0,773,929,0,853,0,0,0,0,0,0,0,0,0,0,0,0,0,0,636,637,638,0,0,0,0,0,0,0,0,0,0,38,39,656,657,658,0,0,0,0,0,636,637,638,636,637,638,0,636,637,638,0,0,0,0,0,0,0,0,0,0,0,0,0,0,630,631,632,633,634,0,0,0,0,0,0,0,0,216,297,298,0,0,0,0,0,0,0,
0,0,0,0,0,0,0,823,824,843,823,824,0,0,0,0,0,755,755,0,0,0,0,0,0,0,0,0,0,759,0,0,0,0,823,0,0,0,755,755,755,755,755,0,0,0,825,0,0,0,0,757,0,0,0,0,0,0,0,0,0,759,40,0,823,0,0,0,806,807,775,0,0,0,0,0,0,947,839,871,0,0,0,0,0,0,0,0,0,0,0,412,413,414,649,650,651,299,300,0,0,413,414,412,0,0,0,0,0,669,670,671,0,0,0,0,0,649,650,651,649,650,651,0,636,637,638,0,0,0,0,0,0,0,0,0,0,0,0,355,356,643,644,645,646,647,357,358,359,360,0,0,0,0,216,0,218,0,0,0,0,0,0,0,
0,0,0,0,0,0,0,841,752,752,0,0,0,0,0,0,0,773,755,755,0,0,0,0,0,0,0,0,0,777,759,0,0,0,841,0,0,755,773,755,755,755,773,755,0,0,843,0,0,0,757,775,0,0,0,0,0,0,0,0,824,777,759,0,823,0,0,0,0,0,843,0,0,0,0,0,856,965,0,0,0,0,0,0,0,0,0,0,0,0,0,0,0,0,0,0,0,0,0,0,0,0,0,0,0,0,0,0,0,0,0,0,0,0,0,0,0,636,637,638,636,637,638,0,636,637,638,0,623,624,625,623,624,625,623,624,625,0,0,0,0,656,657,658,659,660,0,0,0,0,0,0,0,0,216,0,218,0,0,0,0,0,0,0,
0,0,0,0,0,0,0,0,752,0,0,0,0,0,0,0,0,0,773,773,757,0,0,0,0,0,0,0,0,857,777,759,0,0,0,745,755,755,0,773,755,773,0,755,755,749,0,0,0,757,775,857,0,0,0,0,0,0,824,824,755,0,777,759,841,0,0,0,0,0,806,806,806,806,806,806,874,0,0,0,0,315,316,315,0,0,0,0,0,315,316,315,0,0,0,0,0,0,0,0,0,0,0,0,0,0,0,0,0,0,0,0,0,0,0,0,0,636,637,638,636,637,638,0,649,650,651,0,636,637,638,636,637,638,636,637,638,0,0,0,0,0,0,0,0,0,0,0,0,0,0,0,0,0,216,0,218,0,0,0,0,0,0,0,
0,0,0,0,0,0,806,806,752,0,0,0,0,0,0,0,0,0,0,757,775,755,755,907,0,0,0,0,759,0,0,777,759,0,0,745,773,755,806,752,773,752,806,755,773,749,0,0,757,775,0,0,0,0,0,0,824,824,824,773,773,0,841,777,759,0,0,0,824,824,824,824,752,824,824,824,0,0,0,0,0,335,0,0,0,0,0,0,0,335,0,0,0,0,0,0,0,0,0,0,0,0,0,0,0,0,0,0,0,0,0,0,0,0,0,0,0,636,637,638,636,637,638,0,0,0,0,0,649,650,651,649,650,651,649,650,651,0,0,0,0,0,0,0,0,0,0,0,0,624,625,0,0,0,216,0,218,0,0,0,0,0,0,0,
0,0,0,0,752,752,755,755,0,0,0,0,0,0,0,0,0,0,757,775,0,773,755,925,755,0,0,0,777,759,0,0,777,759,0,763,752,773,752,752,0,752,752,773,752,767,0,757,775,0,0,757,0,0,0,824,824,824,755,0,875,0,0,841,777,0,0,0,0,0,0,824,752,824,824,0,0,0,0,0,0,0,0,0,0,0,0,0,0,0,0,0,0,0,0,0,0,0,0,0,0,623,624,625,623,624,625,623,624,625,0,623,624,625,623,624,625,636,637,638,636,637,638,0,0,0,0,0,0,0,0,0,0,0,0,0,0,0,0,0,0,0,0,0,0,0,0,0,0,637,638,0,0,0,216,217,218,0,0,0,0,0,0,0,
0,0,0,0,0,0,773,755,0,0,0,0,0,0,0,0,0,757,775,0,0,0,755,943,773,0,0,0,0,777,759,0,0,777,759,781,806,807,823,824,0,824,825,805,806,785,757,775,0,0,757,775,0,0,0,824,824,825,773,0,875,0,0,0,0,0,0,0,0,0,0,824,824,824,752,0,0,0,0,0,0,0,0,0,0,0,0,0,0,0,0,0,0,0,0,0,0,0,0,0,0,649,650,651,649,650,649,650,651,652,0,649,650,651,649,650,651,649,650,651,649,650,651,0,0,0,0,0,0,0,0,0,0,0,0,0,0,0,0,0,0,0,0,0,0,0,0,0,0,637,638,0,0,0,0,0,0,0,0,0,0,0,0,0,
0,0,0,0,0,0,0,773,0,0,0,0,0,0,0,0,757,775,843,0,0,0,755,0,757,0,0,0,0,0,777,759,0,0,777,0,0,825,841,752,0,752,843,823,0,0,775,0,0,757,775,0,0,0,0,842,755,843,839,0,875,836,837,835,836,0,0,0,0,0,0,824,824,752,824,0,0,0,0,0,0,0,0,0,0,0,0,0,0,0,0,0,0,0,0,0,0,0,0,0,0,0,0,0,0,0,0,0,0,0,0,0,0,0,0,0,0,0,0,0,0,0,0,0,0,0,0,0,0,298,315,18,315,17,315,20,315,19,315,17,297,0,0,0,0,0,0,0,0,650,651,0,0,0,20,17,20,216,217,218,0,0,0,0,
0,0,0,0,0,857,0,0,0,0,0,0,0,0,0,0,775,0,805,806,807,0,773,757,775,0,0,0,0,757,775,777,759,0,0,0,0,825,0,752,0,752,0,823,0,0,0,0,757,775,777,759,0,0,0,0,773,0,0,0,0,911,0,811,907,0,0,0,0,0,0,0,842,752,842,0,0,0,0,0,0,0,0,0,0,0,0,0,0,0,0,0,0,0,0,0,0,0,0,0,0,0,0,0,0,0,0,0,0,0,0,0,0,0,0,0,0,0,0,0,0,0,0,0,0,0,315,315,315,0,677,38,677,0,677,40,677,39,677,0,0,18,19,0,0,0,0,0,0,0,0,0,0,0,40,0,40,216,217,218,0,0,0,0,
0,0,0,0,0,0,0,824,824,824,824,824,0,0,0,0,0,0,0,824,825,0,757,775,843,0,0,0,757,775,0,0,777,759,0,0,0,825,78,752,837,752,78,823,0,0,0,757,775,0,0,777,0,0,0,759,0,0,0,0,875,929,0,0,925,755,755,842,843,757,755,755,805,752,0,0,0,0,0,0,0,0,0,0,0,0,0,0,0,0,0,0,0,0,0,0,0,0,0,0,0,0,0,0,0,0,0,0,0,0,0,0,0,0,0,0,0,0,0,0,0,0,0,0,0,18,677,677,677,0,677,0,677,0,677,0,677,0,677,0,0,38,39,315,0,0,0,0,0,0,0,355,356,0,0,0,0,216,217,218,0,0,0,0,
0,0,0,824,824,824,824,824,824,824,824,824,824,0,0,0,0,0,0,824,825,757,775,843,0,0,755,0,775,0,0,0,0,777,759,0,0,0,0,0,0,0,0,0,0,0,757,775,0,0,0,0,0,0,0,777,759,0,0,0,875,911,0,0,943,773,755,0,757,775,755,773,823,824,825,0,0,0,0,0,0,0,0,0,0,0,0,0,0,0,0,0,0,0,0,0,0,0,0,0,0,0,0,0,0,0,623,624,625,623,624,625,623,624,625,0,0,0,0,0,0,0,216,217,634,38,677,677,677,0,677,0,677,0,677,0,677,0,677,0,0,0,0,677,0,0,0,0,0,0,0,0,0,0,0,0,0,216,217,218,0,0,0,0,
0,0,824,752,752,752,752,752,752,824,824,752,823,824,824,824,824,824,0,0,0,775,0,0,0,755,773,20,0,0,733,734,735,0,777,0,0,0,0,0,0,0,0,0,0,0,775,0,733,734,735,0,17,823,824,0,777,759,0,0,0,929,0,0,0,0,773,757,775,0,755,0,841,752,0,0,0,0,0,0,0,0,0,0,0,0,0,0,0,0,0,0,0,0,0,0,0,0,0,0,0,0,0,0,0,0,636,637,638,636,637,638,636,637,638,0,0,0,0,0,0,0,630,0,647,0,677,677,677,0,677,0,677,358,677,0,677,0,677,0,0,0,0,677,0,0,0,0,0,0,0,0,0,0,0,0,0,216,217,218,0,0,0,0,
0,0,0,0,824,824,824,824,824,824,824,806,824,824,824,824,824,824,824,824,0,0,0,0,0,773,0,40,0,0,751,752,753,0,0,0,0,0,0,0,0,0,0,0,0,0,0,0,751,752,753,0,0,841,842,842,843,777,759,0,0,947,0,0,0,0,757,775,0,0,773,0,0,752,824,0,0,0,0,0,0,0,0,0,0,0,0,0,0,0,0,0,0,0,0,0,0,0,0,0,0,0,0,0,0,0,649,650,651,649,650,651,649,650,651,0,0,0,0,0,677,18,643,0,660,0,677,677,677,0,677,0,0,0,0,0,677,0,677,0,0,0,0,677,0,0,0,0,0,0,0,0,0,0,0,0,0,216,217,218,0,0,0,0,
0,0,0,0,824,824,752,824,824,824,824,824,824,824,824,824,842,842,0,0,0,0,0,805,806,806,806,806,807,0,769,770,771,0,0,0,0,0,0,0,0,0,0,0,0,0,0,0,769,770,771,857,837,805,806,806,806,807,777,806,806,965,0,0,0,757,775,805,806,807,0,0,733,752,824,0,0,0,0,0,0,0,0,0,0,0,0,0,0,0,0,0,0,0,0,0,0,0,0,0,0,0,0,0,0,0,0,0,0,0,0,0,0,0,0,0,0,0,0,0,677,38,656,296,634,0,677,677,0,0,677,0,0,0,0,357,677,0,677,0,0,0,0,677,0,0,0,0,0,0,0,0,0,0,0,0,0,0,216,217,218,0,0,0,
0,0,824,824,824,824,752,823,824,752,824,824,824,824,824,824,752,752,824,824,0,0,0,0,0,0,0,0,0,0,0,0,0,0,0,0,0,0,0,0,0,0,0,0,0,0,0,0,0,0,0,0,0,0,0,0,0,0,0,0,0,0,839,838,757,775,0,0,0,0,0,0,751,752,824,824,0,0,0,0,0,0,0,0,0,0,0,0,0,0,0,0,0,0,0,0,0,0,0,0,0,0,0,0,0,0,0,0,0,0,0,216,217,218,0,0,315,297,298,0,677,0,630,0,647,0,677,677,315,0,677,0,0,0,0,0,0,0,677,0,0,0,0,677,0,0,630,217,218,0,0,0,0,0,0,0,0,0,216,217,218,0,0,0,
0,824,824,824,824,824,752,841,842,752,806,806,752,806,752,823,824,824,824,824,824,824,824,824,0,0,0,0,0,0,0,0,0,0,0,0,0,0,0,0,0,0,0,0,0,0,0,0,0,0,0,0,0,0,0,0,0,0,0,0,0,0,0,0,775,856,0,0,0,0,806,807,0,752,824,752,824,0,0,0,0,0,0,0,0,0,0,0,0,0,0,0,0,0,0,0,0,0,0,0,0,0,0,0,0,0,0,0,0,0,0,216,217,634,20,0,677,0,0,0,677,0,643,0,660,0,677,677,335,0,677,0,0,0,0,0,0,0,677,0,0,0,0,677,0,0,643,217,218,0,0,0,0,0,0,355,356,0,216,217,218,0,0,0,
0,824,824,824,824,824,752,752,752,752,824,824,806,824,752,823,824,824,824,824,824,824,824,824,0,0,0,0,0,0,0,0,0,0,0,0,0,0,0,0,0,0,0,0,0,0,0,0,0,0,0,0,0,0,0,0,0,0,0,0,0,0,0,0,0,874,837,0,0,0,824,752,752,0,824,824,824,0,0,0,0,0,0,0,0,0,0,0,0,0,0,0,0,0,0,0,0,0,0,0,0,0,0,0,0,0,0,0,0,0,677,630,0,647,40,0,677,0,0,0,677,0,656,0,634,0,677,677,0,0,0,0,0,0,0,0,0,0,677,0,0,0,0,677,0,0,656,297,218,0,0,0,0,0,0,0,0,0,216,217,218,0,0,0,
0,0,0,0,824,824,806,806,807,752,824,824,824,824,752,841,842,824,824,824,824,0,0,0,0,0,0,0,0,0,0,0,0,0,0,0,0,0,0,0,0,0,0,0,0,0,0,0,0,0,0,0,0,0,0,0,0,0,0,0,0,0,0,0,0,892,0,0,0,0,842,843,0,841,842,842,842,911,0,0,0,0,0,0,0,0,0,0,0,0,0,0,0,0,0,0,0,0,0,0,0,0,0,0,0,0,0,0,0,19,677,643,296,660,0,0,677,0,0,0,677,0,630,0,647,0,677,677,0,0,0,0,0,0,0,0,0,0,0,0,0,0,0,677,0,0,630,0,634,0,0,0,0,0,0,0,0,0,216,217,218,0,0,0,
0,0,0,0,824,824,824,824,825,752,824,755,824,824,752,805,806,824,824,0,0,0,0,0,0,0,0,0,0,0,0,0,0,0,0,755,0,0,0,755,755,755,755,0,0,755,755,755,755,755,0,0,0,0,0,0,0,0,0,0,0,0,0,0,0,0,0,0,0,0,839,0,0,0,0,752,0,929,0,0,0,0,0,0,0,0,0,0,0,0,0,0,0,0,0,0,0,0,0,0,0,0,216,217,218,0,0,0,19,0,677,656,0,634,0,0,677,0,0,0,677,0,643,0,660,0,677,677,0,0,0,0,0,0,0,0,0,0,315,0,0,0,0,677,0,0,643,296,647,0,0,0,0,0,0,0,0,0,216,217,218,0,0,0,
0,0,0,0,0,824,824,824,825,752,824,773,755,824,752,823,824,824,824,0,0,0,0,0,0,0,0,0,0,0,0,755,945,755,755,755,907,755,755,755,755,755,755,907,755,755,755,945,755,755,0,0,0,0,0,0,0,0,0,0,0,0,0,0,0,0,0,0,0,0,0,0,853,0,0,752,0,947,0,0,0,0,0,0,0,0,0,0,0,0,0,0,0,0,0,0,0,0,0,0,0,0,216,0,218,18,20,677,0,0,677,630,0,634,299,0,677,299,300,0,677,0,656,296,634,0,677,0,0,0,0,0,0,0,0,0,0,0,677,0,0,0,0,677,0,0,656,0,660,297,0,0,0,0,0,0,0,0,216,217,218,0,0,0,
0,0,0,0,0,0,0,0,0,0,0,0,773,0,0,0,0,0,0,0,0,0,0,0,0,0,0,0,0,1535,0,755,963,755,755,755,925,755,755,755,755,773,755,925,755,755,755,963,773,755,0,0,0,0,0,0,0,0,0,0,0,0,0,0,0,0,0,0,0,0,0,0,871,854,0,752,0,911,0,0,0,0,0,0,0,0,0,0,0,0,0,0,0,0,0,0,0,0,0,0,0,0,216,296,218,38,40,677,0,0,677,643,0,647,0,0,0,0,0,0,677,0,630,0,647,0,677,335,0,0,0,0,0,0,0,0,0,0,677,0,0,0,0,677,0,0,630,0,634,0,0,0,216,217,218,0,0,0,216,217,218,0,0,0,
0,0,0,0,0,0,0,0,824,825,0,0,0,823,824,0,0,0,0,0,0,0,0,0,0,0,0,0,1535,1567,0,773,0,773,755,755,943,755,773,755,755,0,773,943,755,755,773,0,0,755,755,0,0,0,0,0,0,0,0,0,0,0,0,0,0,0,0,0,0,0,0,0,0,0,0,752,0,929,0,0,0,0,0,0,0,0,0,0,0,0,0,0,0,0,0,0,0,0,0,0,0,0,216,0,218,0,0,677,0,0,677,656,0,660,297,298,316,297,298,0,677,0,643,0,660,0,677,0,0,0,0,0,0,0,0,0,0,0,677,0,0,0,0,677,0,0,643,0,647,0,0,20,216,0,218,0,0,0,216,217,218,0,0,0,
0,0,0,0,0,0,0,0,842,843,0,0,839,841,842,0,0,0,0,0,0,0,0,0,1520,1520,2147484730,0,1567,0,0,0,0,0,755,755,945,773,0,755,755,0,0,0,755,773,0,0,0,773,755,0,0,1535,0,0,0,0,0,0,0,0,0,0,0,0,0,0,0,0,0,0,0,0,752,752,752,947,0,0,0,0,0,0,0,0,0,0,0,0,0,0,0,0,0,0,0,0,0,0,0,0,216,0,218,0,0,677,0,0,677,630,0,634,0,0,0,0,0,0,677,0,656,0,634,0,677,0,0,0,0,0,0,0,0,0,0,0,677,0,0,0,0,677,0,0,656,0,660,0,0,40,216,296,218,0,0,0,216,217,218,0,0,0,
0,0,0,0,0,0,0,0,0,0,0,0,0,0,0,0,0,0,0,0,0,0,0,0,1536,1536,2147484730,0,0,0,0,0,0,0,773,755,963,0,0,755,755,791,791,0,773,0,0,0,0,0,773,0,0,1567,0,0,0,0,0,0,0,0,0,0,0,0,0,0,0,0,0,0,0,911,0,0,0,965,0,0,0,0,0,0,0,0,0,0,0,0,0,0,0,0,0,0,0,0,0,0,0,0,216,217,218,0,0,677,0,0,0,643,296,647,0,0,0,0,0,0,0,0,630,0,647,0,677,0,0,0,0,0,0,0,0,0,0,0,0,0,0,0,0,677,0,0,630,0,634,0,0,0,216,0,218,0,0,0,0,0,0,0,0,0,
0,0,0,0,0,0,0,733,734,735,0,0,907,0,0,0,0,0,0,0,0,0,0,1082,1552,1552,2147484730,0,0,0,0,0,0,0,0,773,791,0,0,755,773,791,791,0,0,0,0,0,0,0,0,0,0,0,0,1082,1520,1520,1520,0,0,0,0,0,0,0,0,0,0,0,0,0,0,929,0,0,0,755,0,0,0,0,0,0,0,0,0,0,0,0,0,0,0,0,0,0,0,0,0,0,0,0,216,0,218,0,0,677,0,0,316,656,0,660,0,0,0,0,0,0,315,0,643,0,660,0,677,0,0,0,315,0,315,0,315,0,0,0,315,0,0,0,0,0,0,0,643,296,647,0,0,0,216,0,218,0,0,0,0,0,0,0,0,0,
0,0,0,0,0,0,0,751,752,753,837,857,925,0,0,0,0,0,0,0,0,0,0,1082,1520,1520,2147484730,0,0,0,0,0,0,0,0,0,0,0,0,773,0,0,0,0,0,0,0,0,0,0,0,0,0,0,0,1082,1536,1536,1536,0,0,40,0,0,0,0,0,0,0,0,0,0,0,947,0,0,0,755,0,0,0,0,0,0,0,0,0,0,0,0,0,0,0,0,0,0,0,0,0,0,0,0,216,0,218,0,0,677,0,0,0,630,0,634,0,0,0,0,0,0,335,0,656,296,634,0,677,0,0,0,677,0,295,0,677,0,0,0,335,0,0,0,0,335,0,0,656,0,660,0,0,0,216,0,218,0,0,0,0,0,0,0,0,0,
0,0,0,0,0,0,0,769,770,771,0,0,943,0,0,0,0,0,0,0,0,2147484730,0,1082,1536,1536,2147484730,0,0,0,0,0,0,0,0,0,0,0,0,0,0,0,0,0,0,0,0,0,0,0,0,0,0,0,0,1082,1552,1552,1552,0,0,40,0,0,0,0,0,0,0,0,0,0,0,965,0,0,0,755,0,0,0,0,0,0,0,0,0,0,0,0,0,0,0,0,0,0,0,0,0,0,0,0,216,296,218,0,0,0,0,0,0,643,0,647,0,0,0,0,0,0,0,0,630,0,647,0,315,0,0,0,677,0,0,0,677,0,0,0,0,0,0,0,0,0,0,0,630,217,218,0,0,0,216,296,218,0,0,0,0,0,0,0,0,0,
0,0,0,0,0,0,0,0,0,733,734,735,0,854,0,0,0,0,0,0,1520,2147484730,0,1082,1552,1552,2147484730,0,0,0,0,0,0,0,0,0,0,0,0,0,0,0,0,0,0,0,0,0,0,0,0,0,0,0,0,1082,1520,1520,1520,0,40,40,0,0,0,0,0,0,0,0,0,0,0,0,806,806,0,773,0,0,0,0,0,0,0,0,0,0,0,0,0,0,0,0,0,0,0,0,0,0,0,0,216,0,218,0,0,315,0,0,0,656,0,660,0,0,0,0,0,0,0,0,643,0,660,0,677,0,0,0,677,0,0,0,677,0,0,0,0,0,0,0,0,0,0,0,643,0,634,0,0,0,216,0,218,0,637,637,624,623,624,625,0,0,
0,0,0,0,0,0,0,0,0,751,752,753,839,872,0,0,0,0,0,1082,1536,2147484730,0,1082,1520,1520,2147484730,0,0,0,0,0,0,0,0,0,0,0,0,0,0,0,0,0,0,0,0,0,0,0,0,0,0,0,0,1082,1536,1536,1536,2147484730,40,40,0,0,0,0,0,0,0,0,0,0,752,752,755,755,752,752,0,0,0,0,0,0,0,0,0,0,0,0,0,0,0,0,0,0,0,0,0,0,0,0,216,0,218,0,0,335,0,0,0,630,0,634,0,0,0,0,0,0,0,0,656,217,218,0,677,0,0,0,677,0,0,0,335,0,0,0,0,0,0,0,0,0,0,0,656,0,647,0,0,0,216,217,218,0,0,0,637,636,637,638,0,0,
0,0,0,0,0,0,0,0,0,769,770,771,0,0,0,0,0,0,0,1082,1552,2147484730,0,1082,1536,1536,2147484730,0,0,0,0,0,0,0,0,0,0,0,0,0,0,0,0,0,0,0,0,0,0,0,0,0,0,0,0,1082,1552,1552,1552,2147484730,0,0,0,1520,1520,0,0,0,0,0,0,911,0,0,773,773,855,856,0,0,0,0,0,0,0,0,0,0,0,0,0,0,0,0,0,0,0,0,0,0,0,0,216,217,218,0,0,0,0,0,0,643,296,647,0,0,0,0,0,0,0,0,630,0,634,0,677,0,0,0,677,0,0,0,0,0,0,0,0,0,0,0,0,0,0,0,630,0,660,0,0,0,0,0,0,0,0,624,637,636,637,638,0,0,
0,0,0,0,0,0,0,0,0,857,0,0,0,0,0,0,0,0,0,1082,1520,2147484730,0,1082,1552,1552,2147484730,0,0,0,0,413,414,413,806,412,412,0,0,412,413,413,806,413,413,414,413,412,0,0,0,0,0,0,0,1082,1520,1520,1520,2147484730,1535,0,0,1536,1536,0,0,0,0,0,0,929,0,0,0,0,0,0,0,0,0,0,0,0,0,0,0,0,0,0,0,0,0,0,0,0,0,0,0,0,0,0,216,0,218,0,0,0,0,0,0,656,0,660,0,0,0,0,0,0,0,0,643,0,647,0,677,0,0,0,677,0,0,0,0,0,0,0,0,0,0,0,0,0,0,0,643,296,634,0,0,0,0,0,0,0,636,637,637,636,637,638,0,0,
0,0,0,0,0,0,0,0,0,875,857,0,0,0,1072,1073742895,0,0,0,1082,1536,2147484730,0,1082,1520,1520,2147484730,0,0,0,412,0,0,0,0,0,0,0,0,0,0,0,0,0,0,0,0,0,0,0,0,0,0,0,0,1082,1536,1536,1536,2147484730,1567,0,0,1520,1520,0,0,0,0,0,0,947,0,0,733,734,735,0,0,0,0,0,0,0,0,0,0,0,0,0,0,0,0,0,0,0,0,0,0,0,0,0,216,0,218,0,0,0,0,0,0,630,0,634,0,0,0,0,0,0,0,0,656,296,660,0,677,0,0,0,677,0,0,0,0,0,0,0,0,0,0,0,0,0,0,0,656,0,647,0,0,0,0,0,0,623,636,637,625,636,637,638,0,0,
0,0,0,0,0,0,0,0,0,0,875,0,0,0,1073742895,1072,0,0,0,1082,1552,2147484730,0,1082,1536,1536,2147484730,0,0,0,0,0,0,1223,0,0,0,0,0,0,0,0,0,0,0,0,0,0,0,0,0,0,0,0,0,1082,1552,1552,1552,2147484730,0,1535,1082,1536,1536,0,0,0,0,0,0,911,0,0,751,752,753,0,0,0,0,0,0,0,0,0,0,0,0,0,0,0,0,0,0,0,0,0,0,0,0,0,216,296,218,0,0,0,0,0,0,643,0,647,0,0,0,0,0,0,0,0,630,0,634,0,677,0,0,0,677,0,0,0,0,0,0,0,0,0,0,0,0,0,0,0,630,0,660,0,0,0,0,0,0,636,636,637,638,636,637,638,0,0,
0,0,0,0,0,0,0,0,0,0,733,734,735,0,1072,1073742895,0,0,0,1082,1520,2147484730,0,1082,1552,1552,2147484730,0,0,0,0,0,0,1223,0,0,0,0,0,0,0,0,0,0,0,0,0,0,0,0,0,0,0,0,0,1082,1520,1520,1520,2147484730,0,1567,1082,1552,1552,2147484730,1535,0,0,0,0,929,0,0,769,770,771,0,0,0,0,0,0,0,0,0,0,0,0,0,0,0,0,0,0,0,0,0,0,0,0,0,216,0,218,0,0,0,0,0,0,656,0,660,0,0,0,0,0,0,0,0,643,0,647,0,677,78,0,78,677,0,0,0,0,0,0,0,0,0,0,0,0,0,0,0,643,0,634,0,0,0,0,0,0,636,637,637,638,636,637,638,0,0,
0,0,0,0,0,0,0,0,0,0,751,752,753,0,1073742895,1072,0,0,0,1082,1536,2147484730,0,1082,1520,1520,2147484730,0,0,0,0,0,0,1243,3758097475,0,1147,1148,1052,1052,1052,1149,0,0,0,0,0,755,0,0,0,755,0,0,0,1082,1536,1536,1536,2147484730,0,0,1082,1520,1520,2147484730,1567,0,0,0,0,947,0,0,0,0,0,0,0,0,0,0,0,0,0,0,0,0,0,0,0,0,0,0,0,0,0,0,0,0,0,0,216,0,218,0,0,0,0,0,0,630,0,634,0,0,0,0,0,0,0,0,656,0,660,0,0,315,0,315,0,0,0,0,0,0,0,0,0,0,0,0,0,0,0,0,630,0,647,0,0,0,0,0,0,636,637,637,638,636,637,638,0,0,
0,0,0,0,0,0,0,0,0,0,769,770,771,0,1072,0,0,0,0,1082,1552,2147484730,0,1082,1536,1536,2147484730,1244,0,0,1223,1224,0,1263,3758097475,1048,1167,1168,1052,1052,1052,1169,0,0,0,1048,1112,773,755,0,0,755,0,0,0,1082,1552,1552,1552,2147484730,0,0,1082,1536,1536,2147484730,0,0,0,0,0,965,0,0,20,17,0,0,0,0,0,0,0,0,0,0,0,0,0,0,0,0,0,0,0,0,0,0,0,0,0,0,216,217,218,0,0,0,0,0,0,643,296,647,0,0,0,0,0,0,0,0,630,0,634,0,0,335,0,335,0,0,0,0,0,0,0,0,0,0,0,0,0,0,0,0,643,217,660,0,0,0,0,0,0,649,650,637,0,0,0,651,0,0,
0,0,0,0,0,0,0,0,0,0,0,0,0,0,1073742895,0,0,0,0,1082,1520,2147484730,0,1082,1552,1552,2147484730,1264,0,0,1243,1223,1224,0,3758097475,1048,1052,1052,1052,1052,1052,1149,0,0,0,1049,1047,1112,773,0,0,755,0,0,0,1082,1520,1520,1520,2147484730,0,0,1082,1552,1552,2147484730,0,0,0,0,752,0,0,0,40,0,0,0,0,0,752,0,0,0,0,0,0,0,0,0,0,0,0,0,0,0,0,0,0,0,0,0,0,0,0,0,0,0,0,0,0,656,0,660,0,0,0,0,0,0,0,0,643,0,647,0,315,0,0,0,315,0,0,0,0,0,0,0,0,0,0,0,0,0,0,0,656,217,218,0,0,0,0,0,0,0,0,650,0,0,0,0,0,0,
0,0,0,0,0,0,0,0,0,0,0,0,1535,0,1073742895,0,0,0,0,1082,1536,2147484730,1264,1082,1520,1520,2147484730,0,0,0,1263,1243,1244,0,3758097475,1047,1167,1168,1169,1170,1171,1169,0,0,0,1048,1050,1047,1112,0,0,773,0,0,0,1082,1536,1536,1536,2147484730,0,0,1082,1520,1520,2147484730,0,0,0,0,752,0,0,0,0,0,0,0,0,0,752,0,0,0,0,0,0,0,0,0,0,0,0,0,0,0,18,18,19,20,19,18,19,18,0,0,0,0,0,0,0,630,0,634,0,0,0,0,0,0,0,0,656,296,660,0,335,0,0,0,335,0,0,0,0,0,0,0,0,0,0,0,0,0,0,0,216,217,218,0,0,0,0,0,0,0,0,0,0,0,0,0,0,0,
0,0,0,0,0,0,0,0,0,0,1535,0,1567,0,1072,0,0,0,0,1082,1552,2147484730,0,1082,1536,1536,2147484730,0,0,0,0,1223,1224,0,3758097475,1047,0,0,0,0,0,0,0,0,0,0,0,0,0,1112,0,0,0,0,0,1082,1552,1552,1552,2147484730,0,0,1082,1536,1536,2147484730,0,0,0,0,0,0,0,0,0,0,0,0,0,0,0,0,0,0,0,0,0,0,0,0,0,0,0,0,0,0,38,38,39,40,0,38,39,38,0,0,0,0,0,0,0,643,0,647,0,0,0,0,0,0,0,0,630,0,634,0,0,0,0,0,0,0,0,0,0,0,0,0,0,0,0,0,0,0,0,0,216,217,218,0,0,0,0,0,0,0,0,0,0,0,548,0,0,0,
0,0,0,0,0,0,0,0,0,0,1567,0,0,0,0,0,0,0,0,1082,1520,2147484730,0,1082,1552,1552,2147484730,0,0,0,0,1243,1244,0,0,0,0,0,0,0,0,0,0,0,0,0,0,0,0,1112,0,0,0,0,0,1082,1520,1520,1520,2147484730,0,0,1082,1552,1552,2147484730,0,0,0,0,0,0,0,0,0,0,0,0,0,0,0,0,0,0,0,0,0,0,0,0,0,0,0,0,0,0,0,0,0,0,0,0,0,0,0,0,0,0,0,0,0,656,0,660,0,0,0,0,0,0,0,0,643,0,647,0,0,0,0,0,0,0,0,0,0,0,0,0,0,0,0,0,0,0,0,0,0,0,0,0,0,0,0,0,0,0,0,0,0,0,0,0,0,0,
0,0,0,0,0,0,0,0,0,1535,0,0,0,0,0,0,0,0,0,1082,1536,2147484730,0,1082,1520,1520,2147484730,0,0,0,0,1263,1264,0,0,0,0,0,0,0,0,0,0,0,0,0,0,0,1073742895,1112,755,0,0,0,0,1082,1536,1536,1536,2147484730,0,0,1082,1520,1520,2147484730,0,0,0,0,0,0,0,0,0,0,0,0,0,0,0,0,0,0,0,0,0,0,0,0,0,0,0,0,0,0,0,0,0,0,0,0,0,0,0,0,0,0,0,0,0,630,0,634,0,0,0,0,0,0,0,0,630,0,634,0,0,0,0,0,0,0,0,0,0,0,0,0,0,0,0,0,0,0,0,0,0,0,0,0,0,0,0,0,0,0,0,0,0,0,0,0,0,0,
0,0,0,0,0,0,0,0,0,1567,0,0,0,0,0,0,0,0,0,1082,1552,2147484730,0,1082,1536,1536,2147484730,0,0,0,0,0,0,0,0,0,0,0,0,0,0,0,0,0,0,0,0,755,755,755,755,0,0,0,0,1082,1552,1552,1552,2147484730,0,0,1082,1536,1536,2147484730,0,0,0,0,0,0,0,0,0,0,0,0,0,0,0,0,0,0,0,0,0,0,0,0,0,0,0,0,0,0,0,0,0,0,0,0,0,0,0,0,0,0,0,0,0,643,296,647,0,0,0,0,0,0,0,0,643,0,647,0,0,0,0,0,0,0,0,0,0,0,0,0,0,0,0,0,0,0,0,0,0,0,0,0,0,0,0,0,0,0,0,0,0,0,0,0,0,0,
0,0,0,0,0,0,0,0,0,0,0,0,0,0,0,0,0,0,0,1082,1520,2147484730,0,1082,1552,1552,2147484730,0,0,0,0,0,0,0,0,0,0,0,0,0,0,0,0,0,0,0,0,773,755,773,755,0,1567,0,0,1082,1520,1520,1520,2147484730,1535,0,1082,1552,1552,2147484730,0,0,0,0,0,0,0,0,0,0,0,0,0,0,0,0,0,0,0,0,0,0,0,0,0,0,0,0,0,0,0,0,0,516,517,0,0,0,0,0,0,0,0,0,0,656,217,660,0,0,0,0,0,0,0,0,656,217,660,0,0,0,0,0,0,0,0,0,0,0,0,0,0,0,0,0,0,0,0,0,0,0,0,0,0,0,0,0,0,0,0,0,0,0,0,0,0,0,
0,0,0,0,0,0,0,0,0,0,0,0,0,0,0,0,0,0,0,1082,1536,2147484730,0,1082,1520,1520,2147484730,0,1535,0,0,0,0,0,0,0,0,0,0,0,0,0,0,0,0,0,0,0,755,0,755,0,0,0,0,1082,1536,1536,1536,2147484730,1567,0,1082,1520,1520,2147484730,0,0,0,0,0,0,0,0,0,0,0,0,0,0,0,0,0,0,0,0,0,0,0,0,0,0,0,0,0,0,0,0,0,532,533,0,0,0,0,0,0,0,0,0,0,216,217,218,0,0,0,0,0,0,0,0,643,0,647,0,0,299,0,300,0,0,0,0,0,0,0,0,0,0,0,0,0,0,0,0,0,0,0,0,0,0,0,0,0,0,0,0,0,0,0,0,0,0,
0,0,0,0,0,0,0,0,0,0,0,0,0,0,0,0,0,0,0,1082,1552,2147484730,0,1082,1536,1536,2147484730,0,1567,0,0,0,0,0,0,0,0,0,0,0,0,0,0,0,0,0,0,0,773,0,755,0,0,0,0,1082,1552,1552,1552,2147484730,0,0,1082,1536,1536,2147484730,0,0,0,0,0,0,0,0,0,0,0,0,0,0,0,0,0,0,0,0,0,0,0,0,0,0,0,0,0,0,0,0,0,0,0,516,517,0,0,0,0,0,0,0,0,0,0,0,0,0,0,0,0,0,0,0,0,0,0,0,0,0,0,300,0,0,0,0,0,0,0,0,0,0,0,0,0,0,0,0,0,0,0,0,0,623,624,625,0,0,0,0,0,0,0,0,0,0,
0,0,0,0,0,0,0,0,0,0,0,0,0,0,0,0,0,0,0,1082,1520,2147484730,0,1082,1552,1552,2147484730,0,0,0,0,0,0,0,0,0,0,0,0,0,0,0,0,0,0,0,0,0,0,0,773,0,0,0,0,1082,1520,1520,1520,2147484730,0,0,1082,1552,1552,2147484730,0,0,0,0,1535,0,0,0,0,0,0,0,0,0,0,0,0,0,0,0,0,0,0,0,0,0,0,0,0,0,0,0,0,0,0,532,533,516,516,0,0,0,0,0,0,0,0,0,0,0,0,0,0,0,0,0,0,0,0,0,0,0,0,0,0,0,0,0,0,0,0,0,0,0,0,0,0,0,0,0,0,0,0,0,623,636,637,638,625,0,0,0,0,0,470,0,0,0,
0,0,0,0,0,0,0,0,1526,1527,1528,1526,1527,1528,1103,0,1526,1527,1528,1526,1527,1528,1526,1527,1528,1526,1527,1528,1526,1527,1528,0,0,0,0,0,0,0,0,0,0,0,0,0,0,0,0,0,0,0,0,0,0,0,0,1082,1536,1536,1536,2147484730,0,0,1082,1520,1520,2147484730,0,0,0,0,1567,0,0,0,0,0,0,0,0,0,0,0,532,0,0,0,0,532,0,0,0,0,0,0,0,0,0,0,0,0,0,0,0,0,0,0,0,0,0,0,0,0,0,0,0,0,0,0,0,0,0,0,0,0,0,0,0,0,0,0,0,0,0,0,0,0,0,0,0,0,0,0,0,0,0,0,0,0,0,0,636,636,637,638,638,0,0,0,0,0,0,0,0,0,
0,0,0,0,0,0,0,0,0,518,0,1113,1113,0,1103,0,0,0,0,0,518,0,0,0,0,0,0,0,518,0,0,0,1224,0,0,0,0,0,0,0,0,0,0,0,0,0,0,0,0,0,0,0,0,0,0,1082,1552,1552,1552,2147484730,0,0,1082,1536,1536,2147484730,0,0,0,0,0,1535,0,0,0,0,0,0,0,0,0,0,0,0,0,0,0,0,0,0,0,0,0,0,0,0,0,0,0,548,0,0,532,0,0,0,0,0,0,0,0,0,0,0,0,0,0,0,0,0,0,0,0,0,0,0,0,0,0,0,0,0,0,0,0,0,0,0,0,0,0,0,0,0,0,0,0,0,0,0,636,636,637,638,638,0,0,0,0,0,0,0,0,0,
0,0,0,0,0,0,0,0,0,0,1114,1047,1047,2147484762,1114,0,0,0,0,0,0,0,0,0,0,0,0,0,0,0,0,0,1264,0,0,0,0,0,0,0,0,0,0,0,0,0,0,0,0,0,0,0,0,0,0,1082,1520,1520,1520,2147484730,0,0,1082,1552,1552,2147484730,0,0,0,0,0,1567,0,0,0,0,0,0,0,0,0,0,532,0,0,0,0,0,0,0,0,0,0,0,0,0,0,0,0,0,0,0,0,0,0,0,0,0,0,0,0,0,0,0,0,0,0,0,0,0,0,0,0,0,0,0,0,0,0,0,0,0,0,316,299,300,297,298,299,300,299,300,299,300,0,316,297,298,299,300,649,649,650,651,651,0,0,0,0,0,0,0,0,0,
0,0,0,0,0,0,0,0,0,1114,1047,1049,1048,1047,1047,1103,0,0,0,0,0,0,0,0,0,0,0,0,0,0,0,0,0,0,0,0,0,0,0,0,0,0,0,0,0,0,0,1535,0,0,0,0,0,0,0,1082,1536,1536,1536,2147484730,0,0,1082,1520,1520,2147484730,0,0,0,0,0,0,0,0,0,0,0,0,0,0,0,0,548,0,532,0,0,532,0,0,0,0,0,0,0,0,0,0,0,0,548,549,564,0,0,0,0,0,0,0,0,0,0,0,0,0,0,0,0,0,0,0,0,0,0,0,0,0,0,0,0,0,0,0,0,0,0,0,0,0,0,0,0,0,0,0,0,0,0,0,0,649,650,651,0,0,0,0,0,428,0,0,0,0,
0,0,0,0,0,0,0,0,0,1047,1048,1049,1048,1049,1047,1103,0,0,0,0,0,0,0,0,0,0,0,0,0,0,0,0,0,0,0,0,0,0,0,0,0,0,0,0,0,0,0,1567,0,0,0,0,0,0,0,1082,1552,1552,1552,2147484730,0,0,1082,1536,1536,2147484730,0,0,0,0,0,0,0,1535,0,0,0,0,0,0,0,0,300,0,0,0,0,548,0,0,0,0,0,0,0,0,0,0,0,0,564,565,0,0,0,0,0,0,0,0,0,0,0,0,0,0,0,0,0,0,0,0,0,0,0,0,0,0,0,0,0,0,0,0,0,0,0,0,0,0,0,0,0,0,0,0,0,0,0,0,0,0,0,0,0,0,0,0,0,0,0,0,0,0,
0,0,0,0,0,0,0,0,0,1047,1049,1049,1047,1047,1047,1103,0,2147484751,0,0,0,0,0,0,0,0,0,0,0,0,0,0,0,0,0,0,0,0,0,0,0,0,0,0,0,0,0,0,0,0,0,0,0,0,0,1082,1520,1520,1520,2147484730,0,0,1082,1552,1552,2147484730,0,0,0,0,0,0,0,1567,0,0,0,0,0,0,0,0,0,0,0,0,0,0,0,0,0,0,0,0,0,0,0,0,0,0,0,0,0,0,0,0,0,0,0,0,0,0,0,0,0,0,0,0,0,0,0,0,0,0,0,0,0,0,0,0,0,0,0,0,0,0,0,0,0,0,0,0,0,0,0,0,0,0,0,0,0,0,0,0,0,0,0,0,0,0,428,0,0,0,
0,0,0,0,0,0,0,0,0,1047,1047,1047,1090,1091,1092,0,1047,2147484751,0,0,0,0,0,0,0,0,0,0,0,0,0,0,0,0,0,0,0,0,0,0,0,0,0,0,0,0,0,0,0,0,0,0,0,0,0,1082,1536,1536,1536,2147484730,0,0,1082,1520,1520,2147484730,0,0,0,0,0,0,0,0,0,0,0,0,0,0,0,0,0,0,564,0,0,0,0,0,0,0,0,0,0,0,0,0,416,416,0,413,414,0,0,0,0,0,0,0,0,0,0,0,0,0,0,0,0,0,0,0,0,0,0,0,0,0,532,0,0,0,0,0,0,0,0,0,0,0,0,0,0,0,0,0,0,0,0,0,0,0,0,0,0,0,0,0,0,0,0,0,0,0,
0,0,0,0,0,0,0,0,0,1091,1091,1091,0,0,1103,1047,1047,2147484751,0,0,0,0,0,0,0,0,0,0,0,0,0,0,1223,0,0,0,0,0,0,0,0,0,0,0,0,0,0,0,0,1535,3221226584,1049,1049,1049,2684355672,1082,1552,1552,1552,2147484730,0,0,1082,1536,1536,2147484730,0,0,0,0,0,0,0,0,0,18,19,1535,20,18,1535,0,0,0,0,0,0,531,0,20,0,0,0,0,0,0,0,0,416,432,0,0,0,0,0,0,0,0,0,0,0,0,0,0,0,0,0,0,0,0,0,0,0,0,0,0,0,0,0,0,0,0,428,0,0,0,0,0,0,0,0,0,0,0,0,0,0,0,0,0,0,0,0,0,0,0,0,0,0,0,0,0,0,0,
0,0,0,0,0,0,0,0,0,0,0,0,0,0,1103,1047,1049,2147484751,0,0,0,0,0,0,1071,0,0,0,0,0,0,0,1243,0,0,0,0,0,0,0,0,0,0,0,0,0,0,0,0,1567,0,1049,1047,1049,1101,1082,1520,1520,1520,2147484730,0,0,1082,1552,1552,2147484730,0,0,0,0,0,0,0,0,0,38,39,1567,40,38,1567,0,0,413,413,414,0,547,0,40,0,0,532,0,533,0,0,0,432,0,0,0,0,0,0,0,0,0,0,1073742390,1073742391,1073742392,1073742393,1073742394,1073742395,0,0,0,0,0,0,0,0,428,0,0,0,0,0,0,0,0,0,0,0,0,428,0,0,0,0,0,0,0,428,0,536871436,536871452,536871468,536871484,0,0,0,0,0,0,0,0,0,0,0,0,0,0,
0,0,0,0,0,0,0,0,0,0,0,0,0,0,1103,1047,1047,2147484751,0,0,0,0,0,1070,1072,0,0,0,0,0,0,0,1263,0,0,0,0,0,0,0,0,0,0,1526,1527,1528,1526,1527,1528,1526,1527,1049,1047,1049,1101,1526,1527,1528,1526,1527,1528,1526,1527,1528,1526,1527,1528,1526,518,1528,1526,1527,1528,1526,1527,1528,1526,1527,1528,1526,1527,1528,1526,0,0,0,0,531,0,0,548,0,0,0,533,0,0,0,0,0,0,416,0,0,413,414,0,0,0,1073742374,1073742375,1073742376,1073742377,1073742378,1073742379,1073742380,0,0,0,416,416,0,0,0,0,0,0,0,0,0,0,0,0,0,0,0,0,0,0,0,1073742399,1073742400,1073742401,0,0,0,536871437,536871453,536871469,536871485,428,0,0,0,0,0,0,0,0,0,0,0,0,0,
0,0,0,0,0,0,0,0,0,536872015,536872015,0,0,0,2684355652,0,0,2147484751,0,0,0,0,0,0,1071,1071,0,0,0,0,0,0,0,0,0,0,0,0,0,0,0,0,0,0,825,0,518,0,0,0,1610613848,1049,1047,1049,1101,0,0,518,0,0,0,0,0,518,0,0,1113,1113,1113,1113,1113,1113,1113,1113,0,0,518,0,0,0,412,0,413,0,0,0,0,547,0,0,0,0,0,0,533,0,0,0,0,0,0,416,0,0,0,0,0,0,0,1073742394,1073742359,1073742360,1073742361,1073742362,1073742363,1073742364,0,0,0,416,432,0,0,0,0,1073742302,1073742286,0,0,0,0,565,416,0,0,0,0,0,0,0,1073742383,1073742384,1073742385,0,0,0,536871438,536871454,536871470,536871486,0,0,0,0,0,0,0,0,0,0,548,0,0,0,
0,0,0,0,0,0,0,0,1049,1049,1047,536872004,536872015,2684355652,1047,0,0,2147484751,0,0,0,0,0,0,0,0,0,1072,0,0,0,0,0,0,0,0,0,0,0,0,0,0,0,0,825,0,0,0,0,1610613848,1049,1049,1049,1049,1101,0,0,0,0,0,0,0,0,0,0,1090,0,0,1047,1047,1049,1047,0,0,1112,0,0,0,0,0,0,0,0,0,0,0,413,531,0,413,414,0,0,548,549,0,416,427,0,0,0,483,0,0,0,0,1073742390,1073742391,1073742392,1073742378,1073742379,1073742380,1073742345,1073742346,1073742347,1073742348,518,0,0,416,0,0,0,0,0,1073742286,0,0,0,0,0,0,416,0,563,564,548,0,0,0,1073742367,1073742368,1073742369,0,0,0,536871439,536871455,536871471,536871487,0,0,0,0,0,0,0,0,0,0,0,0,0,0,
0,0,0,0,0,0,0,1047,1049,1048,1048,1047,1047,1048,1047,0,0,0,0,0,0,0,0,0,0,0,0,1071,0,0,0,0,0,0,0,0,0,0,0,0,0,0,0,0,825,0,0,0,2147484749,1049,1047,1047,1049,1049,1101,0,0,0,0,0,0,0,0,1113,1090,1047,0,0,1047,1049,1049,1047,0,0,1047,1112,1113,1113,1113,0,0,0,0,0,0,0,0,547,0,0,0,0,0,564,565,0,416,443,0,0,0,499,413,414,0,0,1073742374,1073742375,1073742376,1073742377,1073742378,1073742379,1073742380,0,0,0,0,0,0,483,0,0,0,0,0,0,0,0,0,0,0,0,416,0,0,0,531,0,0,2684355132,1073742351,1073742352,1073742353,0,0,0,536871440,536871456,536871472,536871488,0,0,0,0,0,0,0,0,0,0,0,0,0,0,
0,0,0,0,0,0,0,1048,1048,1048,1047,1048,1047,1047,1049,0,0,0,0,0,0,0,0,0,0,0,0,0,0,0,0,0,1223,823,0,0,0,0,0,0,0,0,0,0,825,0,0,0,1610613848,1049,1047,1049,1049,2684355672,0,0,0,0,0,0,0,0,1610613849,1047,1049,1049,1047,536872002,3221226585,3221226585,3221226585,3221226585,2684355650,1047,1049,1048,1048,0,0,0,0,0,0,0,0,0,0,0,0,0,0,0,0,412,0,0,432,427,0,0,0,0,0,0,0,0,1073742358,1073742359,1073742360,1073742361,1073742362,1073742363,1073742364,483,0,0,483,0,0,499,0,0,0,0,0,0,0,0,0,548,533,0,483,0,0,0,531,0,0,2684355133,2684355117,0,2684355085,0,0,0,536871441,536871457,536871473,536871489,0,0,0,0,0,0,0,416,0,416,0,0,0,0,
0,0,0,0,0,0,0,1047,1049,1049,1048,2147484740,1092,1049,1047,0,0,0,0,0,0,0,0,0,0,0,0,0,0,0,0,0,1243,823,0,0,0,0,0,0,0,0,0,0,825,0,0,2147484749,1049,1047,1047,1049,2684355672,0,0,0,0,0,0,0,0,0,1610613849,1047,1048,1049,536872002,0,0,0,0,0,1610613849,1047,1049,1049,1048,0,0,0,0,0,0,0,0,0,0,0,0,0,0,0,0,0,0,0,0,443,0,0,0,0,0,0,0,0,1073742342,1073742343,1073742342,1073742345,1073742346,1073742347,1073742348,499,0,0,499,0,0,0,0,0,459,0,0,0,0,0,0,518,533,0,499,0,0,0,531,0,0,2684355134,2684355118,2684355102,2684355086,0,0,518,0,0,536871484,0,0,0,0,0,0,0,0,416,0,416,0,0,0,0,
0,0,0,0,0,0,0,1047,1610613828,1092,1048,3221226564,2684355652,1049,1049,0,0,0,0,0,0,0,0,0,0,0,0,0,0,0,0,0,805,824,0,0,0,0,0,0,0,0,0,0,825,0,0,2147484749,1049,1047,1049,2684355672,0,0,0,0,0,0,0,0,0,0,0,3221226585,3221226585,3221226585,0,0,0,0,0,0,1610613849,1047,1049,0,0,0,0,0,0,0,0,0,0,0,0,0,0,0,0,0,0,0,0,0,0,443,413,414,0,0,0,0,0,531,0,0,0,0,0,0,0,0,484,0,0,0,0,0,0,0,411,0,532,0,0,0,0,0,0,517,0,0,0,0,547,0,0,2684355135,2684355119,2684355103,2684355087,0,0,536871437,536871453,536871469,536871485,0,0,0,0,0,0,0,0,483,0,432,0,0,0,0,
0,0,0,0,0,0,0,1047,3221226564,2684355652,1049,1047,1049,1049,1049,0,0,0,0,0,0,0,0,0,0,0,0,0,0,0,0,0,823,824,0,0,0,0,0,0,0,0,0,0,825,0,0,2147484749,1049,1049,1049,0,0,0,0,0,0,0,0,0,0,0,0,0,0,0,0,0,0,0,0,0,0,2684355650,1047,0,0,0,0,0,0,0,0,0,0,0,0,0,0,0,0,0,0,0,0,0,0,0,0,0,0,0,0,0,0,531,0,0,2147484134,0,0,0,533,416,0,0,0,0,0,0,0,0,427,0,0,0,0,0,0,532,0,0,0,0,0,0,531,0,532,2684355136,2684355120,2684355104,2684355088,0,484,536871438,536871454,536871470,536871486,0,0,0,0,548,518,0,0,499,0,0,0,0,0,0,
0,0,0,0,0,0,0,1047,1048,1048,1047,1049,1049,1049,1049,0,0,0,0,0,0,0,0,0,0,0,0,0,0,0,0,805,824,824,0,0,0,0,0,0,0,0,0,0,824,806,807,2147484749,1049,1049,2684355672,0,0,0,2147484749,1047,1047,1047,1047,1101,0,0,0,0,0,0,0,0,0,0,0,0,0,0,0,0,0,0,0,0,0,0,0,0,0,0,0,0,0,0,0,0,0,0,0,0,0,1535,0,0,0,0,0,0,0,547,0,532,0,502,548,0,533,416,0,531,0,0,518,0,0,0,443,0,0,0,0,0,0,0,0,0,0,0,0,0,547,0,0,2684355137,2684355121,2684355105,2684355089,0,0,536871439,536871455,536871471,536871487,0,0,0,0,0,0,0,0,0,0,0,0,0,0,0,
0,0,0,0,0,0,1047,1048,1610613828,1091,1071,1047,1047,1047,1047,0,0,0,0,0,0,0,0,0,0,0,0,1072,0,0,0,823,1261,0,0,0,0,0,0,0,0,0,0,0,0,1261,825,2147484749,1049,1049,1101,0,0,0,2147484749,1047,1049,1048,1047,1101,0,0,0,0,0,0,0,0,0,0,0,0,0,0,0,0,0,0,0,0,0,0,0,0,0,0,0,0,0,0,518,519,520,0,0,0,0,1567,0,0,0,0,0,0,0,531,0,0,2147484150,0,0,0,0,0,0,0,0,0,414,413,414,413,459,0,0,0,0,0,0,0,0,0,0,516,0,0,0,413,414,431,0,0,0,0,0,536871440,536871456,536871472,536871488,0,536,0,0,0,0,0,0,0,0,0,0,0,0,0,
0,0,0,0,0,0,0,1036,1072,0,1071,1091,1071,1036,1036,0,0,0,0,0,0,0,0,0,0,0,1071,1071,0,0,0,823,0,0,0,0,0,0,0,0,0,0,0,0,0,0,825,2147484749,1049,1049,1101,0,0,0,0,2147484738,1049,1049,1047,1101,0,0,0,0,0,0,0,0,0,0,0,0,0,0,1047,1047,1047,1047,1047,1047,1047,1047,1047,0,0,0,0,0,0,0,534,535,536,0,0,0,0,0,0,0,0,0,0,0,0,547,484,0,548,0,0,502,0,548,0,0,0,0,0,0,0,0,0,0,0,0,0,0,0,0,564,564,0,532,0,0,0,0,0,0,0,0,0,0,0,536871441,536871457,536871473,536871489,521,552,553,0,0,0,0,548,0,428,0,0,0,0,0,
0,0,0,0,0,0,0,0,1071,0,1072,0,1071,0,0,2684355651,1047,536872003,0,0,0,0,0,0,0,1070,1072,1072,0,0,1070,823,0,0,0,0,0,0,0,0,0,0,0,0,0,0,825,2147484749,1049,1049,1101,0,0,0,0,2147484749,1047,1049,1048,1610613826,0,0,0,0,0,0,0,0,0,0,0,0,0,0,1047,1047,1047,1047,1047,1047,1047,1047,1047,0,0,0,0,0,0,0,550,551,1526,1527,1528,1526,1527,1528,1526,1527,1528,1526,1527,1528,0,0,0,0,0,564,564,564,0,0,0,0,0,0,0,0,428,0,0,0,0,0,0,0,0,549,0,0,465,481,416,0,531,0,0,0,0,0,0,0,0,0,0,0,0,0,0,554,0,0,0,0,565,0,0,0,0,0,0,0,
0,0,0,0,0,0,0,0,0,0,1071,0,1072,0,0,2684355651,1047,536872003,0,0,0,0,0,0,0,0,0,0,0,0,0,0,0,0,0,0,0,0,0,0,0,0,0,0,0,0,0,0,0,1049,1101,0,0,0,0,2147484749,1047,1047,1047,1047,1610613826,0,0,1610613837,1610613837,1610613837,0,0,0,0,0,0,0,1036,1091,1080,0,0,0,0,1080,1091,1091,0,0,0,0,0,0,0,566,567,568,0,0,0,0,0,0,0,0,0,518,0,0,0,0,0,0,0,0,0,563,564,3221226004,0,564,564,0,0,0,411,0,0,0,0,0,0,0,565,0,0,481,0,416,0,531,0,0,0,0,0,0,0,0,0,0,486,502,0,0,555,0,0,0,549,0,0,0,0,0,0,0,0,
0,0,0,0,0,0,0,0,0,0,0,0,1072,0,0,2684355651,1047,536872003,0,0,0,0,0,0,0,0,0,0,0,0,0,0,0,0,0,0,0,0,0,0,0,0,0,0,0,0,0,0,0,0,1101,0,0,0,0,0,1047,1047,1047,1047,1047,1610613826,3221226562,1047,1047,1047,1610613826,1610613837,0,0,0,0,0,0,0,1080,1091,1091,1077,1091,1080,0,0,0,0,0,0,0,0,0,0,0,0,0,0,0,0,0,0,0,0,0,0,0,0,0,0,0,0,0,0,0,0,0,563,548,0,0,0,0,0,427,0,0,0,0,428,0,533,0,0,2147484134,0,0,432,0,563,0,416,0,0,0,0,532,0,0,0,0,2147484150,0,0,571,0,0,564,565,0,0,0,0,0,0,0,0,
0,0,0,0,0,0,0,0,0,0,0,0,0,0,0,2684355651,0,536872003,0,0,0,0,0,1610613837,0,0,0,1610613837,1610613837,1610613837,0,1610613837,1610613837,1610613837,1610613837,1610613837,0,0,1610613837,1610613837,1610613837,1610613837,1050,1610613837,0,1053,0,0,0,0,1101,0,0,0,0,0,0,0,1047,1048,1048,1047,1047,1048,1049,1049,1047,1047,0,0,0,0,0,0,0,1080,0,0,1071,0,1080,0,0,0,0,0,0,0,0,0,0,0,0,0,0,0,0,0,0,0,0,0,0,0,0,0,0,0,516,0,0,0,0,0,0,563,0,0,0,0,0,0,0,0,0,518,0,0,565,0,0,0,0,486,0,0,0,547,416,0,0,0,0,0,0,0,0,0,0,0,0,0,564,565,0,0,0,0,0,0,0,0,0,0,
0,0,0,0,0,0,0,0,0,0,0,0,0,0,0,2684355651,1047,536872003,0,0,0,0,0,0,0,1069,2684355597,1049,1050,1049,1041,1050,0,1053,1053,1053,1053,1053,1053,1053,1053,1053,1053,1053,1053,1053,0,0,0,0,1101,0,0,3221226562,1047,1049,1049,1047,1047,1047,1047,1047,536872002,2684355661,2684355650,1049,1049,1047,0,0,1036,0,0,0,0,1080,0,0,0,0,1080,0,1036,0,0,0,0,0,0,0,0,0,0,0,0,0,0,0,0,0,0,0,0,0,0,0,0,0,532,0,0,484,0,0,0,0,0,0,0,518,0,0,0,411,0,0,0,565,0,0,0,0,0,0,0,0,0,547,483,0,0,0,548,0,0,0,0,0,0,0,0,0,0,0,0,0,0,428,0,0,0,0,0,0,
0,0,0,0,0,0,0,0,0,0,0,0,1070,0,0,2684355651,1047,536872003,0,0,0,0,0,0,0,1090,0,0,0,0,1049,1049,0,1035,1036,1035,1037,1036,1036,1037,1035,1036,1036,1035,1036,1036,0,0,0,0,0,0,3221226562,1047,1049,1049,1049,1047,1090,2684355661,2684355661,2684355661,0,0,0,2684355650,1047,1047,0,0,0,0,0,0,0,1080,0,0,0,0,1080,0,0,0,0,0,0,0,0,0,0,0,0,0,0,0,0,0,0,0,0,0,0,0,0,0,0,0,484,0,0,443,414,0,0,0,0,0,0,0,0,0,0,427,0,0,533,0,0,0,0,0,416,0,416,0,0,0,499,0,0,2147484150,0,0,0,0,518,0,0,0,0,549,0,0,0,0,0,563,532,0,0,0,0,0,
0,0,0,0,0,0,0,0,0,0,0,0,0,0,0,0,0,0,0,0,0,0,0,0,0,1101,0,0,0,0,1047,1101,1053,0,0,0,0,0,0,0,0,0,0,0,0,0,0,0,0,0,0,0,1047,1047,1048,1048,1047,1090,0,0,0,0,0,0,0,0,2684355650,1047,0,0,0,0,0,0,0,0,0,0,0,0,0,0,0,0,0,0,0,0,0,0,0,0,0,0,0,0,0,0,0,0,0,0,0,0,0,0,0,0,0,0,0,0,0,0,0,0,0,0,0,0,0,0,0,0,0,0,0,0,0,517,0,0,416,0,416,0,0,0,0,0,0,0,2147484134,502,0,0,0,0,532,0,0,549,0,0,2147484150,486,0,0,547,0,0,0,0,0,
0,0,0,0,0,0,0,0,0,0,0,0,0,0,0,0,0,0,0,0,0,0,0,0,1069,1101,0,0,0,0,0,0,0,0,1605,0,1603,0,1601,0,1602,0,1604,0,1600,0,0,0,0,0,0,0,1047,1047,1048,1047,1090,0,0,0,0,1072,0,0,0,0,0,2684355650,0,0,0,0,0,0,0,0,0,0,0,0,0,0,0,0,0,0,0,0,0,0,0,0,0,3221226563,3221226563,3221226563,3221226563,3221226563,3221226563,3221226563,3221226563,3221226563,0,0,0,0,0,428,0,0,0,0,0,0,0,0,524,525,526,527,528,529,0,0,0,0,0,0,0,533,0,0,563,532,0,0,0,0,0,0,0,444,445,0,0,0,0,0,0,0,0,0,0,0,0,0,0,0,0,0,0,0,0,0,
0,0,0,0,0,0,0,0,0,0,0,0,0,0,0,0,0,0,0,0,0,1070,1090,0,0,0,0,0,0,0,0,0,0,0,0,1069,0,0,0,1073742942,0,0,0,0,0,1070,0,0,0,0,0,0,0,0,0,0,0,0,0,0,1069,1071,0,0,0,0,0,0,0,0,0,0,0,0,0,0,0,0,0,0,0,0,0,0,0,0,0,0,0,0,0,0,0,1047,1047,1047,1048,1048,1048,1047,0,0,544,545,0,0,0,0,0,0,0,0,0,0,0,0,540,541,542,543,544,545,0,0,0,0,0,0,0,533,0,0,0,547,0,0,0,0,427,416,0,460,461,0,0,0,0,0,0,0,564,0,0,0,0,0,0,0,0,0,0,0,0,0,
0,0,0,0,0,1073742915,1073742915,1073742915,0,0,0,0,0,0,0,0,0,0,0,0,0,1090,0,0,0,0,0,0,0,0,0,0,0,0,0,0,0,1050,1050,1050,1051,0,0,0,0,0,0,0,0,0,0,0,0,0,0,0,0,0,0,0,0,0,1069,0,0,0,0,0,0,0,0,0,0,0,0,0,0,0,0,0,0,0,0,0,0,0,0,0,0,0,0,0,0,1047,1048,1047,1047,1048,1048,1048,0,0,560,561,0,0,0,0,0,0,412,0,0,0,484,0,556,557,558,559,560,561,0,0,0,0,518,0,0,532,517,0,0,547,0,0,0,0,443,416,0,476,477,0,462,0,0,410,427,0,0,0,0,0,0,0,0,0,0,0,0,0,0,0,
0,0,0,0,0,1047,1047,1047,1047,0,0,0,0,0,0,0,0,0,0,0,0,0,0,0,0,0,0,0,0,0,0,0,0,0,0,0,0,0,1036,1037,0,0,0,0,0,0,0,0,0,0,0,0,0,0,0,0,0,0,0,0,0,0,0,0,0,0,0,0,1077,0,0,0,0,1077,0,2684355651,1047,1048,0,0,0,1041,1048,1047,1047,1047,1047,1047,1049,1049,1049,1049,1047,1048,1048,1049,0,0,1049,1041,0,575,576,577,0,0,0,0,0,0,0,0,0,0,516,517,572,573,574,575,576,577,484,0,413,413,413,414,0,0,533,0,416,0,416,0,0,0,427,416,0,492,493,0,478,0,0,426,459,0,0,0,0,0,0,0,0,0,0,0,428,0,0,0,
0,0,0,0,0,0,1048,1048,1049,1049,1047,1041,0,0,0,0,0,0,0,0,0,0,0,0,0,0,1078,1078,0,0,1077,1079,0,0,0,0,0,0,0,0,0,0,0,0,0,1077,1080,0,0,0,0,0,0,0,0,0,0,0,0,0,0,0,0,0,0,0,0,0,1079,0,0,0,0,1077,0,2684355651,1049,1048,0,0,1047,1047,1049,1049,1047,1047,1047,1048,1048,1048,1049,1047,1047,1041,1049,1049,0,0,0,0,0,0,0,0,0,0,0,0,0,0,0,0,0,548,484,533,0,0,0,0,534,0,536,0,0,0,0,0,0,0,0,0,416,0,483,427,0,0,443,416,0,415,431,0,494,0,0,0,0,0,427,0,0,0,2147484134,0,0,0,0,0,0,0,0,0,
0,0,0,0,0,1047,1047,1048,1047,1047,1047,1047,0,0,0,0,0,0,0,0,0,0,0,0,0,0,1079,1077,0,0,1077,1072,0,0,0,0,0,0,0,0,0,0,0,0,0,1078,1080,0,0,0,0,0,0,0,0,0,0,0,0,0,0,0,0,0,0,0,0,0,1079,0,0,0,0,1078,0,2684355651,1047,1048,1048,1047,1048,1048,1049,1049,0,0,0,1048,1048,1048,1041,1047,1047,1047,0,0,0,0,0,0,0,0,0,0,0,0,0,0,0,0,0,0,0,0,0,0,0,0,0,0,0,0,0,0,554,555,0,0,0,0,0,443,416,0,499,443,0,0,427,0,427,431,0,0,0,0,0,0,0,0,443,0,0,0,0,502,0,0,0,0,0,0,0,0,
0,0,0,0,0,1047,1047,1049,1048,1048,1047,1047,1047,0,0,0,0,0,0,0,0,0,0,0,0,0,1078,1078,0,0,1079,0,0,0,0,0,0,0,0,0,0,0,0,0,0,1079,1080,0,0,0,0,0,0,0,0,0,0,0,1069,0,0,0,0,1069,0,0,0,0,1077,0,0,0,0,1077,0,2684355651,1047,1047,1047,1047,1048,1047,1047,1041,0,0,0,0,1047,1048,1048,1047,1047,1047,0,0,0,0,0,0,0,0,0,0,0,0,0,0,0,0,0,0,0,0,0,0,0,0,0,0,566,567,568,569,570,571,0,0,0,0,0,0,432,0,0,0,0,0,0,0,443,0,0,0,0,0,0,0,0,0,0,0,0,0,0,0,0,531,0,0,0,0,0,0,
0,0,0,0,0,1047,1049,1049,1048,1048,1047,1047,0,0,0,0,0,0,0,0,0,0,0,0,0,0,1077,1077,0,0,1071,0,0,0,0,0,0,0,0,0,0,0,0,0,0,1071,1080,0,0,0,0,0,0,0,0,0,0,0,0,0,0,0,0,0,0,0,0,0,1077,0,0,0,0,1079,0,0,0,0,0,0,0,0,0,0,0,0,0,0,0,0,0,0,0,0,0,0,0,0,0,0,0,0,0,0,0,0,0,0,0,0,0,0,0,0,0,0,516,516,517,0,0,0,0,0,484,0,0,0,0,0,0,532,0,444,445,0,0,0,0,0,0,0,465,481,0,486,0,0,0,0,0,427,0,0,0,484,0,547,0,532,0,0,0,0,
0,0,0,0,0,1049,1049,1047,1049,1047,1047,1047,0,0,0,0,0,0,0,0,0,0,0,0,0,0,1079,1079,0,0,0,0,0,0,0,0,0,0,0,0,0,0,0,0,0,0,1080,0,0,0,0,0,0,0,0,0,0,0,1040,0,0,1040,1040,0,0,0,0,0,1078,0,0,0,0,1079,0,0,0,0,0,0,0,0,0,0,0,0,0,0,0,0,0,0,0,0,0,0,0,0,0,0,0,0,0,0,0,0,0,0,0,0,0,0,0,0,0,0,0,0,533,0,0,0,0,0,0,0,0,0,0,0,2147484134,0,462,460,461,0,0,0,0,0,0,0,481,0,548,0,0,0,0,2147484150,0,443,0,0,0,0,0,0,0,0,0,0,0,0,
0,0,0,0,0,1048,1048,1047,1047,1047,1047,1047,0,0,0,0,0,0,0,0,0,0,0,0,0,0,0,0,0,0,0,0,0,0,0,0,0,1072,0,0,0,0,0,0,0,0,1080,0,0,0,0,1072,0,0,0,0,0,0,1040,1040,1041,1040,1040,0,0,0,0,1070,1077,0,0,1071,0,1077,1070,0,0,0,0,0,0,0,0,0,0,0,0,0,0,0,0,0,0,0,0,0,0,0,0,0,0,0,0,0,0,0,0,0,0,0,0,0,465,465,0,0,0,0,532,516,516,0,0,518,519,520,521,522,523,0,444,445,478,476,477,444,445,0,548,0,502,0,0,0,0,518,521,0,0,0,520,0,0,0,0,443,0,0,0,0,0,0,0,0,
0,0,0,0,0,1041,1048,1047,0,0,0,1048,0,0,0,0,0,0,0,0,0,0,0,1071,0,0,0,0,0,1071,0,0,0,0,0,0,0,1071,0,0,0,0,0,1072,0,0,0,0,0,0,0,1071,0,0,0,0,0,0,1040,1041,1040,1040,1040,0,1071,0,0,0,0,0,1071,1071,0,0,0,0,0,0,0,0,0,0,0,0,0,0,0,0,0,0,0,0,0,0,0,0,0,0,0,0,0,0,0,0,0,0,0,0,0,0,0,0,481,465,518,520,521,522,523,524,0,0,0,534,535,536,537,538,539,0,460,461,494,492,493,460,461,0,0,0,0,2147484150,0,532,535,522,523,524,0,0,0,481,465,0,0,0,0,0,0,0,0,0,0,0,
0,0,0,0,0,0,0,1047,1047,1047,1048,1041,0,0,0,0,0,0,0,0,1072,0,1071,1071,0,0,0,0,0,1071,1072,0,0,0,0,0,0,1071,1071,0,0,0,0,1071,0,0,0,0,0,0,1071,1071,0,1040,1041,1040,0,1071,1040,1040,1040,1041,1040,1071,1071,0,1040,1041,1040,0,1071,1071,1071,0,0,0,0,0,0,0,0,0,0,0,0,0,0,0,0,0,0,0,0,0,0,0,0,0,0,0,0,0,0,0,0,0,0,0,0,0,0,0,0,481,535,536,537,538,539,540,548,0,0,550,551,552,553,554,555,0,476,477,478,476,477,476,477,486,0,462,0,0,535,536,537,538,539,540,0,0,0,0,481,0,0,0,0,0,0,0,0,0,0,0,
0,0,0,0,0,0,0,1047,1047,1047,1048,1047,0,0,0,0,0,0,0,0,1072,0,1071,1071,0,0,0,0,0,1071,1071,0,0,0,0,0,0,1071,1071,0,0,0,0,1071,0,0,0,0,0,0,1071,1071,0,1040,1040,1040,0,1071,1040,1040,1040,1040,1040,1071,1071,1071,1040,1040,1040,0,1071,1071,1071,0,0,0,0,0,0,0,0,0,0,0,0,0,0,0,0,0,0,0,0,0,0,0,0,0,0,0,0,0,0,0,0,0,0,0,0,0,0,484,0,550,551,552,553,554,555,556,0,0,0,566,567,568,569,570,413,414,492,493,413,0,0,492,493,0,412,478,0,0,551,552,553,554,555,556,0,0,0,0,0,0,412,413,414,412,0,483,0,0,0,0,
0,0,0,0,0,0,0,0,0,0,0,0,0,0,0,0,0,0,0,0,0,0,0,0,0,0,0,0,0,0,0,0,0,0,0,0,0,0,0,0,0,0,0,0,0,0,0,0,0,0,0,0,0,0,0,0,0,0,0,0,0,0,0,0,0,0,0,0,0,0,0,0,0,0,0,0,0,0,0,0,0,0,0,0,0,0,0,0,0,0,0,0,0,0,0,0,0,0,0,0,0,0,0,0,0,0,0,0,0,0,0,0,0,566,567,568,569,570,571,0,0,0,0,0,0,0,0,0,0,0,508,509,0,0,0,508,509,0,0,0,0,0,567,568,569,570,571,0,0,0,0,0,0,0,0,0,0,0,0,0,0,0,0,0,
0,0,0,0,0,0,0,0,0,0,0,0,0,0,0,0,0,0,0,0,0,0,0,0,0,0,0,0,0,0,0,0,0,0,0,0,0,0,0,0,0,0,0,0,0,0,0,0,0,0,0,0,0,0,0,0,0,0,0,0,0,0,0,0,0,0,0,0,0,0,0,0,0,0,0,0,0,0,0,0,0,0,0,0,0,0,0,0,0,0,0,0,0,0,0,0,0,0,0,0,0,0,0,0,0,0,0,0,0,0,0,0,0,0,0,0,0,0,0,0,0,0,0,0,0,0,0,0,0,0,0,0,0,0,0,0,0,0,0,0,0,0,0,0,0,0,0,0,0,0,0,0,0,0,0,0,0,0,0,0,0,0,0,0
</data>
 </layer>
 <layer id="1" name="Collision-Layer" width="164" height="120">
  <data encoding="csv">
401,401,401,401,401,401,401,401,401,401,401,401,401,401,401,401,401,401,401,401,401,401,401,401,401,401,401,401,401,401,401,401,401,401,401,401,401,401,401,401,401,401,401,401,401,401,401,401,401,401,401,401,401,401,401,401,401,401,401,401,401,401,401,401,401,401,401,401,401,401,401,401,401,401,401,401,401,401,401,401,401,0,0,0,0,0,0,0,0,0,0,0,401,401,401,401,401,401,401,401,401,0,0,0,401,401,401,401,401,401,401,401,401,401,401,401,401,401,401,401,401,401,401,401,401,401,401,401,401,401,401,401,401,401,401,401,401,401,401,401,401,401,401,401,401,401,401,401,401,401,401,401,401,401,401,401,401,401,401,401,401,401,401,401,
401,401,401,401,401,401,401,401,401,401,401,401,401,401,401,401,401,401,401,401,401,401,401,401,401,401,401,401,401,401,401,401,0,0,0,0,0,0,0,0,0,0,0,0,0,0,0,0,0,401,401,401,401,401,401,401,401,401,401,401,401,401,401,401,401,401,401,401,401,401,401,401,401,401,401,401,401,401,401,401,401,0,0,0,0,0,0,0,0,0,0,0,401,401,401,401,401,401,401,0,0,0,0,0,0,0,401,401,401,401,401,401,401,401,401,401,401,401,401,401,0,0,0,0,0,0,0,0,0,0,0,0,0,0,0,0,0,0,0,0,0,0,0,0,0,0,0,0,0,0,0,0,0,0,0,0,401,401,401,401,401,401,401,401,
401,401,401,401,401,401,401,401,401,401,401,401,401,401,401,401,401,401,401,401,401,401,401,401,401,401,401,401,401,0,0,0,0,0,0,0,0,0,0,0,0,0,0,0,0,0,0,0,0,0,0,0,401,401,401,401,401,401,401,401,401,401,401,401,401,401,401,401,401,401,401,401,401,401,401,401,401,401,401,401,401,0,0,0,0,0,0,0,0,0,0,0,401,401,401,401,401,401,0,0,0,0,0,0,0,0,0,401,401,401,401,401,401,401,0,0,0,0,0,0,0,0,0,0,0,0,0,0,0,0,0,0,0,0,0,0,0,0,0,0,0,0,0,0,0,0,0,0,0,0,0,0,0,0,0,0,0,401,401,401,401,401,401,401,
401,401,401,401,401,401,401,401,401,401,401,401,401,401,401,401,401,401,401,401,401,401,401,401,401,401,0,0,0,0,0,0,0,0,0,0,0,0,0,0,0,0,0,0,0,0,0,0,0,0,0,0,0,0,0,401,401,401,401,401,401,401,401,401,401,401,401,401,401,401,401,401,401,401,401,401,401,401,401,401,401,0,0,0,0,0,0,0,0,0,0,0,401,401,401,401,401,401,0,0,0,0,0,0,0,0,0,401,401,401,401,401,0,0,0,0,0,0,0,0,0,0,0,0,0,0,0,0,0,0,0,0,0,0,0,0,0,0,0,0,0,0,0,0,0,0,0,0,0,0,0,0,0,0,0,0,0,401,401,401,401,401,401,401,
401,401,401,401,401,401,401,401,401,401,401,401,401,401,401,401,401,401,401,401,401,401,401,401,0,0,0,0,0,0,0,0,0,0,0,0,0,0,0,0,0,0,0,0,0,0,0,0,0,0,0,0,0,0,0,0,0,401,401,401,401,401,401,401,401,401,401,401,401,0,0,0,0,0,0,0,0,401,401,401,401,0,0,0,0,0,0,0,0,0,0,0,401,401,401,401,401,401,0,0,0,0,0,0,0,0,0,401,401,401,401,0,0,0,0,0,0,0,0,0,0,0,0,0,0,0,0,0,0,0,0,0,0,0,0,0,0,0,0,0,0,0,0,0,0,0,0,0,0,0,0,0,0,0,0,0,0,401,401,401,401,401,401,401,
401,401,401,401,401,401,401,401,401,401,401,401,401,401,401,401,401,401,401,401,401,401,401,0,0,0,0,0,0,0,0,0,0,0,0,0,0,0,0,0,0,0,0,0,0,0,0,0,0,0,0,0,0,0,0,0,0,0,401,401,401,401,401,401,401,401,401,401,0,0,0,0,0,0,0,0,0,0,401,401,401,0,0,0,0,0,0,0,0,0,0,0,401,401,401,401,401,401,0,0,0,0,0,0,0,0,0,0,0,0,0,0,0,0,0,0,0,0,0,0,0,0,0,0,0,0,0,0,0,0,0,0,0,0,0,0,0,0,0,0,0,0,0,0,0,0,0,0,0,0,0,0,0,0,0,0,0,401,401,401,401,401,401,401,
401,401,401,401,401,401,401,401,401,401,401,401,401,401,401,401,401,401,401,401,401,401,401,0,0,0,0,0,0,0,0,0,0,0,0,0,0,0,0,0,0,0,0,0,0,0,0,0,0,0,0,0,0,0,0,0,0,0,0,0,0,0,0,0,0,0,0,0,0,0,0,0,0,0,0,0,0,0,401,401,401,0,0,0,0,0,0,0,0,0,0,0,401,401,401,401,401,401,401,401,401,401,401,401,401,401,401,401,401,401,401,401,401,401,401,401,401,401,401,401,401,0,0,0,0,0,0,0,0,0,0,0,0,0,0,0,0,0,0,0,0,0,0,0,0,0,0,0,0,0,0,0,0,0,0,0,0,0,401,401,401,401,401,401,
401,401,401,401,401,401,401,401,401,401,401,401,401,401,401,401,401,401,401,401,401,401,401,0,0,0,0,0,0,0,0,0,0,0,0,0,0,401,401,401,401,401,401,401,0,0,0,0,0,0,0,0,0,0,0,0,0,0,0,0,0,0,0,0,0,0,0,0,0,0,0,0,0,0,0,0,0,0,401,401,401,0,0,0,0,0,0,0,0,0,0,0,401,401,401,401,401,401,401,401,401,401,401,401,401,401,401,401,401,401,401,401,401,401,401,401,401,401,401,401,401,0,0,0,0,0,0,0,0,0,0,0,0,0,0,0,0,0,0,0,0,0,0,0,0,0,0,0,0,0,0,0,0,0,0,0,0,0,0,401,401,401,401,401,
401,401,401,401,401,401,401,401,401,401,401,401,401,401,401,401,401,401,401,401,401,401,401,0,0,0,0,0,0,0,0,0,0,0,0,401,401,401,401,401,401,401,401,401,401,401,0,0,0,0,0,0,0,0,0,0,0,0,0,0,0,401,401,401,401,401,401,401,0,0,0,0,0,0,0,0,0,0,401,401,401,0,0,0,0,0,0,0,0,0,0,0,401,401,401,401,401,401,401,401,401,401,401,401,401,401,401,401,401,401,401,401,401,401,401,401,401,401,401,401,401,401,0,0,0,0,0,0,0,0,0,0,0,0,0,0,0,0,0,0,0,0,0,0,0,0,0,0,0,0,0,0,0,0,0,0,0,0,0,401,401,401,401,401,
401,401,401,401,401,401,401,401,401,401,401,401,401,401,401,401,401,401,401,401,401,401,401,0,0,0,0,0,0,0,0,0,0,0,0,401,401,401,401,401,401,401,401,401,401,401,0,0,0,0,0,0,0,0,0,0,0,0,401,401,401,401,401,401,401,401,401,401,401,401,401,401,401,401,401,0,0,401,401,401,401,0,0,0,0,0,0,0,0,0,0,0,401,401,401,401,401,401,401,401,401,401,401,401,401,401,401,401,401,401,401,401,401,401,401,401,401,401,401,401,0,0,0,0,0,0,0,0,0,0,0,0,0,0,0,0,0,0,0,0,0,0,0,0,0,0,0,0,0,0,0,0,0,0,0,0,0,0,0,401,401,401,401,401,
401,401,401,401,401,401,401,401,401,401,401,401,401,401,401,401,401,401,401,401,401,401,401,0,0,0,0,0,0,0,0,0,0,0,0,401,401,401,401,401,401,401,401,401,401,401,0,0,0,0,0,0,0,0,0,0,0,0,401,401,401,401,401,401,401,401,401,401,401,401,401,401,401,401,401,0,401,401,401,401,401,0,0,0,0,0,0,0,0,0,0,0,401,401,401,401,401,401,401,401,401,401,401,401,401,401,401,401,401,401,401,401,401,401,401,401,401,401,401,401,0,0,0,401,401,401,401,401,401,401,401,401,401,401,401,401,401,401,401,401,401,401,401,401,401,401,401,401,401,401,401,401,401,401,0,0,0,0,0,401,401,401,401,401,
401,401,401,401,401,401,401,401,401,401,401,401,401,401,401,401,401,401,401,401,401,401,401,0,401,401,0,0,0,0,0,0,401,401,401,401,401,401,401,401,401,401,401,401,401,401,401,401,401,0,0,0,0,0,0,401,401,0,401,401,401,401,401,401,401,401,401,0,0,0,0,0,0,0,0,0,0,0,401,401,401,0,0,0,0,0,0,0,0,0,0,0,401,401,401,401,0,0,0,0,0,0,0,0,0,0,0,401,401,401,401,401,401,401,401,401,401,401,401,401,0,0,0,401,401,401,401,401,401,401,401,401,401,401,401,401,401,401,401,401,401,401,401,401,401,401,401,401,401,401,401,401,401,401,401,401,0,0,0,401,401,401,401,401,
401,401,401,401,401,401,401,401,401,401,401,401,401,401,401,401,401,401,401,401,401,401,0,0,0,401,401,0,0,0,0,0,0,0,0,0,0,0,401,401,401,401,401,0,0,0,0,0,0,0,0,0,0,0,401,401,0,0,0,401,401,401,401,401,401,401,401,0,0,0,0,0,0,0,0,0,0,0,401,401,401,0,0,0,0,0,0,0,0,0,0,0,401,401,401,401,0,0,0,0,0,0,0,0,0,0,0,0,401,401,401,401,401,401,401,401,401,401,401,401,401,401,0,401,401,401,401,401,401,401,401,401,401,401,401,401,401,401,401,401,401,401,401,401,401,401,401,401,401,401,401,401,401,401,401,401,0,0,0,401,401,401,401,401,
401,401,401,401,401,401,401,401,401,401,401,401,401,401,401,401,401,401,401,401,401,0,0,0,0,0,401,0,0,0,0,0,0,0,0,0,0,0,0,401,401,401,0,0,0,0,0,0,0,0,0,0,0,0,401,0,0,0,0,0,401,401,401,401,401,401,401,0,0,0,0,401,401,401,401,401,401,401,401,401,401,0,0,0,0,0,0,0,0,0,0,0,401,401,401,401,0,0,0,0,0,0,0,0,0,0,0,0,0,401,401,401,0,0,0,0,0,0,401,401,401,0,0,401,401,401,401,401,401,401,401,401,401,401,401,401,401,401,401,401,401,401,401,401,401,401,401,401,401,401,401,0,0,0,0,401,401,0,0,401,401,401,401,401,
401,401,401,401,401,401,401,401,401,401,401,401,401,401,401,401,401,401,401,401,401,0,0,401,0,0,0,0,0,0,0,0,0,0,0,0,0,0,0,401,401,401,0,0,0,0,0,0,0,0,0,0,0,0,0,0,0,401,0,0,401,401,401,401,401,401,401,0,0,0,0,0,401,401,401,401,401,401,401,401,401,0,0,0,0,0,0,0,0,0,0,0,401,401,401,401,401,401,401,401,401,0,0,0,0,0,0,0,0,401,401,401,0,0,0,0,0,0,401,401,401,0,0,401,401,401,401,0,0,0,0,0,0,0,0,0,0,0,0,0,0,0,0,0,0,0,0,0,0,0,0,0,0,0,0,0,0,0,0,401,401,401,401,401,
401,401,401,401,401,401,401,401,401,401,401,401,401,401,401,401,401,401,401,401,401,0,0,0,0,0,0,0,0,0,0,0,0,0,0,0,0,0,0,401,401,401,0,0,0,0,0,0,0,0,0,0,0,0,0,0,0,0,0,0,401,401,401,401,401,401,401,0,0,0,0,0,401,401,401,0,0,0,401,401,401,0,0,0,0,0,0,0,0,0,0,0,401,401,401,401,401,401,0,0,0,0,0,0,0,0,0,0,0,401,401,401,0,0,0,0,0,0,401,401,0,0,0,0,401,401,0,0,0,0,0,0,0,0,0,0,0,0,0,0,0,0,0,0,0,0,0,0,0,0,0,0,0,0,0,0,0,0,0,401,401,401,401,401,
401,401,401,401,401,401,401,401,401,401,401,401,401,401,401,401,401,401,401,401,401,0,0,0,0,0,0,0,0,0,0,0,0,0,0,0,0,0,0,0,0,0,0,0,0,0,0,0,0,0,0,0,0,0,0,0,0,0,0,0,401,401,401,401,401,401,401,0,401,401,0,0,0,401,0,0,0,0,401,401,401,0,0,0,0,0,0,0,0,0,0,0,401,401,401,401,401,0,0,0,0,0,0,0,0,401,401,401,401,401,401,401,0,0,0,0,0,0,401,401,0,0,0,0,401,0,0,0,0,0,0,0,0,0,0,0,0,0,0,0,0,0,0,0,0,0,0,0,0,0,0,0,0,0,0,0,0,0,401,401,401,401,401,401,
401,401,401,401,401,401,401,401,401,401,401,401,401,401,401,401,401,401,401,401,401,401,401,401,401,401,401,0,0,0,0,0,0,0,0,0,0,0,0,0,0,0,0,0,0,0,0,0,0,0,0,0,0,0,401,401,401,401,401,401,401,401,401,401,401,401,401,0,0,0,0,0,0,0,0,0,0,0,401,401,401,0,0,0,0,0,0,0,0,0,0,0,401,401,401,401,0,0,0,0,0,0,0,0,401,401,401,401,401,401,401,401,0,0,401,401,0,0,0,0,0,0,0,0,401,0,0,0,401,401,401,401,401,401,401,401,401,401,401,401,401,401,401,0,0,0,0,0,0,0,0,0,0,0,0,0,0,0,401,401,401,401,401,401,
401,401,401,401,401,401,401,401,401,401,401,401,401,401,401,401,401,401,401,401,401,401,401,401,0,0,0,0,0,0,0,0,0,0,0,0,0,0,0,0,0,0,0,0,0,0,0,0,0,0,0,0,0,0,0,0,0,401,401,401,401,401,401,401,401,401,401,0,0,0,0,0,0,0,0,0,0,0,401,401,401,0,0,0,0,0,0,0,0,0,0,0,401,401,401,0,0,0,0,0,0,0,0,0,0,0,0,0,0,0,0,0,0,0,401,401,0,0,0,0,0,0,0,0,0,0,0,0,0,0,0,0,0,0,0,0,0,0,0,0,0,0,0,0,401,401,401,401,401,0,0,0,0,0,0,0,0,0,401,401,401,401,401,401,
401,401,401,401,401,401,401,401,401,401,401,401,401,401,401,401,401,401,401,401,401,401,0,0,0,0,0,0,0,0,0,0,401,401,401,0,0,0,0,401,401,401,0,0,0,0,401,401,401,0,0,0,0,0,0,0,0,0,0,401,401,401,401,401,401,401,401,0,0,0,0,401,401,401,401,0,0,0,401,401,401,0,0,0,0,0,0,0,0,0,0,0,401,401,401,0,0,0,0,0,0,0,0,0,0,0,0,0,0,0,0,0,0,0,401,401,401,0,0,0,0,0,0,0,0,0,0,0,0,0,0,0,0,0,0,0,0,0,0,0,0,0,0,0,0,0,0,0,0,0,401,401,401,0,0,0,0,401,401,401,401,401,401,401,
401,401,401,401,401,401,401,401,401,401,401,401,401,401,401,401,401,401,401,401,401,0,0,0,0,0,0,0,0,0,0,0,0,0,0,0,0,0,0,401,401,401,0,0,0,0,0,0,0,0,0,0,0,0,0,0,0,0,0,0,401,401,401,401,401,401,401,0,0,0,0,401,0,0,0,0,0,0,401,401,401,0,0,0,0,0,0,0,0,0,0,0,401,401,401,0,0,0,0,401,401,401,0,0,0,0,0,0,0,0,0,0,0,0,401,401,401,401,401,401,401,401,401,401,401,401,401,0,0,0,0,0,0,0,0,0,0,0,0,0,0,0,0,0,0,0,0,0,0,0,0,0,0,0,0,0,0,401,401,401,401,401,401,401,
401,401,401,401,401,401,0,0,0,0,0,0,0,401,401,401,401,401,401,401,401,0,0,0,0,0,0,0,0,0,0,0,0,0,0,0,0,0,0,401,401,401,0,0,0,0,0,0,0,0,0,0,0,0,0,0,0,0,0,0,401,401,401,401,401,401,401,0,0,0,0,401,0,0,0,0,0,0,401,401,401,0,0,0,0,0,0,0,0,0,0,0,401,401,401,0,0,0,0,0,0,0,0,0,0,0,0,0,0,0,0,0,0,0,0,0,401,401,401,0,0,0,0,0,0,401,401,0,0,0,0,0,0,0,0,0,0,0,0,0,0,0,0,0,0,0,0,0,0,0,0,0,0,0,0,0,0,401,401,401,401,401,401,401,
401,401,401,401,401,0,0,0,0,0,0,0,0,0,401,401,401,401,401,401,401,0,0,0,0,0,0,0,0,0,0,0,0,0,0,0,0,0,401,401,401,401,401,0,0,0,0,0,0,0,0,0,0,0,0,0,0,0,0,0,401,401,401,401,401,401,0,0,0,0,0,401,0,0,0,0,0,401,401,401,401,0,0,0,0,0,0,0,0,0,0,0,401,401,401,0,0,0,0,0,0,0,0,0,0,0,0,0,0,0,0,0,0,0,0,0,401,401,401,0,0,0,0,0,0,401,401,401,0,0,0,0,0,0,0,0,0,0,0,0,0,0,0,0,0,0,0,0,0,0,0,0,0,0,0,0,0,401,401,401,401,401,401,401,
401,401,401,401,401,0,0,0,0,0,0,0,0,0,401,401,401,401,401,401,401,0,0,0,0,0,0,0,0,0,0,0,0,0,0,0,0,0,0,0,0,0,0,0,0,0,0,0,0,0,0,0,0,0,0,0,0,0,0,0,401,401,401,401,401,401,0,0,0,0,0,401,0,0,0,0,0,0,401,401,401,0,0,0,0,0,0,0,0,0,0,0,401,401,401,0,0,0,0,0,0,0,0,0,0,0,401,401,401,0,0,0,0,0,0,0,0,401,401,0,0,0,0,0,0,401,401,401,401,401,401,401,401,401,401,0,0,0,0,0,0,401,0,0,0,0,0,0,0,0,0,0,0,0,0,0,0,0,401,401,401,401,401,401,
401,401,401,401,401,0,0,0,0,0,0,0,0,0,0,0,0,0,0,0,0,0,0,0,0,0,0,0,0,0,0,0,0,0,0,401,0,0,0,0,0,0,0,0,0,401,0,0,0,0,0,0,0,0,0,0,0,0,0,0,0,0,0,0,0,0,0,0,0,0,0,401,401,401,401,0,0,0,401,401,401,0,0,0,0,0,0,0,0,0,0,0,401,401,401,0,0,0,0,0,0,0,0,0,0,0,401,401,401,0,0,0,0,0,0,0,0,401,401,0,0,0,0,0,0,401,401,401,401,401,401,401,401,401,401,401,401,401,401,401,401,401,0,0,0,0,0,401,0,0,0,0,0,0,0,0,0,0,0,401,401,401,401,401,
401,401,401,401,401,0,0,401,401,401,401,401,0,0,0,0,0,0,0,0,0,0,0,0,0,0,0,0,0,0,0,0,0,0,0,0,0,0,0,0,0,0,0,0,0,0,0,0,0,0,0,0,0,0,0,0,0,0,0,0,0,0,0,0,0,0,0,0,0,0,0,401,401,401,401,0,0,0,401,401,401,0,0,0,0,0,0,0,0,0,0,0,401,401,401,0,0,0,0,0,0,0,0,0,0,0,401,401,401,0,0,0,0,0,0,0,0,401,401,401,401,401,401,401,401,401,0,0,0,0,0,0,0,0,0,0,0,0,401,401,401,401,401,401,401,401,401,401,0,0,0,0,0,401,0,0,0,0,0,401,401,401,401,401,
401,401,401,401,401,0,0,0,0,0,0,0,0,0,401,401,401,401,401,401,401,401,0,0,0,0,0,0,0,0,0,0,0,0,0,0,0,0,0,0,0,0,0,0,0,0,0,0,0,0,0,0,0,0,0,0,0,0,0,401,401,401,401,401,401,401,0,0,0,0,0,0,0,0,0,0,0,401,401,401,401,0,0,0,0,0,0,0,0,0,0,0,401,401,401,0,0,0,0,0,0,401,401,401,401,401,401,401,401,401,401,401,0,0,0,0,0,0,0,0,0,0,0,0,0,0,0,0,0,0,0,0,0,0,0,0,0,0,0,0,0,0,0,0,401,401,401,401,401,401,401,401,401,401,0,0,0,0,0,401,401,401,401,401,
401,401,401,401,401,0,0,0,0,0,0,0,0,0,0,401,401,401,401,401,401,401,401,0,0,0,0,0,0,401,401,401,401,401,0,0,0,0,0,0,0,0,0,0,0,0,0,401,401,401,401,401,0,0,0,0,0,0,401,401,401,401,401,401,401,0,0,0,0,0,0,0,0,0,0,0,0,401,401,401,401,0,0,0,0,0,0,0,0,0,0,0,401,401,401,0,0,0,0,0,0,401,401,401,401,401,401,401,401,401,401,401,0,0,0,0,0,0,0,0,0,0,0,0,0,0,0,0,0,0,0,0,0,0,0,0,0,0,0,0,0,0,0,0,0,0,0,0,0,0,0,0,0,0,0,0,0,401,401,401,401,401,401,401,
401,401,401,401,401,401,401,401,401,0,0,0,0,0,0,401,401,401,401,401,401,401,401,0,0,0,0,0,0,0,401,401,401,0,0,0,0,0,0,0,0,0,0,0,0,0,0,0,401,401,401,0,0,0,0,0,0,0,401,401,401,401,401,401,401,0,0,0,0,0,0,401,401,401,401,401,401,401,401,401,401,0,0,0,0,0,0,0,0,0,0,0,401,401,401,0,0,0,0,0,0,0,0,0,0,0,0,0,0,0,0,0,0,0,0,0,401,401,401,401,401,401,401,401,401,401,401,401,0,0,0,0,0,0,0,0,0,0,0,0,0,0,0,0,0,0,0,0,0,0,0,0,0,0,0,0,401,401,401,401,401,401,401,401,
401,401,401,401,401,401,401,401,401,0,0,0,0,0,0,0,401,401,401,401,401,401,401,0,0,0,0,0,0,0,0,0,0,0,0,0,0,0,0,0,0,0,0,0,0,0,0,0,0,0,0,0,0,0,0,0,0,0,401,401,401,401,401,401,0,0,0,0,0,0,0,401,401,401,401,401,401,401,401,401,401,0,0,0,0,0,0,0,0,0,0,0,401,401,401,401,401,0,0,0,0,0,0,0,0,0,0,0,0,0,0,0,0,0,0,0,401,401,401,401,401,401,401,401,401,401,401,401,0,0,0,0,0,0,0,0,401,401,401,0,0,0,0,0,0,0,0,0,0,0,0,0,0,0,0,401,401,401,401,401,401,401,401,401,
401,401,401,401,401,0,0,0,0,0,0,0,0,0,0,0,0,401,401,401,401,401,401,401,401,0,0,0,0,0,0,0,0,0,0,0,0,401,401,401,401,401,401,401,0,0,0,0,0,0,0,0,0,0,0,0,401,401,401,401,401,401,401,0,0,0,0,0,0,0,0,0,0,0,0,0,0,0,401,401,401,0,0,0,0,0,0,0,0,0,0,0,401,401,401,401,401,0,0,0,0,0,0,0,0,0,0,0,0,0,0,0,0,0,401,401,401,401,401,401,401,401,401,401,401,401,401,401,0,0,401,0,0,401,0,0,401,401,401,0,0,0,0,0,0,0,0,0,0,0,0,0,0,0,0,401,401,401,401,401,401,401,401,401,
401,401,401,401,0,0,0,0,0,0,0,0,401,401,0,0,0,0,401,401,401,401,401,401,401,0,0,0,0,0,0,0,0,0,0,0,401,401,401,401,401,401,401,401,401,0,0,0,0,0,0,0,0,0,0,0,401,401,401,401,401,401,401,0,0,401,401,401,0,0,0,0,0,0,0,0,0,0,0,0,0,0,0,0,0,0,0,0,0,0,0,0,0,0,0,0,0,0,0,0,0,0,0,0,0,0,0,0,0,0,0,0,0,401,401,401,401,0,0,0,0,0,401,401,0,0,401,401,0,0,0,0,0,0,0,0,401,401,401,0,0,0,0,401,401,401,0,0,0,0,0,0,0,0,401,401,401,401,401,401,401,401,401,401,
401,401,401,401,0,0,0,0,0,0,0,0,401,401,401,0,0,0,401,401,401,401,401,401,401,0,0,0,0,0,0,0,0,0,0,0,401,401,401,401,401,401,401,401,401,0,0,0,0,0,0,0,0,0,0,0,401,401,401,401,401,401,0,0,0,401,401,401,0,0,0,0,0,0,0,0,0,0,0,0,0,0,0,0,0,0,0,0,0,0,0,0,0,0,0,0,0,0,0,401,401,0,0,0,0,0,0,0,0,0,401,401,401,401,401,401,401,0,0,0,0,0,401,401,0,0,401,401,401,401,401,401,401,401,401,401,401,401,401,0,0,0,0,0,0,0,0,0,0,0,0,0,0,0,0,0,401,401,401,401,401,401,401,401,
401,401,401,401,0,0,0,0,0,0,0,0,401,401,401,0,0,0,0,401,401,401,401,401,401,401,401,401,401,0,0,0,0,0,0,401,401,401,0,0,0,0,0,401,401,401,0,0,0,0,0,0,401,401,401,401,401,401,401,401,401,0,0,0,0,401,401,401,0,0,0,0,0,0,0,0,0,0,0,0,0,0,0,0,0,0,0,0,0,0,0,0,0,0,0,0,0,0,0,401,401,0,0,0,0,0,0,0,0,0,401,401,401,401,401,401,401,0,0,0,0,0,401,401,0,0,401,401,401,401,401,401,401,401,401,401,401,401,401,0,0,0,0,0,0,0,0,0,0,0,0,0,0,0,0,0,401,401,401,401,401,401,401,401,
401,401,401,401,0,0,0,0,0,0,401,401,401,401,401,0,0,0,0,0,401,401,401,401,401,401,401,401,401,0,0,0,0,0,0,401,401,0,0,0,0,0,0,0,401,401,0,0,0,0,0,0,401,401,401,401,401,401,401,401,0,0,0,0,0,401,401,401,401,401,0,0,0,0,0,0,0,0,401,401,401,401,401,401,0,0,0,0,0,401,401,401,401,401,401,401,401,401,401,401,401,401,401,401,401,401,401,401,401,401,401,401,401,401,401,401,401,0,0,0,0,0,401,401,0,0,401,401,0,0,0,0,0,0,0,0,0,401,401,401,401,401,401,401,401,401,401,401,401,401,401,0,0,0,0,0,401,401,401,401,401,401,401,401,
401,401,401,401,0,0,0,0,0,0,401,401,401,401,401,401,0,0,0,0,0,401,401,401,401,401,401,401,401,0,0,0,0,0,0,0,0,0,0,0,0,0,0,0,0,0,0,0,0,0,0,0,401,401,401,401,401,401,0,0,0,0,0,0,0,401,401,401,401,401,0,0,0,0,0,0,0,401,401,401,401,0,0,0,0,0,0,0,0,0,0,0,401,401,401,401,401,401,401,401,401,401,401,401,401,401,401,401,401,401,401,401,401,401,401,401,401,0,0,0,0,0,401,401,0,0,401,401,0,0,0,0,0,0,0,0,0,401,401,401,401,401,401,401,401,401,401,401,401,401,401,0,0,0,0,0,401,401,401,401,401,401,401,401,
401,401,401,401,0,0,0,0,0,0,0,0,401,401,401,0,0,0,0,0,0,0,0,0,401,401,401,401,401,401,401,401,0,0,0,0,0,0,0,0,0,0,0,0,0,0,0,0,0,401,401,401,401,401,401,401,0,0,0,0,0,0,0,0,0,401,401,401,0,0,0,0,0,0,0,0,401,401,401,401,401,0,0,0,0,0,0,0,0,0,0,0,401,401,401,401,401,401,401,401,401,0,0,0,0,0,0,0,0,0,401,0,0,0,0,0,0,0,0,0,0,0,401,401,0,0,401,401,0,0,0,0,0,0,0,0,0,401,401,401,401,401,401,401,401,401,401,401,401,0,0,0,0,0,0,401,401,401,401,401,401,401,401,401,
401,401,401,401,0,0,0,0,401,401,401,401,401,401,401,0,0,0,0,0,0,0,0,0,0,401,401,401,0,0,0,0,0,0,0,0,0,0,0,0,0,0,0,0,0,0,0,0,0,0,0,0,401,401,401,0,0,0,0,0,0,0,0,0,0,401,401,401,401,401,401,0,0,0,0,401,401,401,401,401,401,0,0,0,0,0,0,0,0,0,0,0,401,401,401,401,401,401,401,401,401,0,0,0,0,0,0,0,0,0,401,0,0,0,0,0,0,0,0,0,0,0,401,401,401,401,401,401,401,401,401,401,401,401,401,401,401,401,401,401,401,401,401,401,401,401,401,401,401,0,0,0,0,401,401,401,401,401,401,401,401,401,401,401,
401,401,401,401,401,0,0,0,401,401,401,401,401,401,401,401,401,0,0,0,0,0,0,0,0,401,401,401,0,0,0,0,0,0,0,0,0,0,0,0,0,0,0,0,0,0,0,0,0,0,0,0,401,401,401,0,0,0,0,0,0,0,0,0,0,401,401,401,401,401,401,0,0,0,0,401,401,401,401,401,401,0,0,0,0,0,0,0,0,0,0,0,401,401,401,401,401,401,401,401,401,0,0,0,0,0,0,0,0,0,401,0,0,0,0,0,0,0,0,0,0,0,401,401,401,401,401,401,401,401,401,401,401,401,401,401,401,401,401,401,401,401,401,401,401,401,401,401,401,0,0,0,0,0,401,401,401,401,401,401,401,401,401,401,
401,401,401,401,0,0,0,0,401,401,401,401,401,401,401,401,401,0,0,0,0,0,0,0,0,401,401,401,0,0,0,0,0,0,0,401,401,0,0,0,0,0,0,0,401,401,0,0,0,0,0,0,401,401,401,0,0,0,0,0,0,0,0,0,0,401,401,401,401,401,401,0,0,0,0,401,401,401,401,401,401,0,0,0,0,0,0,0,0,0,0,0,401,401,401,401,401,401,401,401,401,0,0,0,0,0,0,0,0,0,401,0,0,0,0,0,0,0,0,0,0,0,401,401,401,401,401,401,401,0,0,0,0,0,0,0,0,0,0,0,0,401,401,401,401,401,401,401,401,401,0,0,0,0,0,0,0,401,401,401,401,401,401,401,
401,401,401,401,0,0,0,0,401,401,401,401,401,401,401,0,0,0,0,0,0,0,0,0,0,401,401,401,0,0,0,0,0,0,0,401,401,0,0,0,0,0,0,0,401,401,0,0,0,0,0,0,401,401,401,0,0,0,401,401,401,401,401,0,0,401,401,401,401,401,401,401,0,0,0,401,401,401,401,401,401,0,0,0,0,0,0,0,0,0,0,0,401,401,401,401,401,401,401,401,401,401,401,401,401,401,401,401,401,401,401,401,401,401,401,401,401,401,401,401,401,401,401,401,401,401,0,0,0,0,0,0,0,0,0,0,0,0,0,0,0,0,0,401,401,401,401,401,401,401,401,0,0,0,0,0,0,0,401,401,401,401,401,401,
401,401,401,401,401,401,0,0,0,401,401,401,401,401,401,401,401,401,401,0,0,0,0,0,0,401,401,401,0,0,0,0,0,0,0,401,401,0,0,0,0,0,0,0,401,401,0,0,0,0,0,0,401,401,401,0,0,0,0,0,0,0,0,0,0,0,0,0,0,0,0,0,0,0,0,401,401,401,401,401,401,0,0,0,0,0,0,0,0,0,0,0,401,401,401,401,401,401,401,401,401,401,401,401,401,401,0,0,0,0,0,0,0,0,0,401,401,401,401,401,401,401,401,401,401,0,0,0,0,0,0,0,0,0,0,0,0,0,0,0,0,0,0,0,401,401,401,401,401,401,401,0,0,0,0,0,0,0,401,401,401,401,401,401,
401,401,401,401,0,0,0,0,0,401,401,401,401,401,401,401,401,401,401,401,0,0,0,0,0,401,401,401,0,0,0,0,401,401,0,401,401,401,401,401,401,401,401,401,401,401,0,401,401,0,0,0,401,401,401,0,0,0,0,0,0,0,0,0,0,0,0,0,0,0,0,0,0,0,0,401,401,401,401,401,401,0,0,0,0,0,0,0,0,0,0,0,401,401,401,401,401,401,401,401,401,401,401,401,401,401,0,0,0,0,0,0,0,0,0,401,401,401,401,401,401,401,401,401,0,0,0,0,0,0,0,0,0,0,0,0,0,0,0,0,0,0,0,0,0,401,401,401,401,401,401,401,401,0,0,0,0,0,401,401,401,401,401,401,
401,401,401,401,0,0,0,0,0,401,401,0,0,0,0,0,0,401,401,401,401,401,0,0,0,0,0,0,0,0,0,0,401,401,0,401,401,401,401,401,401,401,401,401,401,401,0,401,401,0,0,0,0,0,401,401,0,0,0,0,0,0,0,0,0,0,0,0,0,0,0,0,0,0,401,401,401,401,401,401,401,0,0,0,0,0,0,0,0,0,0,0,401,401,401,401,401,401,401,401,401,401,401,401,401,401,0,0,0,0,0,0,0,0,0,401,401,401,401,401,401,401,0,0,0,0,0,0,0,0,0,0,0,0,0,0,0,0,0,0,0,0,0,0,0,0,401,401,401,401,401,401,401,0,0,0,0,0,401,401,401,401,401,401,
401,401,401,401,0,0,401,401,0,401,401,0,0,0,0,0,0,0,401,401,401,401,0,0,0,0,0,0,0,0,0,0,401,401,0,401,401,401,401,401,401,401,401,401,401,401,0,401,401,0,0,0,0,0,0,0,0,0,0,0,0,0,0,0,0,0,0,0,0,0,0,0,0,0,0,401,401,401,401,401,401,0,0,0,0,0,0,0,0,0,0,0,401,401,401,401,401,401,401,401,401,401,401,401,401,401,0,0,0,0,0,0,0,0,0,401,401,401,401,401,0,0,0,0,0,0,0,0,0,0,0,0,401,401,401,0,0,0,0,0,0,0,0,0,0,0,401,401,401,401,401,401,401,0,0,0,0,0,401,401,401,401,401,401,
401,401,401,401,0,0,0,0,0,401,401,0,0,0,0,0,0,0,401,401,401,401,0,0,0,0,0,0,0,0,401,401,401,401,401,401,401,401,401,401,401,401,401,401,401,401,401,401,401,401,401,0,0,0,0,0,0,0,0,0,0,0,0,0,0,0,0,0,0,0,0,0,0,0,0,401,401,401,401,401,401,0,0,0,0,0,0,0,0,0,0,0,401,401,401,401,401,401,401,0,0,0,0,401,401,401,0,0,0,0,0,0,0,0,0,401,401,401,401,0,0,0,0,0,0,0,0,0,401,0,0,0,401,401,401,0,0,0,0,0,0,0,0,0,0,0,401,401,401,401,401,401,401,0,0,0,0,401,401,401,401,401,401,401,
401,401,401,401,0,0,0,0,0,0,401,401,401,401,401,401,0,0,401,401,401,401,401,401,401,401,401,401,401,401,401,401,401,401,401,401,401,401,401,401,401,401,401,401,401,401,401,401,401,401,401,401,401,401,401,401,401,401,401,401,401,401,0,0,0,0,0,401,401,401,0,0,0,0,0,0,401,401,401,401,401,0,0,0,0,0,0,0,0,0,0,0,401,401,401,401,401,401,401,0,0,0,0,401,401,401,401,401,401,401,401,401,401,401,401,401,0,0,0,0,0,0,0,0,0,0,0,0,0,0,0,0,401,401,401,401,401,0,0,0,0,0,0,0,0,0,0,401,401,401,401,401,401,0,0,0,0,0,0,401,401,401,401,401,
401,401,401,401,401,0,0,0,0,0,0,0,0,0,0,0,0,0,401,401,401,401,401,401,401,401,401,401,401,401,401,401,401,401,401,401,401,401,401,401,401,401,401,401,401,401,401,401,401,401,401,401,401,401,401,401,401,401,401,401,401,401,401,401,0,0,0,401,401,401,0,0,0,0,0,0,0,401,401,401,401,0,0,0,0,0,0,0,0,0,0,0,401,401,401,401,401,401,401,0,0,0,0,401,401,401,401,401,401,401,401,401,401,0,0,0,0,0,0,0,0,0,0,0,0,0,0,0,0,0,0,0,401,401,401,401,401,0,0,0,0,0,0,0,0,0,0,401,401,401,401,401,401,0,0,0,0,0,0,401,401,401,401,401,
401,401,401,401,401,0,0,0,0,0,0,0,0,0,0,0,0,0,401,401,401,401,401,401,401,401,401,401,401,401,401,401,401,401,401,401,401,401,401,401,401,401,401,401,401,401,401,401,401,401,401,401,401,401,401,401,401,401,401,401,401,401,401,401,401,0,0,401,401,401,0,0,0,401,0,0,0,401,401,401,401,0,0,0,0,0,0,0,0,0,0,0,401,401,401,401,401,401,401,0,0,0,0,401,401,401,401,401,401,401,0,0,0,0,0,0,0,0,0,0,0,0,0,0,0,0,0,0,0,0,401,401,401,401,401,0,0,0,0,0,0,0,0,0,0,0,0,0,401,401,401,401,401,0,0,401,401,0,0,401,401,401,401,401,
401,401,401,401,401,0,0,0,0,0,0,0,0,0,0,0,0,401,401,401,401,401,401,401,401,401,401,401,401,401,401,401,401,401,401,401,401,401,401,401,401,401,401,401,401,401,401,401,401,401,401,401,401,401,401,401,401,401,401,401,401,401,401,401,401,401,401,401,401,401,0,0,0,0,0,0,0,0,401,401,401,0,0,0,0,0,0,0,0,0,0,0,401,401,401,401,401,401,401,0,0,0,0,401,401,401,401,401,401,0,0,0,0,0,0,0,0,0,0,0,0,0,0,0,0,0,0,0,0,0,401,401,401,401,401,0,0,0,401,0,0,0,0,0,0,0,0,0,0,401,401,401,401,0,0,0,0,0,0,401,401,401,401,401,
401,401,401,401,401,401,0,0,0,0,0,0,0,0,0,0,0,0,401,401,401,401,401,401,401,401,401,401,401,401,401,401,401,401,401,401,401,401,401,401,401,401,401,401,401,401,401,401,401,401,401,401,401,401,401,401,401,401,401,401,401,401,401,401,401,401,401,401,401,401,0,0,0,0,0,0,0,0,401,401,401,0,0,0,0,0,0,0,0,0,0,0,401,401,401,401,401,401,401,0,0,0,401,401,401,401,401,401,0,0,0,0,0,0,0,0,0,0,0,0,0,0,0,0,0,0,0,0,0,0,0,0,401,401,401,0,0,0,0,0,0,0,0,0,0,0,0,0,0,401,401,401,401,401,0,0,0,0,0,401,401,401,401,401,
401,401,401,401,401,401,0,0,0,0,0,0,0,0,0,0,0,0,401,401,401,401,401,401,401,401,401,401,401,401,401,0,0,0,0,0,0,0,0,0,0,0,0,0,0,0,0,0,0,401,401,401,401,401,401,401,401,401,401,401,401,401,401,401,401,401,401,401,401,401,401,401,0,0,0,0,0,0,401,401,401,0,0,0,0,0,0,0,0,0,0,0,401,401,401,401,401,401,401,0,0,0,0,0,0,0,0,0,0,0,0,0,0,0,0,0,0,0,0,0,0,0,0,0,0,0,0,401,0,0,0,0,401,401,401,0,0,0,0,0,0,0,0,0,0,0,0,0,0,0,401,401,401,401,401,0,0,0,0,401,401,401,401,401,
401,401,401,401,401,401,401,401,401,401,401,0,0,401,401,401,401,401,401,401,401,401,401,401,401,401,401,401,401,0,0,0,0,0,0,0,0,0,0,0,0,0,0,0,0,0,0,0,0,0,401,401,401,401,401,401,401,401,401,401,401,401,401,401,401,401,401,401,401,401,401,401,0,0,0,0,0,0,401,401,401,0,0,0,0,0,0,0,0,0,0,0,401,401,401,401,401,401,401,401,0,0,0,0,0,0,0,0,0,0,0,0,0,0,401,401,401,401,401,0,0,0,0,0,0,0,0,0,0,0,0,0,401,401,401,401,401,0,0,0,0,0,0,0,0,0,0,0,0,0,401,401,401,401,401,0,0,0,0,401,401,401,401,401,
401,401,401,401,401,401,401,401,0,0,0,0,0,0,0,401,401,401,401,401,401,401,401,401,401,401,401,0,0,0,0,0,0,0,0,0,0,0,0,0,0,0,0,0,0,0,0,0,0,0,0,0,401,401,401,401,401,401,401,401,401,401,401,401,401,401,401,401,401,401,401,401,401,401,0,0,0,0,401,401,401,0,0,0,0,0,0,0,0,0,0,0,401,401,401,401,401,401,401,401,0,0,0,0,0,0,0,0,0,0,0,0,0,0,0,0,0,0,0,0,0,0,0,0,0,0,0,0,0,0,0,0,401,401,401,401,401,0,0,0,0,0,0,0,0,0,0,0,0,0,0,0,0,0,0,0,0,0,401,401,401,401,401,401,
401,401,401,401,401,401,401,401,0,0,0,0,0,0,0,401,401,401,401,401,401,401,401,401,401,401,0,0,0,0,0,0,0,0,0,0,0,0,0,0,0,0,0,0,0,0,0,0,0,0,0,0,0,0,401,401,401,401,401,401,401,401,401,401,401,401,401,401,401,401,401,401,401,401,0,0,0,0,401,401,401,0,0,0,0,0,0,0,0,0,0,0,401,401,401,401,401,401,401,401,401,0,0,0,0,0,0,0,0,0,0,0,0,0,0,0,0,0,0,0,0,0,0,0,0,0,0,0,0,0,401,401,401,401,401,0,0,0,0,0,0,0,0,0,0,0,0,0,0,0,0,0,0,0,0,0,0,401,401,401,401,401,401,401,
401,401,401,401,401,401,401,401,0,0,0,0,401,0,401,401,401,401,401,401,401,401,401,401,0,0,0,0,0,0,0,0,0,0,0,0,0,0,0,0,0,0,0,0,0,0,0,0,0,0,0,0,0,0,0,401,401,401,401,401,401,401,401,401,401,401,401,401,401,401,401,401,401,0,0,0,0,0,401,401,401,0,0,0,0,0,0,0,0,0,0,0,401,401,401,401,401,401,401,401,401,401,401,401,0,0,0,0,0,0,401,0,0,0,0,0,0,0,0,0,401,0,0,0,0,0,0,0,0,0,401,401,401,401,401,0,0,0,401,0,0,0,0,0,0,0,0,0,0,0,0,0,0,0,0,0,0,401,401,401,401,401,401,401,
401,401,401,401,401,401,401,401,0,0,0,0,0,0,401,401,401,401,401,401,401,401,401,0,0,0,0,0,0,0,0,0,0,0,0,0,0,0,0,0,0,0,0,0,0,0,0,0,0,0,0,0,0,0,0,0,0,401,401,401,401,401,401,401,401,401,401,401,401,401,401,401,401,0,0,0,0,401,401,401,401,0,0,0,0,0,0,0,0,0,0,0,401,401,401,401,401,401,401,401,401,401,401,0,0,0,0,0,0,0,0,0,0,0,0,0,0,0,0,0,0,0,0,0,0,0,0,0,0,0,0,0,0,0,0,0,0,0,0,0,0,0,0,401,0,0,0,0,0,0,0,0,0,0,0,0,0,401,401,401,401,401,401,401,
401,401,401,401,401,401,401,401,0,0,0,0,0,0,401,401,401,401,401,401,401,401,0,0,0,0,0,0,0,0,0,0,0,0,0,0,0,0,0,0,0,0,0,0,0,0,0,0,0,0,0,0,0,0,0,0,0,0,401,401,401,401,401,401,401,401,401,401,401,401,401,401,401,0,0,0,0,0,401,401,401,0,0,0,0,0,0,0,0,0,0,0,401,401,401,401,401,401,401,401,401,401,401,0,0,0,0,0,0,0,0,0,0,0,0,0,0,0,0,0,0,0,0,0,0,0,0,0,0,0,0,0,0,0,0,0,0,0,0,0,0,0,0,0,0,0,0,0,0,0,0,0,0,0,0,401,401,401,401,401,401,401,401,401,
401,401,401,401,401,401,401,401,401,401,401,401,0,0,401,401,401,401,401,401,401,0,0,0,0,0,0,0,0,0,0,0,0,0,0,0,0,0,0,0,0,0,0,0,0,0,0,0,0,0,0,0,0,0,0,0,0,0,0,401,401,401,401,401,401,401,401,401,401,401,401,401,401,0,0,0,0,0,401,401,401,0,0,0,0,0,0,0,0,0,0,0,401,401,401,401,401,401,401,401,401,401,401,0,0,0,0,401,0,0,0,0,0,0,0,0,0,0,0,0,0,0,0,0,0,0,401,0,0,0,0,0,0,0,0,0,0,0,0,0,0,0,0,0,0,0,0,401,401,0,0,0,0,0,0,401,401,401,401,401,401,401,401,401,
401,401,401,401,401,401,401,401,401,401,0,0,0,0,401,401,401,401,401,401,0,0,0,0,0,0,0,0,0,0,0,0,0,0,0,0,0,0,0,0,0,0,0,0,0,0,0,0,0,0,0,0,0,0,0,0,0,0,0,401,401,401,401,401,401,401,401,401,401,401,401,401,401,401,0,0,0,0,401,401,401,0,0,0,0,0,0,0,0,0,0,0,401,401,401,401,401,401,401,401,401,401,401,0,0,0,0,0,0,0,0,0,0,0,0,0,0,0,0,0,0,0,0,0,0,0,0,0,0,0,0,0,0,0,0,0,0,0,0,0,0,0,0,0,0,0,0,0,0,0,0,0,0,0,0,0,0,0,0,0,401,401,401,401,
401,401,401,401,401,401,401,401,401,0,0,0,0,0,401,401,401,401,401,0,0,0,0,0,0,0,0,0,0,0,0,0,0,0,0,0,0,0,0,0,0,0,0,0,0,0,0,0,0,0,0,0,0,0,0,0,0,0,0,0,401,401,401,401,401,401,401,401,401,401,401,401,0,0,0,0,0,0,401,401,401,0,0,0,0,0,0,0,0,0,0,0,401,401,401,401,401,401,401,401,401,401,401,0,0,0,0,0,0,0,0,0,0,0,0,0,0,0,0,0,0,0,0,0,0,0,0,0,0,0,0,0,0,0,0,0,0,0,0,0,0,0,0,0,0,0,0,0,0,0,0,0,401,401,401,401,401,401,0,0,401,401,401,401,
401,401,401,401,401,401,401,401,401,0,0,0,401,401,401,401,0,0,0,0,0,0,0,0,0,0,0,0,0,0,0,0,0,0,0,0,0,0,0,0,0,0,0,0,0,0,0,0,0,0,0,0,0,0,0,0,0,0,0,0,401,401,401,401,401,401,401,401,401,401,401,0,0,0,0,0,0,0,401,401,401,0,0,0,0,0,0,0,0,0,0,0,401,401,401,401,401,401,401,401,401,401,401,401,401,0,0,0,0,0,0,0,0,0,0,0,0,0,0,0,0,0,0,0,0,0,0,0,0,0,0,0,0,0,0,0,0,0,0,0,0,0,0,0,0,0,0,0,0,0,0,0,401,401,401,401,401,0,0,0,401,401,401,401,
401,401,401,401,401,401,401,401,401,0,0,0,401,401,401,401,0,0,0,0,0,0,0,0,0,0,0,0,0,0,0,0,0,0,0,0,0,0,0,0,0,0,0,0,0,0,0,0,0,0,0,0,0,0,0,0,0,0,0,0,0,401,401,401,401,401,401,401,401,401,401,0,0,0,0,0,401,401,401,401,401,0,0,0,0,0,0,0,0,0,0,0,401,401,401,401,401,401,401,401,401,401,401,0,0,0,0,0,0,0,0,0,0,0,0,0,0,0,0,0,0,0,0,0,0,0,0,0,0,0,0,0,0,0,0,0,0,0,0,0,0,0,0,0,0,0,0,0,0,0,0,0,401,401,401,401,0,0,0,401,401,401,401,401,
401,401,401,401,401,401,401,401,401,0,0,0,0,0,0,0,0,0,0,0,0,0,0,0,0,0,0,0,0,0,0,401,401,401,401,401,401,401,401,401,401,401,401,401,401,401,401,401,0,0,0,0,0,0,0,0,0,0,0,0,0,401,401,401,401,401,401,401,401,401,401,0,0,0,0,0,401,401,401,401,401,0,0,0,0,0,0,0,0,0,0,0,401,401,401,401,401,401,401,401,401,401,401,0,0,0,0,0,0,0,0,0,0,0,0,0,0,0,0,0,0,0,0,0,0,0,0,0,0,0,0,0,0,0,0,0,0,0,0,0,0,0,0,0,0,0,0,0,0,0,0,401,401,401,401,0,0,0,0,0,401,401,401,401,
401,401,401,401,401,401,401,401,401,401,401,0,0,0,0,0,0,0,0,0,0,0,0,0,0,0,0,0,0,0,401,401,401,401,401,401,401,401,401,401,401,401,401,401,401,401,401,401,401,401,401,401,0,0,0,0,0,0,0,0,0,0,401,401,401,401,401,401,401,401,401,0,0,0,0,0,401,401,401,401,401,0,0,0,0,0,0,0,0,0,0,0,401,401,401,401,401,401,401,401,401,401,401,0,0,0,0,401,401,0,0,0,0,0,0,0,0,0,0,0,0,0,0,0,0,0,0,0,0,0,0,0,0,0,0,0,0,0,0,0,0,0,0,0,0,0,0,0,0,0,0,401,401,401,401,0,0,0,0,0,401,401,401,401,
401,401,401,401,401,401,401,401,401,401,401,0,0,0,0,0,0,0,0,0,0,0,0,0,0,0,0,0,0,0,401,401,401,401,401,401,401,401,401,401,401,401,401,401,401,401,401,401,401,401,401,401,0,0,0,0,0,0,0,0,0,0,0,0,0,0,0,0,401,401,401,0,0,0,401,401,401,401,401,401,401,0,0,0,0,0,0,0,0,0,0,0,0,401,401,401,401,401,401,401,401,401,401,0,0,0,0,0,0,0,0,0,0,0,0,0,0,0,0,0,0,0,0,0,0,0,0,0,0,0,0,0,0,0,0,0,0,0,0,0,0,0,0,0,0,0,0,0,0,0,0,401,401,401,401,0,0,0,401,401,401,401,401,401,
401,401,401,401,401,401,401,401,401,401,0,0,0,0,0,0,0,0,0,0,0,0,0,0,0,0,0,401,0,0,401,401,0,0,0,401,401,401,0,0,0,401,401,401,401,401,401,401,401,401,401,401,0,0,0,0,0,0,0,0,0,0,0,0,0,0,0,0,0,0,401,0,0,0,401,401,401,401,401,401,401,0,0,0,0,0,0,0,0,0,0,0,0,401,401,401,401,401,401,401,401,401,401,0,0,0,0,0,0,0,0,0,0,0,0,0,0,0,0,0,0,0,0,0,0,401,401,401,0,401,401,401,0,0,0,0,0,0,0,0,0,0,0,0,0,0,0,0,0,401,0,401,401,401,401,0,0,0,401,401,401,401,401,401,
401,401,401,401,401,401,401,401,401,401,401,401,401,0,0,0,0,0,0,0,0,0,0,0,0,0,0,0,0,0,401,401,0,0,0,0,401,401,0,0,0,401,401,401,401,0,0,0,0,401,401,0,0,0,0,0,0,0,0,0,0,0,0,0,0,0,0,0,0,0,401,401,0,0,0,0,401,401,401,401,401,0,0,0,0,0,0,0,0,0,0,0,0,0,0,0,401,401,401,401,401,401,401,401,401,0,0,0,0,0,0,0,0,0,0,0,0,0,0,0,0,0,0,0,0,401,401,401,0,401,401,401,0,0,0,0,0,0,0,0,0,0,0,0,0,0,0,0,0,401,401,401,401,401,401,0,0,0,0,0,401,401,401,401,
401,401,401,401,401,401,401,401,401,401,401,401,401,0,0,0,0,0,0,0,0,0,401,401,0,0,0,0,0,0,0,401,401,0,0,0,0,0,0,0,0,401,401,401,401,0,0,0,0,0,401,0,0,0,0,0,0,0,0,0,0,0,0,0,0,0,0,0,0,0,0,0,0,0,0,0,0,0,0,0,0,0,0,0,0,0,0,0,0,0,0,0,0,0,0,0,401,401,401,401,401,401,401,401,401,0,0,0,0,0,0,0,0,0,0,0,0,0,0,0,0,0,0,0,0,0,0,0,0,0,0,0,0,0,0,0,0,0,0,0,0,0,0,0,0,401,0,401,401,401,401,401,401,401,401,401,401,0,0,0,401,401,401,401,
401,401,401,401,401,401,401,401,401,401,401,0,0,0,0,0,0,401,401,0,0,0,0,0,0,0,0,0,0,0,0,0,0,0,0,0,401,401,401,401,401,401,401,401,401,0,0,0,0,0,0,0,0,0,0,0,0,0,0,0,0,0,0,0,0,0,0,0,0,0,0,0,0,0,0,0,0,0,0,0,0,0,0,0,0,0,0,0,0,0,0,0,0,0,0,0,0,0,0,0,0,0,0,0,0,0,0,0,0,0,0,0,0,0,0,0,0,0,0,0,0,0,0,0,0,0,0,0,0,0,0,0,0,0,0,0,0,0,0,0,0,0,0,0,0,401,401,401,401,401,401,401,401,401,401,401,401,401,401,0,401,401,401,401,
401,401,401,401,401,401,401,401,401,401,0,0,0,0,0,0,0,401,401,0,0,0,0,0,0,0,0,0,0,0,0,0,0,0,0,0,401,401,401,401,401,401,401,401,401,401,401,401,401,0,0,0,0,0,0,0,0,0,0,0,0,0,0,0,0,0,0,0,401,401,401,401,401,401,401,401,401,401,401,401,401,401,401,401,401,401,401,401,401,401,401,401,401,0,0,0,0,0,0,0,0,0,0,0,0,0,0,401,401,401,0,0,0,0,0,0,0,0,0,0,0,0,0,0,0,0,0,0,0,0,0,0,0,0,0,0,0,0,0,0,0,0,0,0,401,401,401,401,401,401,401,401,401,401,401,401,401,401,401,0,401,401,401,401,
401,401,401,401,401,401,401,401,401,401,0,0,0,0,0,0,0,401,401,401,0,0,0,0,0,0,0,0,0,0,0,0,401,401,401,401,401,401,401,401,401,401,0,401,401,401,401,401,401,401,401,401,401,0,0,0,0,0,0,0,0,0,0,0,0,0,0,0,401,401,401,401,401,401,401,401,401,401,401,401,401,401,401,401,401,401,401,401,401,401,401,401,401,0,0,0,0,0,0,0,0,0,0,0,0,0,0,401,401,401,0,0,0,0,0,0,0,0,0,0,0,0,0,0,0,0,0,0,0,0,0,0,0,0,0,0,0,0,0,0,0,401,0,401,401,401,401,401,401,401,401,401,401,401,401,401,401,401,401,0,401,401,401,401,
401,401,401,401,401,401,401,401,401,0,0,0,0,0,0,0,0,0,0,0,0,0,0,0,0,0,0,0,0,0,0,0,401,401,401,401,401,401,401,401,401,401,0,401,401,401,401,401,401,401,401,401,401,0,0,0,0,0,0,0,0,0,0,0,0,0,0,0,0,401,401,401,401,401,401,401,401,401,401,401,401,401,401,401,401,401,401,401,401,401,401,401,401,401,0,0,0,0,0,0,0,0,0,0,0,0,0,401,401,401,401,0,0,0,0,0,0,0,0,0,0,0,0,0,0,0,0,0,0,0,0,0,0,0,0,0,0,0,0,0,0,401,401,401,401,401,401,401,401,401,401,401,401,401,401,401,401,401,401,0,401,401,401,401,
401,401,401,401,401,401,401,401,401,0,0,0,0,0,0,0,0,0,0,0,0,0,0,0,0,0,0,0,0,0,0,0,0,0,401,401,401,401,401,401,401,401,401,401,0,0,0,0,0,0,0,401,401,0,0,0,0,0,0,0,401,401,401,401,0,0,0,0,0,401,401,401,401,401,401,401,401,401,401,401,401,401,401,401,401,401,401,401,401,401,401,401,401,401,401,401,401,401,401,0,0,0,0,0,0,401,401,401,401,401,401,0,0,0,0,0,0,0,0,0,0,0,0,0,0,0,0,0,0,0,0,0,0,0,0,0,0,0,401,0,401,401,401,401,401,401,401,401,401,401,401,401,401,401,401,401,401,401,401,0,401,401,401,401,
401,401,401,401,401,401,401,401,401,0,0,0,0,0,0,0,0,0,0,0,401,401,401,0,0,0,0,0,401,401,0,0,0,0,401,401,401,401,401,401,401,401,401,401,0,0,0,0,0,0,0,0,0,0,0,0,0,0,0,0,0,0,0,0,0,0,0,0,0,401,401,401,401,401,401,401,401,401,401,401,401,401,401,401,401,401,401,401,401,401,401,401,401,401,401,401,401,401,401,0,0,0,0,0,0,401,401,401,401,401,401,0,0,0,0,0,0,0,0,0,0,0,0,0,0,0,0,0,0,0,0,0,0,0,0,0,0,0,401,401,401,401,401,401,401,401,401,401,401,401,401,401,401,401,401,401,401,401,401,0,401,401,401,401,
401,401,401,401,401,401,401,401,401,0,0,0,0,0,0,0,0,0,0,401,401,401,401,0,0,0,0,0,0,0,0,0,0,0,401,401,401,401,401,401,401,401,401,401,0,0,0,0,0,0,0,0,0,0,0,0,0,0,0,0,0,0,0,0,0,0,0,0,0,401,401,401,401,401,401,401,401,401,401,401,2684354961,2684354961,2684354961,2684354961,2684354961,2684354961,2684354961,2684354961,401,401,401,401,401,401,401,401,401,401,401,0,0,0,0,0,0,401,401,401,401,401,401,0,0,0,0,0,0,0,0,0,0,0,0,0,0,0,0,0,0,0,0,0,0,401,0,401,401,401,401,401,401,401,401,401,401,401,401,401,401,401,401,401,401,401,401,401,401,401,401,0,401,401,401,401,
401,401,401,401,401,401,401,401,401,0,0,0,0,0,0,0,0,0,0,0,0,0,0,0,0,0,0,0,0,0,0,0,0,0,401,401,401,401,401,401,401,401,401,401,0,0,0,0,0,0,0,0,0,0,0,0,401,401,0,0,0,0,0,0,0,0,0,0,0,0,401,401,401,401,401,401,401,401,401,401,2684354961,2684354961,2684354961,2684354961,2684354961,2684354961,2684354961,2684354961,2684354961,401,401,401,401,401,401,401,401,401,401,401,401,0,0,0,0,401,401,401,401,401,401,401,401,401,401,401,401,401,401,401,401,401,401,401,401,401,401,401,0,401,401,401,401,401,401,401,401,401,401,401,401,401,401,401,401,401,401,401,401,401,401,0,0,0,401,401,401,401,401,0,401,401,401,401,
401,401,401,401,401,401,401,401,401,0,0,0,0,0,0,0,0,0,0,0,0,0,0,0,0,0,0,0,0,0,0,0,401,401,401,401,401,401,401,401,401,401,401,401,0,0,0,0,0,0,0,0,0,0,0,0,0,0,0,0,0,0,0,0,0,0,0,0,0,0,0,401,401,401,401,401,401,401,401,401,2684354961,2684354961,2684354961,2684354961,2684354961,2684354961,2684354961,2684354961,2684354961,401,401,401,401,401,401,401,401,401,401,401,401,0,0,0,0,401,401,401,401,401,401,401,401,401,401,401,401,401,401,401,401,401,401,401,401,401,401,401,0,401,401,401,401,401,401,401,401,401,401,401,401,401,401,401,401,401,401,401,401,401,0,0,0,0,0,401,401,401,401,0,401,401,401,401,
401,401,401,401,401,401,401,401,401,0,0,0,0,0,0,401,401,0,0,0,0,0,0,0,0,0,0,0,0,0,0,0,401,401,401,401,401,401,401,401,401,401,401,401,0,0,0,0,0,0,0,0,401,0,0,0,0,0,0,0,0,0,0,0,0,0,0,0,0,0,0,401,401,401,401,401,401,401,401,401,2684354961,2684354961,0,0,0,0,0,0,2684354961,401,401,401,401,401,401,401,401,401,401,0,0,0,0,0,0,401,401,401,401,401,401,401,401,401,401,401,401,401,401,401,401,401,401,401,401,401,401,401,0,0,0,0,0,401,401,401,401,401,401,401,401,401,401,401,401,401,401,401,401,401,0,0,0,0,0,401,401,401,401,0,401,401,401,401,
401,401,401,401,401,401,401,401,401,0,0,0,0,0,0,401,401,0,0,0,0,0,0,0,0,0,0,0,0,0,0,0,0,0,401,401,401,401,401,401,401,401,401,401,0,0,0,0,0,0,0,0,0,0,0,0,0,0,0,0,0,0,0,0,0,0,0,0,0,0,0,0,401,401,401,401,401,401,401,401,2684354961,2684354961,0,0,0,0,0,0,2684354961,2684354961,401,401,401,401,401,401,401,401,401,0,0,0,0,401,401,401,401,401,401,401,401,401,401,401,401,401,401,401,401,401,401,401,401,401,401,401,401,401,401,401,401,401,0,401,401,401,401,401,401,401,401,401,401,401,401,401,401,401,401,401,0,0,0,0,0,401,401,401,401,0,401,401,401,401,
401,401,401,401,401,401,401,401,401,0,0,0,0,0,0,401,401,0,0,0,0,0,0,0,0,0,0,0,0,0,0,0,0,0,401,401,401,401,401,401,401,401,401,401,0,0,0,401,401,0,0,0,0,0,0,0,0,0,0,0,0,0,0,0,0,0,0,0,0,0,0,0,401,401,401,401,401,401,401,401,2684354961,2684354961,0,0,0,0,0,0,2684354961,401,401,401,401,401,401,401,401,401,401,0,0,0,0,401,401,401,401,401,401,401,401,401,401,401,401,401,401,401,401,401,401,401,401,401,401,401,401,401,401,401,401,401,0,0,0,0,0,0,0,0,0,0,0,0,0,0,0,0,0,0,0,401,401,401,0,401,401,401,401,0,401,401,401,401,
401,401,401,401,401,401,401,401,401,0,0,0,0,0,0,401,401,401,0,0,0,0,0,401,401,401,401,0,0,0,0,0,0,0,401,401,401,401,401,401,401,401,401,401,0,0,0,0,0,0,0,0,0,0,0,0,0,0,0,0,0,0,0,0,0,0,0,0,0,0,0,0,0,401,401,401,401,401,401,401,2684354961,2684354961,0,0,0,0,0,0,401,401,401,401,401,401,401,401,401,401,401,0,0,0,0,401,401,401,401,401,401,401,401,401,401,401,401,401,401,401,401,401,401,401,401,401,401,401,401,401,401,401,401,401,401,401,401,401,401,401,401,401,401,401,401,401,401,401,401,401,401,401,401,401,401,401,401,401,401,401,401,0,401,401,401,401,
401,401,401,401,401,401,401,401,401,0,0,0,0,0,0,401,401,401,0,0,0,0,0,0,0,0,0,0,0,0,0,0,0,0,401,401,401,401,401,401,401,401,401,401,0,0,0,0,0,0,0,0,0,0,0,0,0,0,0,0,0,0,0,0,0,0,0,0,0,0,0,0,0,0,401,401,401,401,401,401,2684354961,2684354961,0,0,0,0,0,0,401,401,401,401,401,401,401,401,401,401,401,401,0,0,0,0,401,401,401,401,401,401,401,401,401,401,401,401,401,401,401,401,401,401,401,401,401,401,401,401,401,401,401,401,401,401,401,401,401,401,401,401,401,401,401,401,401,401,401,401,401,401,401,401,401,401,401,401,401,401,401,0,401,401,401,401,
401,401,401,401,401,401,401,401,401,0,0,0,0,0,0,401,401,0,0,0,0,0,0,0,0,0,0,0,0,0,0,0,401,401,401,401,401,401,401,401,401,401,401,401,0,0,0,0,0,401,401,401,401,401,401,401,0,0,0,0,0,0,0,0,0,0,0,0,0,0,0,0,0,0,401,401,401,401,401,401,2684354961,2684354961,401,2684354961,0,0,401,401,401,401,401,401,401,401,401,401,401,401,401,401,0,0,0,0,0,401,401,401,401,401,401,401,401,401,401,401,401,401,401,401,401,401,401,401,401,401,401,401,401,401,401,401,401,401,401,401,401,401,401,401,401,401,401,401,401,401,401,401,401,401,401,401,401,401,401,401,401,401,401,0,401,401,401,401,
401,401,401,401,401,401,401,401,401,0,0,401,401,0,0,401,0,0,0,0,0,0,0,0,0,0,0,0,0,0,0,0,401,401,401,401,401,401,401,401,401,401,401,401,0,0,0,0,0,401,401,401,401,401,401,401,0,0,0,0,0,0,0,0,0,0,0,0,0,0,0,0,0,0,401,401,401,401,401,401,401,2684354961,401,2684354961,0,2684354961,401,401,401,401,401,401,401,401,401,401,401,401,0,0,0,0,0,0,0,0,401,401,401,401,401,401,401,401,401,401,401,401,401,401,401,401,401,401,401,401,401,0,0,0,0,401,401,401,401,401,401,401,401,401,401,401,401,401,401,401,401,401,401,401,401,401,401,401,401,401,401,401,401,0,401,401,401,401,
401,401,401,401,401,401,401,401,401,0,0,401,401,0,0,0,0,0,0,0,0,0,0,0,0,0,0,0,0,0,0,0,0,0,401,401,401,401,401,401,401,401,401,401,0,0,0,0,0,0,0,0,0,0,0,0,0,0,0,0,0,0,0,0,0,0,0,0,0,0,0,0,0,0,0,0,0,0,0,0,0,0,0,0,0,0,0,0,0,0,0,0,0,0,401,401,401,401,0,0,0,401,401,0,0,0,401,401,401,401,401,401,401,401,401,401,401,401,401,401,401,401,401,401,401,401,401,0,401,401,0,401,0,401,401,401,401,401,401,401,401,401,401,401,401,401,401,401,401,401,401,401,401,401,401,401,401,401,401,0,401,401,401,401,
401,401,401,401,401,401,401,401,401,0,0,0,0,0,0,0,0,0,0,0,0,0,0,0,0,0,0,0,401,401,0,0,0,0,401,401,401,401,401,401,401,401,401,401,0,0,0,0,0,0,0,0,0,0,0,0,0,0,0,401,401,401,0,0,0,0,0,0,0,0,0,0,0,0,0,0,0,0,0,0,0,0,0,0,0,0,0,0,0,0,0,0,0,0,0,401,401,401,0,0,0,401,401,0,0,0,401,401,401,401,401,401,401,401,401,401,401,401,401,401,401,401,401,401,401,401,401,0,401,401,0,401,401,401,401,401,401,401,401,401,401,401,401,401,0,401,401,401,401,401,401,401,401,401,401,401,401,401,401,0,401,401,401,401,
401,401,401,401,401,401,401,401,401,0,0,0,0,0,0,0,401,0,0,0,0,0,0,0,0,0,0,0,0,0,0,0,0,0,401,401,401,401,401,401,401,401,401,401,0,0,0,0,0,0,0,0,0,0,0,0,0,0,0,401,401,401,0,0,0,0,0,0,0,0,0,0,0,0,0,0,0,0,0,0,0,0,0,401,401,401,0,0,0,0,0,0,0,0,0,0,401,401,0,0,0,0,0,0,0,0,401,401,401,401,401,401,0,0,0,0,0,0,0,0,0,0,401,401,401,401,401,0,401,401,0,401,401,401,401,401,401,401,401,401,401,401,401,401,401,401,401,401,401,401,0,401,401,401,401,401,401,401,401,0,401,401,401,401,
401,401,401,401,401,401,401,401,401,0,0,0,0,0,0,401,401,0,0,0,0,0,401,401,0,0,0,0,0,0,0,0,0,0,401,401,401,401,401,401,401,401,401,401,0,0,0,0,0,0,0,0,0,0,0,0,0,0,0,0,0,0,0,0,0,0,0,0,0,0,0,0,0,0,0,0,0,0,0,0,0,0,0,401,401,401,0,0,0,0,0,0,0,0,0,0,401,401,0,0,0,0,0,0,401,401,401,401,401,401,401,401,0,0,0,0,0,0,0,0,0,0,401,401,0,0,0,0,401,401,0,0,0,0,401,0,0,401,401,401,401,401,401,401,401,401,401,401,401,401,401,401,401,401,401,401,401,401,401,0,401,401,401,401,
401,401,401,401,401,401,401,401,0,0,0,0,0,0,0,401,401,0,0,0,0,0,401,401,401,401,0,0,0,0,0,0,401,401,401,401,401,401,401,401,401,401,401,401,0,0,0,0,0,0,0,0,0,0,0,0,0,0,0,0,0,0,0,0,0,0,401,401,0,0,0,0,401,401,0,0,0,0,0,401,401,401,401,401,401,401,0,0,0,0,0,0,0,0,0,0,0,0,0,0,0,0,0,0,401,401,401,401,0,0,0,0,0,0,0,0,0,0,0,0,0,0,401,401,0,0,0,0,401,401,401,0,0,0,0,0,0,401,401,401,0,0,0,0,0,0,0,0,0,401,401,401,401,401,401,401,401,401,401,0,401,401,401,401,
401,401,401,401,401,401,401,401,0,0,0,0,0,0,0,401,401,401,0,0,0,401,401,401,401,401,0,0,0,0,0,0,401,401,401,401,401,401,401,401,401,401,401,401,0,0,0,0,0,0,0,0,0,0,0,0,0,0,0,0,0,0,0,0,0,0,401,401,0,0,0,0,401,401,0,0,0,0,0,401,401,401,401,401,401,401,401,401,401,401,401,401,401,0,0,0,0,0,0,0,0,0,0,0,401,401,401,401,0,0,0,0,0,0,0,0,0,0,0,0,0,0,0,0,0,0,0,0,401,401,401,0,0,0,0,0,0,401,401,401,0,0,0,0,0,0,0,0,0,401,401,401,401,401,401,401,401,401,401,0,401,401,401,401,
401,401,401,401,401,401,401,0,0,0,0,0,0,0,0,401,401,401,0,0,0,401,401,401,401,401,401,401,401,0,0,0,0,0,401,401,401,401,401,401,401,401,401,401,0,0,0,0,0,0,0,0,0,0,0,0,0,0,0,0,0,0,0,0,0,0,0,0,0,0,0,0,0,0,0,0,0,401,401,401,401,401,401,401,401,401,401,401,401,401,401,401,401,0,0,0,0,0,0,0,0,0,401,401,401,401,401,401,0,0,0,0,0,0,0,0,0,0,0,0,0,401,401,401,0,0,0,0,0,0,0,0,0,0,0,0,0,401,401,401,0,0,0,401,0,0,0,0,0,401,401,401,0,0,0,0,0,0,0,0,401,401,401,401,
401,401,401,401,401,401,401,0,0,0,0,0,0,0,0,401,401,0,0,0,0,401,401,401,401,401,401,401,0,0,0,0,0,0,401,401,401,401,401,401,401,401,401,401,0,0,0,0,0,0,0,0,0,0,0,0,0,0,0,0,0,0,0,0,0,0,0,0,0,0,0,0,0,0,0,0,0,401,401,401,401,401,401,401,401,401,401,401,401,401,401,401,401,401,0,0,0,0,0,0,0,0,401,401,401,401,401,401,0,0,0,0,0,0,0,0,0,0,0,0,0,0,0,0,0,0,0,0,0,0,0,0,0,0,0,0,0,401,401,401,0,0,0,0,0,0,0,401,0,401,401,401,0,401,401,0,0,0,0,0,401,401,401,401,
401,401,401,401,401,401,401,0,401,401,401,0,0,0,0,401,401,0,0,0,401,401,401,401,401,401,401,0,0,0,0,0,0,0,401,401,401,401,401,401,401,401,401,401,0,0,0,0,0,0,0,0,0,0,0,401,401,401,401,0,0,0,0,0,0,0,0,0,0,0,0,0,0,0,0,401,401,401,401,401,401,401,401,401,401,401,401,401,401,401,401,401,401,401,0,0,0,0,0,0,0,0,0,0,0,0,0,0,0,0,0,0,0,0,0,0,0,0,0,0,0,0,0,0,0,0,0,0,0,0,0,0,0,0,0,0,0,401,401,401,0,0,0,0,0,0,0,0,0,401,401,401,0,0,0,0,0,0,0,0,401,401,401,401,
401,401,401,401,401,401,401,0,401,401,401,0,0,0,0,401,401,0,0,0,0,401,401,401,401,401,401,0,0,0,401,0,0,0,401,401,401,401,401,401,401,401,401,401,0,0,0,0,0,0,0,0,0,401,401,401,401,401,401,401,401,0,0,0,0,0,0,0,0,0,0,0,0,0,0,401,401,401,401,401,401,401,401,401,401,401,401,401,401,401,401,401,401,0,0,0,0,401,401,401,0,0,0,0,0,0,0,0,0,0,0,0,401,401,401,401,401,401,0,0,0,0,0,0,0,0,0,0,0,0,0,401,0,0,0,0,0,401,401,401,401,401,0,0,0,0,0,0,0,401,401,401,0,0,0,0,0,0,0,0,401,401,401,401,
401,401,401,401,401,401,401,0,0,0,0,0,0,0,0,401,401,0,0,0,0,401,401,401,401,401,401,0,0,0,0,0,0,0,401,401,401,401,401,401,401,401,401,401,0,0,0,0,0,0,0,0,0,0,0,0,0,0,0,0,0,0,0,0,0,0,0,0,0,0,0,0,0,401,401,401,401,401,401,401,401,401,401,401,401,401,401,401,401,401,401,401,401,0,0,0,0,0,0,0,0,0,0,0,0,0,0,0,0,0,0,0,401,401,401,401,401,401,0,0,0,0,0,0,0,0,0,0,0,0,0,401,0,0,0,0,0,401,401,401,0,0,0,0,401,401,401,0,0,401,401,401,0,0,0,0,0,0,0,0,401,401,401,401,
401,401,401,401,401,401,401,0,0,0,0,0,0,0,0,401,401,401,0,0,0,401,401,401,0,0,0,0,0,0,0,0,401,401,401,401,401,401,401,401,401,401,401,401,401,401,0,0,0,0,0,0,0,0,0,0,0,0,0,0,0,0,0,0,0,0,0,0,0,0,0,0,0,401,401,401,401,401,401,401,401,401,401,401,401,401,401,401,401,401,401,401,401,0,0,0,0,0,0,0,0,0,0,0,0,0,0,0,0,0,0,0,0,0,0,0,401,401,0,0,0,0,0,0,0,0,0,0,0,0,0,401,0,401,0,401,0,401,401,401,0,0,0,0,0,0,0,0,0,401,401,401,0,0,0,0,401,401,401,401,401,401,401,401,
401,401,401,401,401,401,401,0,0,0,0,0,0,0,0,401,401,401,0,0,0,401,401,401,0,0,0,0,0,0,0,0,401,401,401,401,401,401,401,401,401,401,401,401,401,401,0,0,0,0,0,401,401,0,0,0,0,0,0,0,0,0,0,401,401,0,0,0,0,0,0,0,0,401,0,0,0,0,0,0,0,0,0,401,401,401,401,401,401,401,401,401,401,0,0,401,0,0,0,0,0,0,0,0,0,0,0,0,0,0,0,0,0,0,0,0,401,401,401,401,401,401,401,401,401,401,401,401,401,0,0,401,401,401,401,401,401,401,401,401,0,0,0,0,0,0,0,0,0,401,401,401,401,401,0,0,0,401,401,401,401,401,401,401,
401,401,401,401,401,401,401,0,0,0,0,0,0,0,0,0,0,0,0,0,401,401,401,401,0,0,0,0,0,0,0,0,401,401,401,401,401,401,401,401,401,401,401,401,401,401,0,0,0,0,0,0,0,0,0,0,0,0,0,0,0,0,0,401,401,0,0,0,401,401,0,0,0,401,0,0,0,0,0,0,0,0,0,401,401,401,401,401,401,401,401,401,401,0,0,0,0,0,0,0,0,0,0,0,401,401,401,401,401,401,0,0,0,0,0,0,401,401,401,401,401,401,401,401,401,401,401,401,401,0,0,0,0,0,0,0,0,0,0,0,0,0,401,0,0,0,0,0,0,401,401,401,0,0,0,0,0,401,401,401,401,401,401,401,
401,401,401,401,401,401,401,0,0,0,0,0,0,0,0,0,0,0,0,0,401,401,401,401,401,401,401,401,401,401,401,401,401,401,401,401,401,401,401,401,401,401,401,401,401,401,401,401,401,0,0,0,0,0,0,0,0,0,0,0,0,0,0,0,0,0,0,0,401,401,0,0,0,0,0,0,401,401,401,401,0,0,0,401,401,401,401,401,401,401,401,401,401,0,0,0,0,0,0,0,0,0,0,0,401,401,401,401,401,401,0,0,0,0,0,0,401,401,0,0,0,0,0,0,0,0,0,0,0,0,0,0,0,0,0,0,0,0,0,0,0,0,0,0,0,0,0,0,0,401,401,401,0,0,0,0,0,401,401,401,401,401,401,401,
401,401,401,401,401,401,401,0,0,0,0,0,0,0,0,0,0,0,0,0,0,401,401,401,401,401,401,401,401,401,401,401,401,401,401,401,401,401,401,401,401,401,401,401,401,401,401,401,401,401,0,0,0,0,401,401,401,401,401,0,0,0,0,0,0,0,0,0,401,401,0,0,0,0,0,0,0,0,0,0,0,0,0,401,401,401,401,401,401,401,401,401,401,401,401,0,0,0,0,0,0,0,0,0,401,401,401,401,401,401,0,0,0,0,0,0,401,401,0,0,0,0,0,0,0,0,0,0,0,0,0,0,0,0,0,0,0,0,401,401,401,0,0,0,0,401,0,0,0,401,401,401,0,0,0,0,0,401,401,401,401,401,401,401,
401,401,401,401,401,401,401,0,0,0,0,0,0,0,0,0,401,401,0,0,0,0,401,401,401,401,401,401,401,401,401,401,401,401,401,401,401,401,401,401,401,401,401,401,401,401,401,401,401,401,0,0,0,0,401,401,401,401,401,0,0,0,0,0,0,0,0,0,401,401,401,0,0,0,0,0,0,0,0,0,0,0,401,401,401,401,401,401,401,401,401,401,401,401,401,0,0,0,0,0,0,0,0,401,401,401,401,401,0,0,0,0,0,0,0,0,401,401,0,0,0,401,401,401,0,0,0,0,0,0,0,0,0,0,0,0,0,0,401,401,0,0,0,0,0,0,0,0,0,401,401,401,0,0,0,0,0,401,401,401,401,401,401,401,
401,401,401,401,401,401,0,0,0,0,0,0,0,0,0,0,0,0,0,0,0,0,0,0,0,0,0,0,0,0,0,401,401,0,0,0,0,0,0,0,0,0,0,0,0,0,401,401,401,401,0,0,0,0,0,0,0,0,0,0,0,0,0,0,0,0,0,0,401,401,0,0,0,0,0,0,0,0,0,0,0,0,0,401,401,401,401,401,401,401,401,401,401,0,0,0,0,401,401,401,401,0,0,401,401,401,401,401,0,0,0,0,0,0,0,0,401,401,0,0,0,0,0,0,0,0,0,0,0,0,0,0,0,0,0,0,0,0,401,401,0,0,0,0,0,0,0,0,0,401,401,401,0,0,0,0,401,401,401,401,401,401,401,401,
401,401,401,401,401,0,0,0,0,0,0,0,0,0,0,0,0,0,0,0,0,0,0,0,0,401,401,401,401,401,0,401,401,0,0,0,0,0,0,0,0,0,0,0,0,0,401,401,401,401,401,401,0,0,0,0,0,0,0,0,0,0,0,0,0,0,0,0,401,401,0,0,0,0,0,0,0,0,0,0,0,0,0,401,401,401,401,401,401,401,401,401,401,0,0,0,0,0,0,0,0,0,0,401,401,401,401,401,0,0,401,401,401,401,0,0,401,401,401,0,0,0,0,0,0,0,0,0,0,0,0,401,401,401,401,401,401,401,401,401,0,0,0,0,0,0,0,0,0,0,0,0,0,0,0,0,0,0,0,0,401,401,401,401,
401,401,401,401,401,0,0,0,0,0,0,401,401,401,401,401,401,401,401,401,401,0,0,0,0,401,401,401,401,401,0,0,0,0,0,0,0,0,0,0,0,0,0,0,0,0,401,401,401,401,401,401,0,0,0,0,0,0,0,0,0,0,0,0,0,0,0,0,401,401,401,401,401,0,0,401,0,0,0,0,401,0,0,401,401,401,401,401,401,401,401,401,401,0,0,0,0,0,0,0,0,0,401,401,401,401,401,401,0,0,401,401,401,401,0,0,401,401,0,0,0,0,0,401,401,401,401,401,401,0,0,401,401,401,401,401,401,401,401,401,0,0,0,0,0,0,0,0,0,0,0,0,0,0,0,0,0,0,0,0,401,401,401,401,
401,401,401,401,401,0,0,0,0,0,401,401,401,401,401,401,401,401,401,0,0,0,0,0,0,401,401,401,401,401,401,401,401,0,0,0,0,0,0,0,0,0,0,0,0,0,401,401,401,401,401,401,0,0,0,0,0,0,0,0,0,0,0,0,0,0,0,0,401,401,401,401,401,0,0,0,0,0,0,0,0,0,0,401,401,401,401,401,401,401,401,401,401,0,0,0,0,0,0,0,0,0,401,401,401,401,401,401,0,0,0,0,0,0,0,0,401,401,0,0,0,0,0,0,0,0,0,0,0,0,0,0,0,0,0,0,401,401,401,401,0,0,0,0,401,0,0,0,0,0,401,401,401,0,0,0,0,401,401,0,401,401,401,401,
401,401,401,401,401,0,0,0,401,401,401,401,401,401,401,401,401,0,0,0,0,0,401,401,401,401,401,401,401,401,401,401,401,0,0,0,0,0,0,0,0,0,0,0,0,0,401,401,401,401,401,401,401,401,401,401,0,0,0,0,0,0,0,0,0,0,0,0,401,401,401,401,401,401,401,401,401,401,401,401,401,401,401,401,401,401,401,401,401,401,401,401,401,0,0,0,0,0,0,0,401,401,401,401,401,401,401,401,0,0,0,0,0,0,0,0,401,401,0,0,0,0,0,0,0,0,0,0,0,0,0,0,0,0,0,0,401,401,401,401,0,0,0,0,0,0,0,401,401,0,401,401,401,0,0,0,401,401,401,0,401,401,401,401,
401,401,401,401,401,0,0,0,401,401,401,401,401,401,401,401,401,0,0,0,0,401,401,401,401,401,401,401,401,401,401,401,401,401,401,401,401,401,401,401,401,401,401,401,401,401,401,401,401,401,401,401,401,401,401,401,0,0,0,0,401,401,0,0,0,0,0,0,401,401,401,401,401,401,401,401,401,401,401,401,401,401,401,401,401,401,401,401,401,401,401,401,401,0,0,0,0,0,0,0,401,401,401,401,401,401,401,401,0,0,0,0,0,0,0,0,401,401,0,0,0,0,0,0,0,0,0,0,0,0,0,0,0,0,0,0,401,401,401,401,0,0,0,0,0,0,0,0,0,0,401,401,401,0,0,0,0,401,401,0,401,401,401,401,
401,401,401,401,401,0,0,0,401,401,401,401,401,401,401,401,401,0,0,0,0,401,401,401,401,401,401,401,401,401,401,401,401,401,401,401,401,401,401,401,401,401,401,401,401,401,401,401,401,401,401,401,401,401,401,401,0,0,0,0,401,401,401,0,0,0,0,0,0,0,0,0,0,0,0,0,0,0,401,401,401,0,0,0,0,0,0,0,0,0,0,0,0,0,0,0,401,401,0,0,401,401,401,401,401,401,401,401,401,401,401,401,401,401,401,401,401,401,0,0,0,0,0,0,0,0,0,0,0,0,0,0,401,401,401,401,401,401,401,401,0,0,0,0,0,0,0,0,0,0,401,401,401,0,0,0,0,401,401,0,401,401,401,401,
401,401,401,401,401,401,0,0,0,0,0,0,401,401,401,401,401,0,0,0,0,0,0,0,0,0,0,0,0,0,0,0,0,0,0,0,0,0,0,0,0,0,0,0,0,0,0,0,0,0,0,0,0,0,0,0,0,0,0,401,401,401,401,0,0,0,0,0,0,0,0,0,0,0,0,0,0,0,401,401,401,0,0,0,0,0,0,0,0,0,0,0,0,0,0,0,401,401,401,401,401,401,401,401,401,401,401,401,401,401,401,401,401,401,401,401,401,401,401,401,401,401,401,401,401,401,401,401,401,401,401,401,401,401,401,401,401,401,401,401,401,401,401,401,401,401,401,401,401,401,401,401,401,0,0,0,0,401,401,0,401,401,401,401,
401,401,401,401,401,401,0,0,0,0,0,0,401,401,401,401,401,401,0,0,0,0,0,0,0,0,0,0,0,0,0,0,0,0,0,0,0,0,0,0,0,0,0,0,0,0,0,0,0,0,0,0,0,0,0,0,0,0,0,0,401,401,401,0,0,0,401,0,0,0,0,0,0,0,0,0,0,0,0,0,0,0,0,0,401,401,401,0,0,0,0,0,0,0,401,401,401,401,401,401,401,401,401,401,401,401,401,401,401,401,401,401,401,401,401,401,401,401,401,401,401,401,401,401,401,401,401,401,401,401,401,401,401,401,401,401,401,0,401,401,401,401,401,401,401,401,401,401,401,0,401,401,401,0,0,0,0,401,401,0,401,401,401,401,
401,401,401,401,401,0,0,0,0,0,0,0,401,401,401,401,401,0,0,0,0,0,0,0,0,0,0,0,0,0,0,0,0,0,0,0,0,0,0,0,0,0,0,0,0,0,0,0,0,0,0,0,0,0,0,0,0,0,0,0,401,401,401,0,0,0,0,0,0,0,0,0,0,0,0,0,0,0,0,0,0,0,0,0,401,401,401,401,0,0,0,0,0,0,401,401,401,401,401,401,401,401,401,401,401,401,401,401,401,401,401,401,401,401,401,401,401,401,401,401,401,401,401,401,401,401,401,401,401,401,401,401,401,401,401,401,401,401,401,401,401,401,401,401,401,401,401,401,401,401,401,401,401,401,0,0,0,401,401,0,401,401,401,401,
401,401,401,401,401,0,401,0,0,0,0,0,401,401,401,401,401,0,0,0,0,0,0,0,0,0,0,0,0,0,0,0,0,0,0,0,0,0,0,0,0,0,0,0,0,0,0,0,0,0,0,0,0,0,0,0,0,401,401,401,401,401,401,401,0,0,0,0,0,0,0,0,0,0,0,401,401,401,401,401,401,401,401,401,401,401,401,401,401,401,401,401,401,401,401,401,401,401,401,401,401,401,401,401,401,401,401,401,401,401,401,401,401,401,401,401,401,401,401,401,401,401,401,401,401,401,401,401,401,401,401,0,0,0,0,0,401,401,0,0,0,0,0,0,0,0,0,0,0,401,401,401,401,0,0,0,0,401,401,0,401,401,401,401,
401,401,401,401,401,0,0,0,0,0,0,0,401,401,401,401,401,401,0,401,401,401,0,0,0,0,0,0,0,0,0,0,0,0,0,0,0,0,401,401,0,0,0,0,0,0,0,0,0,0,0,0,0,0,0,0,0,401,401,401,401,401,401,401,0,0,0,0,0,0,0,0,0,0,0,401,401,401,401,401,401,401,401,401,401,401,401,401,401,401,401,401,401,401,401,401,401,401,401,401,401,401,401,401,401,401,401,401,401,401,401,401,401,401,401,401,401,401,401,401,401,401,401,401,401,401,401,401,401,401,0,0,0,0,0,0,0,0,0,0,0,0,0,0,0,0,0,0,0,0,401,401,401,401,401,401,401,401,401,0,401,401,401,401,
401,401,401,401,401,0,0,0,0,0,0,0,401,401,401,401,401,0,0,0,0,0,0,0,0,0,401,401,0,0,0,0,0,0,0,0,0,0,0,0,0,0,0,0,0,0,0,0,0,0,0,0,0,0,0,0,0,0,0,0,0,0,0,0,0,0,0,0,0,0,0,0,0,0,0,401,401,401,401,401,401,401,401,401,401,401,401,401,401,401,401,401,401,401,401,401,401,401,401,401,401,401,401,401,401,401,401,401,401,401,401,401,401,401,401,401,401,401,401,401,401,401,401,401,401,401,401,401,401,401,0,0,0,0,0,0,0,0,0,0,0,0,0,0,0,0,0,0,0,0,401,401,401,401,401,401,401,401,401,0,401,401,401,401,
401,401,401,401,401,0,0,0,401,401,401,0,401,401,401,401,401,0,0,0,0,0,0,0,0,0,0,0,0,0,0,0,0,0,0,0,0,0,0,0,0,0,0,0,0,401,401,401,0,0,0,0,0,401,401,401,0,0,0,0,0,0,0,0,0,0,401,401,401,0,0,0,0,401,401,401,401,401,401,401,401,401,401,401,401,401,401,401,401,401,401,401,401,401,401,401,401,401,401,401,401,401,401,401,401,401,401,401,401,401,401,0,0,0,0,0,0,0,0,0,0,401,401,401,401,401,401,401,401,401,0,0,0,0,0,0,0,0,0,0,0,0,0,0,0,0,0,0,0,0,0,0,0,0,0,0,0,0,0,0,401,401,401,401,
401,401,401,401,401,401,401,0,0,0,0,0,401,401,401,401,401,401,0,0,0,0,0,0,0,0,0,0,0,0,0,0,401,401,0,0,0,0,0,0,0,0,0,0,0,0,0,0,0,0,0,0,0,0,0,0,0,0,0,0,0,0,0,0,0,0,0,0,0,0,0,0,0,401,401,401,401,401,401,401,401,401,401,401,401,401,401,401,401,401,401,401,401,401,401,401,401,401,401,401,401,401,401,401,401,401,401,401,401,401,0,0,0,0,0,0,0,0,0,0,0,0,401,401,401,401,401,401,401,401,0,0,0,0,0,0,0,0,0,0,0,0,0,0,0,0,0,0,0,0,0,0,0,0,0,0,0,0,0,0,401,401,401,401,
401,401,401,401,401,401,401,0,0,0,0,0,401,401,401,401,401,0,0,0,0,0,0,0,0,0,0,0,0,0,0,0,0,0,0,0,0,0,0,0,0,0,0,0,0,0,0,0,0,0,0,0,0,0,0,0,0,0,0,0,0,0,0,0,0,0,0,0,0,0,0,0,0,401,401,401,401,401,401,401,401,401,401,401,401,401,401,401,401,401,401,401,401,401,401,401,401,401,401,401,401,401,401,401,401,401,401,401,401,401,0,0,0,0,0,0,0,0,0,0,0,0,0,0,0,0,0,0,0,0,0,0,401,401,401,0,0,0,0,0,0,0,0,0,0,0,0,0,0,0,0,0,0,0,0,0,0,0,0,0,401,401,401,401,
401,401,401,401,401,401,401,401,401,401,401,401,401,401,401,401,401,401,401,401,401,401,401,401,401,401,401,401,401,401,401,401,401,401,401,401,401,401,401,401,401,401,401,401,401,401,401,401,401,401,401,401,401,401,401,401,401,401,401,401,401,401,401,401,401,401,401,401,401,401,401,401,401,401,401,401,401,401,401,401,401,401,401,401,401,401,401,401,401,401,401,401,401,401,401,401,401,401,401,401,401,401,401,401,401,401,401,401,401,401,401,401,401,401,401,401,401,401,401,401,401,401,401,401,401,401,401,401,401,401,401,401,401,401,401,401,401,401,401,401,401,401,401,401,401,401,401,401,401,401,401,401,401,401,401,401,401,401,401,401,401,401,401,401,
401,401,401,401,401,401,401,401,401,401,401,401,401,401,401,401,401,401,401,401,401,401,401,401,401,401,401,401,401,401,401,401,401,401,401,401,401,401,401,401,401,401,401,401,401,401,401,401,401,401,401,401,401,401,401,401,401,401,401,401,401,401,401,401,401,401,401,401,401,401,401,401,401,401,401,401,401,401,401,401,401,401,401,401,401,401,401,401,401,401,401,401,401,401,401,401,401,401,401,401,401,401,401,401,401,401,401,401,401,401,401,401,401,401,401,401,401,401,401,401,401,401,401,401,401,401,401,401,401,401,401,401,401,401,401,401,401,401,401,401,401,401,401,401,401,401,401,401,401,401,401,401,401,401,401,401,401,401,401,401,401,401,401,401
</data>
 </layer>
 <layer id="10" name="Base-Layer" width="164" height="120">
  <data encoding="csv">
0,0,757,0,0,0,0,0,0,0,0,0,0,0,0,0,0,0,0,0,0,0,0,0,0,0,0,0,0,0,0,805,800,801,802,800,801,802,800,801,802,800,801,802,800,801,800,801,802,807,0,0,0,0,0,0,0,0,0,0,0,0,0,0,0,0,0,0,0,0,0,0,0,0,0,0,0,0,0,0,2684355593,10,10,10,10,10,10,10,10,10,10,10,536871945,0,0,0,0,0,0,237,238,0,0,0,236,237,0,0,0,0,0,0,0,0,0,0,0,0,0,0,237,672,237,237,237,237,237,237,671,237,237,237,672,672,671,237,237,672,237,237,237,671,672,237,237,237,237,237,237,237,237,237,237,237,237,237,0,0,0,0,0,0,0,0,
0,0,0,824,248,0,0,0,0,0,0,0,0,0,0,0,0,0,0,0,0,0,0,0,0,0,0,0,805,801,802,803,755,0,0,773,755,773,755,0,0,0,755,773,755,773,0,0,755,799,800,801,807,0,0,0,0,0,0,0,0,0,0,0,0,0,0,0,0,0,0,0,0,0,0,0,0,0,0,0,2684355593,30,30,30,30,30,30,30,30,30,30,30,536871945,0,0,0,0,595,673,0,0,0,0,0,0,0,236,595,0,0,0,0,0,0,237,671,237,671,237,238,0,0,0,0,0,0,0,0,0,0,0,0,0,0,0,0,0,0,0,0,0,0,0,0,0,0,0,0,0,0,0,0,0,0,0,0,236,0,0,0,0,0,0,0,
97,752,752,0,0,0,0,0,0,0,0,0,0,0,0,0,0,0,0,0,0,0,0,0,0,805,801,802,803,755,0,0,755,0,0,0,755,0,773,0,0,0,773,0,755,0,0,0,755,0,0,755,799,800,801,807,0,0,0,0,0,0,0,0,0,0,0,0,0,0,0,0,0,0,0,0,0,0,0,0,2684355593,50,50,50,50,50,50,50,50,50,50,50,536871945,0,0,0,0,218,0,0,0,0,0,0,0,0,0,216,0,0,0,0,237,673,0,0,0,0,0,0,0,0,0,0,0,0,0,0,0,0,0,0,0,0,0,0,0,0,0,0,0,0,0,0,0,0,0,0,0,0,0,0,0,0,0,0,0,216,0,0,0,0,0,0,
0,875,875,0,0,0,0,0,0,0,0,0,0,0,0,0,0,0,0,0,0,0,0,805,802,803,0,0,755,755,0,0,773,0,0,0,773,0,0,0,0,0,0,0,773,0,0,0,773,0,0,755,755,0,0,799,800,807,0,0,0,0,0,0,0,0,0,0,805,800,801,802,800,801,800,801,802,807,0,0,2684355593,70,70,70,70,70,70,70,70,70,70,70,536871945,0,0,0,595,218,0,0,0,0,0,0,0,0,0,216,0,0,0,238,0,0,0,0,0,0,0,0,0,0,0,0,0,0,0,0,0,0,0,0,0,0,0,0,0,0,0,0,0,0,0,0,0,0,0,0,0,0,0,0,0,0,0,0,0,216,0,0,0,0,0,0,
0,0,0,0,0,0,0,0,0,0,0,0,0,0,0,0,0,0,0,0,0,0,805,803,0,0,0,0,773,773,0,0,0,0,0,0,0,0,0,0,0,0,0,0,0,0,0,0,0,0,0,773,773,0,0,0,0,799,807,0,0,0,0,0,0,0,0,805,803,0,0,0,0,0,0,0,0,799,807,0,2684355594,90,90,90,90,90,90,90,90,90,90,90,536871946,0,0,0,0,218,0,0,0,0,0,0,0,0,0,236,237,237,238,0,0,0,0,0,0,0,0,0,0,0,0,0,0,0,0,0,0,0,0,0,0,0,0,0,0,0,0,0,0,0,0,0,0,0,0,0,0,0,0,0,0,0,0,0,0,216,0,0,0,0,0,0,
0,0,0,0,0,0,0,0,0,0,0,0,0,0,0,0,0,0,0,0,0,0,749,0,0,0,0,0,0,0,0,0,0,0,0,0,0,0,0,0,0,0,0,0,0,0,0,0,0,0,0,0,0,0,0,0,0,0,799,800,801,802,801,802,800,801,802,803,0,0,0,0,0,0,0,0,0,0,781,0,2684355594,110,110,110,110,110,110,110,110,110,110,110,536871946,0,0,0,0,218,0,0,0,0,0,0,0,0,0,0,0,0,0,0,0,0,0,0,0,0,0,0,0,0,0,0,0,0,0,0,0,0,0,0,0,0,0,0,0,0,0,0,0,0,0,0,0,0,0,0,0,0,0,0,0,0,0,0,0,236,0,0,0,0,0,0,
0,0,0,0,0,0,0,0,0,0,0,0,0,0,0,0,0,0,0,0,0,0,767,0,0,0,0,0,0,0,0,0,0,0,0,0,0,0,0,0,0,0,0,0,0,0,0,0,0,0,0,0,0,0,0,0,0,0,0,0,0,0,0,0,0,0,0,0,0,0,0,0,0,0,0,0,0,0,745,0,2684355594,0,0,0,0,0,0,0,0,0,0,0,536871946,0,0,0,0,0,197,197,619,618,619,618,197,620,197,197,197,197,197,197,197,197,197,197,197,197,197,197,198,0,0,0,0,0,0,0,0,0,0,0,0,0,0,0,0,0,0,0,0,0,0,0,0,0,0,0,0,0,0,0,0,0,0,0,0,0,236,0,0,0,0,0,
0,0,0,0,0,0,0,0,0,0,0,0,0,0,0,0,0,0,0,0,0,0,785,0,0,0,0,0,0,0,0,0,0,0,0,0,0,727,729,730,728,729,730,731,0,0,0,0,0,0,0,0,0,0,0,0,0,0,0,0,0,0,0,0,0,0,0,0,0,0,0,0,0,0,0,0,0,0,763,0,3758097418,0,0,0,0,0,0,0,0,0,0,0,1610613770,0,0,0,0,0,0,0,0,0,0,0,0,0,0,0,0,0,0,0,0,0,0,0,0,0,0,0,218,0,0,0,0,0,0,0,0,0,0,0,0,0,0,0,0,0,0,0,0,0,0,0,0,0,0,0,0,0,0,0,0,0,0,0,0,0,0,216,0,0,0,0,
0,0,0,0,0,0,0,0,0,0,0,0,0,0,0,0,0,0,0,0,0,0,749,0,0,0,0,0,0,0,0,0,0,0,0,727,728,843,841,842,842,842,843,841,730,731,0,0,0,0,0,0,0,0,0,0,0,0,0,0,0,727,809,810,811,812,813,731,0,0,0,0,0,0,0,0,0,0,781,0,3758097418,0,0,0,0,0,0,0,0,0,0,0,1610613770,0,0,0,0,0,0,0,0,0,0,0,0,0,0,0,0,0,0,0,0,0,0,0,0,0,0,697,698,699,0,0,0,0,0,0,0,0,0,0,0,0,0,0,0,0,0,0,0,0,0,0,0,0,0,0,0,0,0,0,0,0,0,0,0,0,0,216,0,0,0,0,
0,0,0,0,0,0,0,0,0,0,0,0,0,0,0,0,0,0,0,0,0,0,767,0,0,0,0,0,0,0,0,0,0,0,0,745,746,0,0,0,0,0,0,0,748,749,0,0,0,0,0,0,0,0,0,0,0,0,727,728,729,843,0,0,0,0,0,841,812,813,812,813,812,813,731,0,0,727,843,0,3758097418,0,0,0,0,0,0,0,0,0,0,0,1610613770,0,0,0,0,0,0,0,0,0,0,0,0,0,0,0,0,0,0,0,0,0,0,0,0,0,0,634,0,0,0,0,0,0,0,0,0,0,0,0,0,0,0,0,0,0,0,0,0,0,0,0,0,0,0,0,0,0,0,0,0,0,0,0,0,0,0,216,0,0,0,0,
0,0,0,0,0,0,0,0,0,0,0,0,0,0,0,0,0,0,0,0,0,0,785,0,0,0,0,0,0,0,0,0,0,0,0,763,806,806,807,0,0,0,805,806,806,767,0,0,0,0,0,0,0,0,0,0,0,0,745,746,747,0,0,0,0,0,805,800,801,802,800,801,802,802,803,0,811,799,807,0,3758097418,0,0,0,0,0,0,0,0,0,0,0,536871948,0,0,0,237,670,671,672,670,671,672,670,671,672,237,0,0,0,0,0,0,0,0,0,0,0,0,647,0,0,0,617,618,197,197,197,197,197,697,698,699,197,197,197,197,197,197,197,697,698,699,197,197,197,197,197,197,197,697,698,699,198,0,0,0,0,0,216,0,0,0,0,
0,0,0,0,0,0,0,0,0,0,0,0,0,0,0,0,0,0,0,0,0,805,803,0,824,824,0,0,0,0,0,0,810,811,812,824,824,824,807,0,0,0,805,824,824,824,810,811,812,0,0,0,0,0,0,824,824,0,799,807,765,0,0,0,0,0,749,0,0,0,0,0,0,0,0,0,0,0,763,0,3758097418,0,0,0,0,0,0,0,0,0,0,0,536871948,0,0,218,0,0,0,0,0,0,0,0,0,0,0,236,0,0,0,0,657,658,659,657,658,659,0,660,0,0,0,630,631,0,0,0,0,0,0,0,0,0,0,0,0,0,0,0,0,0,0,0,0,0,0,0,0,0,0,0,0,0,620,621,0,0,0,643,0,0,0,0,
0,0,0,0,0,0,0,0,0,0,0,0,0,0,0,0,0,0,0,0,805,803,0,0,0,824,824,0,0,0,0,0,0,0,0,0,0,0,799,807,0,805,803,0,0,0,0,0,0,0,0,0,0,0,824,824,0,0,0,799,807,0,0,0,0,805,767,0,0,0,0,0,0,0,0,0,0,0,781,0,3758097418,0,0,0,0,0,0,0,0,0,0,0,536871948,0,0,634,0,0,0,0,0,0,0,0,0,0,0,0,236,0,0,0,670,671,672,670,671,672,0,697,698,699,0,643,644,0,0,0,0,0,0,0,0,0,0,0,0,0,0,0,0,0,0,0,0,0,0,0,0,0,0,672,237,671,671,673,0,0,0,216,0,0,0,0,
0,0,0,0,0,0,0,0,0,0,0,0,0,0,0,0,0,0,0,0,749,0,0,0,0,0,824,0,0,0,0,0,0,0,0,0,0,0,0,763,0,767,0,0,0,0,0,0,0,0,0,0,0,0,824,0,0,0,0,0,745,0,0,0,0,823,824,0,0,0,0,808,808,809,810,811,812,813,843,0,3758097418,0,0,0,0,0,0,0,0,0,0,0,536871948,0,0,647,0,0,0,0,0,0,0,0,0,0,0,0,0,216,633,634,297,298,0,0,0,297,630,0,660,0,0,216,0,0,0,237,237,237,237,237,237,237,237,237,237,237,237,237,237,237,237,237,237,237,237,237,237,237,238,0,0,0,0,697,699,0,0,630,0,594,0,0,
0,0,0,0,0,0,0,0,0,0,0,0,0,0,0,0,0,0,0,0,749,0,0,259,0,0,0,0,0,0,0,0,0,0,0,0,0,0,0,781,0,785,0,0,0,0,0,0,0,0,0,0,0,0,0,0,0,259,0,0,745,0,0,0,0,823,824,0,0,0,0,0,824,824,824,801,801,801,807,0,2684355596,0,0,0,0,0,0,0,0,0,0,0,216,0,0,697,698,698,698,698,699,0,0,0,0,0,0,0,0,643,646,647,0,0,0,0,0,0,643,0,673,0,0,236,0,0,238,0,0,0,0,0,0,0,0,0,0,0,0,0,0,0,0,0,0,0,0,0,0,0,0,0,0,0,0,0,0,0,0,643,595,0,0,0,
0,0,0,0,0,0,0,0,0,0,0,0,0,0,0,0,0,0,0,0,767,0,0,0,0,0,0,0,0,0,0,0,0,0,0,0,0,0,0,799,801,803,0,0,0,0,0,0,0,0,0,0,0,0,0,0,0,0,0,0,763,0,0,0,0,823,824,0,0,0,0,0,824,824,824,0,0,0,745,0,2684355596,0,0,0,0,0,0,0,0,0,0,0,216,0,0,0,0,238,0,0,0,0,0,0,0,0,0,0,0,216,659,660,0,0,0,0,0,0,656,660,0,0,0,0,216,238,0,0,0,0,0,0,0,0,0,0,0,0,0,0,0,0,0,0,0,0,0,0,0,0,0,0,0,0,0,0,0,0,0,656,0,0,0,0,
0,0,0,0,0,0,0,0,0,0,0,0,0,0,0,0,0,0,0,0,785,0,0,0,0,0,0,0,0,0,0,0,0,0,0,0,0,0,0,0,0,0,0,0,0,0,0,0,0,0,0,0,0,0,0,0,0,0,0,0,781,0,0,0,0,823,824,0,811,812,0,0,0,824,0,0,0,0,763,0,218,0,0,0,0,0,0,0,0,0,0,0,216,0,0,0,238,0,0,0,0,0,0,0,0,697,698,699,197,0,296,660,0,0,0,0,0,0,669,673,0,0,0,0,1610612993,0,0,0,0,0,0,0,0,0,0,0,0,0,0,0,0,0,0,0,0,0,0,0,0,0,0,0,0,0,0,0,0,0,697,699,0,0,0,0,
0,0,0,0,0,0,0,0,0,0,0,0,0,0,0,0,0,0,0,0,841,810,811,731,810,811,812,0,0,0,0,0,0,0,0,0,0,0,0,0,0,0,0,0,0,0,0,0,0,0,0,0,0,0,810,811,812,727,729,730,843,0,0,0,0,841,749,0,0,0,0,0,0,0,0,0,0,0,781,0,218,0,0,0,0,0,0,0,0,0,0,0,216,0,0,238,0,0,0,0,0,0,0,0,697,698,699,237,237,237,672,673,0,0,617,621,0,0,0,0,0,0,0,0,1610612992,0,0,0,697,698,698,698,698,698,698,698,698,698,698,698,698,698,699,0,0,0,0,0,0,0,0,0,0,0,0,0,0,0,216,595,0,0,0,0,
0,0,0,0,0,0,0,0,0,0,0,0,0,0,0,0,0,0,0,0,0,805,801,803,0,0,0,0,0,0,0,0,0,0,0,0,0,0,0,0,0,0,0,0,0,0,0,0,0,0,0,0,0,0,0,0,0,799,801,807,0,0,0,0,0,0,767,0,0,0,0,0,0,0,0,0,0,0,745,0,218,0,0,0,0,0,0,0,0,0,0,0,216,0,634,0,0,0,0,0,0,0,0,0,0,0,0,0,0,0,0,0,0,0,630,647,0,0,0,0,0,0,0,0,0,0,0,0,0,0,0,0,0,0,0,0,0,0,0,0,0,0,0,0,697,698,698,698,699,0,0,0,0,0,0,0,0,0,216,0,0,0,0,0,
0,0,0,0,0,0,0,0,0,0,0,0,0,0,0,0,0,0,0,0,805,803,0,0,0,0,0,0,0,0,0,0,810,811,812,0,0,0,0,727,729,731,0,0,0,0,810,811,812,0,0,0,0,0,0,0,0,0,0,799,807,0,0,0,0,0,785,0,0,0,0,824,811,812,813,0,0,0,745,0,218,0,0,0,0,0,0,0,0,0,0,0,216,0,647,0,0,0,0,0,0,0,0,0,0,0,0,0,0,0,0,0,0,0,656,647,695,0,0,0,0,0,0,0,0,0,0,0,0,0,0,0,0,0,0,0,0,0,0,0,0,0,0,0,0,0,0,0,0,0,697,698,699,0,0,0,0,697,699,0,0,0,0,0,
0,0,0,0,0,805,800,801,802,800,801,802,802,807,0,0,0,0,0,0,749,0,0,0,0,0,0,0,0,0,0,0,0,0,0,0,0,0,0,745,0,749,0,0,0,0,0,0,0,0,0,0,0,0,0,0,0,0,0,0,763,0,0,0,0,0,785,0,0,0,0,824,0,0,0,0,0,0,763,0,218,0,0,0,0,0,0,0,0,0,0,0,216,0,660,0,0,0,0,697,698,699,0,0,0,0,0,0,0,0,0,0,0,0,669,670,618,619,618,619,620,618,619,618,619,620,621,0,0,0,0,0,0,0,0,0,0,0,0,0,0,0,0,0,0,0,0,0,0,0,0,0,0,0,0,0,0,630,0,0,0,0,0,0,
0,0,0,0,805,803,0,0,0,0,0,0,0,799,807,0,0,0,0,0,767,0,0,0,0,0,0,0,0,0,0,0,0,0,0,0,0,0,0,763,806,767,0,0,0,0,0,0,0,0,0,0,0,0,0,0,0,0,0,0,781,0,0,0,0,805,803,0,0,0,0,824,0,0,0,0,0,0,781,0,218,0,0,0,0,0,0,0,0,0,0,0,216,0,218,0,0,0,0,0,0,0,0,0,0,0,0,0,0,0,0,0,0,0,0,0,656,657,0,644,670,671,670,671,672,0,634,0,0,0,0,0,0,0,0,0,0,0,0,0,0,0,0,0,0,0,0,0,0,0,0,0,0,0,0,0,0,643,594,0,0,0,0,0,
0,0,0,0,749,0,0,0,0,0,0,0,0,0,781,0,0,0,0,0,785,0,0,0,0,0,0,0,0,0,0,0,0,0,0,0,0,0,727,824,824,824,731,0,0,0,0,0,0,0,0,0,0,0,0,0,0,0,0,0,781,782,0,0,0,785,0,0,0,0,0,824,0,0,0,0,0,811,745,0,218,0,0,0,0,0,0,0,0,0,0,0,216,0,647,0,0,0,0,0,0,0,0,0,0,0,0,0,0,0,0,0,0,0,0,0,669,645,0,634,295,0,0,0,297,643,647,695,0,0,0,0,0,0,0,0,0,0,0,0,0,0,0,0,0,0,0,0,0,0,0,0,0,0,0,0,0,669,0,0,0,0,0,0,
0,0,0,0,767,0,0,0,0,0,0,0,0,0,799,800,801,800,801,802,803,0,0,0,0,0,0,0,0,0,0,0,0,0,0,0,0,0,841,842,842,842,843,0,0,0,0,0,0,0,0,0,0,0,0,0,0,0,0,0,799,800,800,801,802,803,0,0,0,0,0,824,0,0,0,0,0,0,763,0,218,0,0,0,0,0,0,0,0,0,0,0,216,0,218,0,0,0,0,0,0,0,0,0,0,0,617,618,621,0,0,0,0,0,0,0,0,656,0,647,695,299,300,0,0,656,0,197,197,197,197,197,197,197,198,0,0,0,0,0,0,2684354816,0,0,0,0,0,0,0,0,0,0,0,0,0,0,0,0,236,0,0,0,0,0,
0,0,0,0,785,0,0,0,0,0,0,0,0,0,0,0,0,0,0,0,0,0,0,0,0,0,0,0,0,0,0,0,0,0,0,811,0,0,0,0,0,0,0,0,0,811,0,0,0,0,0,0,0,0,0,0,0,0,0,0,0,0,0,0,0,0,0,0,0,0,0,763,729,730,731,0,0,0,781,0,218,0,0,0,0,0,0,0,0,0,0,0,216,0,634,0,0,0,0,0,0,0,0,0,0,0,630,296,634,0,0,0,0,0,0,0,0,669,0,645,619,620,618,619,620,0,237,237,237,237,237,237,237,237,237,257,257,257,197,197,197,218,0,0,0,0,0,2684354816,0,0,0,0,0,0,0,0,0,0,0,630,0,0,0,0,
0,0,0,0,767,0,0,810,811,812,813,814,0,0,0,0,0,0,0,0,0,0,0,0,0,0,0,0,0,0,0,0,0,0,0,0,0,0,0,0,0,0,0,0,0,0,0,0,0,0,0,0,0,0,0,0,0,0,0,0,0,0,0,0,0,0,0,0,0,0,0,799,800,801,803,0,0,0,781,0,218,0,0,0,0,0,0,0,0,0,0,0,216,0,647,0,0,0,0,0,0,0,0,0,0,0,643,644,647,0,0,0,0,0,0,0,0,669,670,671,672,670,671,671,672,673,0,0,0,0,0,0,0,0,0,0,0,0,236,237,237,237,257,257,197,197,197,218,0,0,0,0,0,2684354816,0,0,0,0,0,643,0,0,0,0,
0,0,0,0,785,0,0,0,0,0,0,0,0,0,811,727,809,810,811,812,730,731,0,0,0,0,0,0,0,0,0,0,0,0,0,0,0,0,0,0,0,0,0,0,0,0,0,0,0,0,0,0,0,0,0,0,0,0,0,727,728,810,811,812,730,811,0,0,0,0,0,0,0,0,0,0,0,727,843,0,218,0,0,0,0,0,0,0,0,0,0,0,216,0,660,0,0,0,0,0,0,617,618,619,620,197,0,0,0,197,620,621,0,0,0,0,0,0,0,0,0,0,0,0,0,0,0,0,0,0,0,0,0,0,0,0,0,0,0,0,0,0,0,0,236,237,237,237,257,257,257,257,257,238,0,0,0,0,0,656,0,0,0,0,
0,0,0,0,749,0,0,0,0,0,0,0,0,0,0,763,0,0,0,0,0,841,731,0,0,0,0,0,0,824,824,824,824,824,0,0,0,0,0,0,0,0,0,0,0,0,0,824,824,824,824,824,0,0,0,0,0,0,727,843,0,0,0,0,785,0,0,0,0,0,0,0,0,0,0,0,0,763,0,0,218,0,0,0,0,0,0,0,0,0,0,0,216,0,218,0,0,0,0,0,0,669,670,671,672,670,671,672,670,671,672,673,0,0,0,0,0,0,0,0,0,0,0,0,0,0,0,0,0,0,0,0,0,0,0,0,0,0,0,0,0,0,0,0,0,0,0,0,0,0,0,0,0,0,0,0,0,697,698,699,0,0,0,0,
0,0,0,0,767,824,824,824,824,0,0,0,0,0,0,799,807,0,0,0,0,0,749,0,0,0,0,0,0,823,824,824,824,843,0,0,0,0,0,0,0,0,0,0,0,0,0,823,824,824,824,825,0,0,0,0,0,0,745,0,0,0,0,805,803,0,0,0,0,0,0,727,809,810,811,812,813,843,0,0,218,0,0,0,0,0,0,0,0,0,0,0,216,0,218,0,0,0,0,0,0,0,0,0,0,0,0,0,0,0,0,0,0,0,0,0,617,618,618,619,618,619,620,618,619,620,620,621,0,0,0,0,0,0,0,0,0,0,0,0,0,0,0,0,0,0,0,0,0,0,0,0,0,0,0,0,695,216,0,0,0,0,0,0,
0,0,0,0,785,824,824,824,824,0,0,0,0,0,0,0,799,807,0,0,0,0,767,0,0,0,0,0,0,841,842,842,843,0,0,0,0,0,0,0,0,0,0,0,0,0,0,841,842,842,842,843,0,0,0,0,0,0,763,0,0,0,805,803,0,0,0,0,0,0,0,236,801,802,237,237,801,237,0,0,218,0,0,0,0,0,0,0,0,0,0,0,216,0,0,620,621,0,0,0,0,0,0,0,0,0,0,0,0,0,0,0,0,0,0,0,630,657,658,657,658,659,633,657,658,659,296,634,0,0,0,0,0,0,0,0,617,618,621,0,0,0,0,0,0,0,0,0,0,0,0,0,0,0,0,196,197,0,0,0,0,0,0,0,
0,0,0,805,803,0,0,0,0,0,0,0,0,0,0,0,0,799,807,0,0,0,841,730,731,0,0,0,0,0,0,0,0,0,0,0,0,727,729,730,824,728,729,730,0,0,0,0,0,0,0,0,0,0,0,0,727,728,843,0,0,0,785,0,0,0,0,0,0,0,0,0,0,0,0,0,0,0,236,237,238,0,0,0,0,0,0,0,0,0,0,0,236,237,237,672,673,0,0,0,0,0,0,0,0,0,0,0,0,0,0,0,0,0,617,618,0,670,671,670,671,672,0,633,671,672,633,634,0,0,675,0,0,675,0,0,630,296,634,0,0,0,0,0,0,0,0,0,0,0,0,0,0,0,0,216,0,0,0,0,0,0,0,0,
0,0,805,749,0,0,0,0,0,0,0,0,727,731,0,0,0,0,763,0,0,0,0,748,749,0,0,0,0,0,0,0,0,0,0,0,727,843,823,824,824,824,825,841,731,0,0,0,0,0,0,0,0,0,0,0,745,746,0,0,0,805,803,0,0,727,728,731,0,0,0,0,0,0,0,0,0,0,0,0,0,0,0,0,0,0,0,0,0,0,0,0,0,0,0,0,0,0,0,0,0,0,0,0,0,0,0,0,0,0,0,0,0,695,630,631,634,297,298,315,0,315,630,634,297,298,630,647,0,0,0,0,0,0,0,0,643,644,647,0,0,0,0,697,698,699,0,0,0,0,0,0,0,0,256,237,0,0,0,0,0,0,0,0,
0,0,823,824,0,0,0,0,0,0,0,0,745,841,731,0,0,0,799,807,0,0,0,766,767,0,0,0,0,0,0,0,0,0,0,0,763,805,800,801,824,801,802,807,767,0,0,0,0,0,0,0,0,0,0,0,763,0,0,0,805,803,0,0,0,824,0,749,0,0,0,0,0,0,0,0,0,0,0,0,0,0,0,0,0,0,0,0,0,0,0,0,0,0,0,0,0,0,0,196,198,0,0,0,0,0,0,0,0,0,617,618,619,620,0,0,647,0,0,295,0,677,643,647,0,0,643,595,618,619,620,618,619,618,619,620,595,0,634,0,0,0,0,0,0,0,0,0,0,0,0,0,0,0,0,0,216,296,0,0,0,0,0,0,
0,0,823,824,0,0,0,0,0,0,0,0,745,0,749,0,0,0,0,799,807,0,0,0,841,810,811,812,731,0,0,0,0,0,0,727,824,803,773,755,0,755,773,799,824,731,0,0,0,0,0,0,727,728,729,729,843,0,0,805,803,0,0,0,0,824,0,767,0,0,0,0,0,0,0,0,0,0,0,0,0,0,0,0,0,0,0,0,0,0,0,0,0,0,0,0,0,0,0,216,218,0,0,0,0,0,0,0,0,0,630,631,632,633,0,0,660,0,0,0,0,677,656,660,0,0,656,0,670,671,672,670,671,672,670,671,672,0,647,0,0,0,0,0,0,0,0,0,0,0,0,0,0,0,0,0,630,0,0,0,0,0,0,0,
0,0,841,785,0,0,0,0,0,0,727,728,843,0,767,0,0,0,0,0,799,807,0,0,0,0,0,748,749,0,0,0,0,0,0,799,803,773,0,773,0,773,0,773,799,803,0,0,0,0,0,0,745,0,0,0,0,805,802,803,773,0,0,0,0,824,0,841,730,731,0,0,0,0,0,0,0,0,196,697,698,698,698,699,0,0,0,0,0,697,698,698,698,699,197,619,197,197,619,0,0,618,619,620,618,619,620,618,619,620,0,296,0,0,296,0,647,0,0,0,0,295,630,647,0,0,643,634,297,298,315,0,0,0,316,297,298,630,595,618,619,620,618,619,620,618,618,619,620,618,621,0,0,0,0,0,643,0,0,0,0,595,0,0,
0,0,0,749,0,0,0,0,0,0,799,800,807,0,767,811,0,0,0,0,0,799,801,801,807,0,0,766,767,0,0,0,0,0,0,0,0,0,0,0,0,0,0,0,0,0,0,0,0,0,0,0,763,0,0,805,802,803,773,0,0,0,0,0,0,824,0,0,237,238,0,0,0,0,0,0,0,727,843,0,2684355180,0,0,0,0,0,0,0,0,0,0,0,216,0,0,0,0,0,0,0,0,657,658,659,657,658,659,657,658,659,0,657,658,659,657,659,660,0,0,0,0,0,643,660,299,300,656,647,0,0,295,0,0,0,0,0,0,643,0,0,0,0,0,0,0,0,0,0,0,237,238,0,0,0,0,0,656,296,0,0,594,0,0,0,
0,0,0,767,0,0,0,0,0,0,0,0,825,0,823,0,0,0,0,0,0,0,0,0,799,807,0,805,237,810,811,812,0,0,0,0,0,0,0,0,0,0,0,0,0,0,0,0,0,810,811,812,745,0,805,803,755,0,0,0,0,0,0,0,0,781,0,218,0,0,0,0,0,0,0,0,727,843,0,0,2684355180,0,0,0,0,0,0,0,0,0,0,0,643,0,0,0,0,0,0,0,0,670,671,672,670,671,672,670,671,646,0,670,671,672,670,672,673,0,0,0,0,0,630,0,619,620,0,660,300,0,299,300,0,695,299,300,0,656,0,0,0,594,0,0,0,0,296,0,218,0,0,0,0,0,0,695,216,0,0,0,0,0,0,0,
0,0,805,785,0,0,0,0,727,728,729,730,843,0,823,0,0,0,0,0,0,0,0,0,0,745,0,749,0,0,0,0,0,0,0,0,0,0,0,0,0,0,0,0,0,0,0,0,0,0,0,0,763,0,749,755,773,0,0,0,0,0,0,0,0,745,0,0,197,730,731,0,0,0,0,727,843,0,0,0,218,0,0,0,0,0,0,0,0,0,0,0,656,0,0,0,0,0,0,0,634,297,298,0,0,0,315,297,298,630,647,0,0,0,0,297,298,0,0,0,0,695,643,0,0,0,594,0,618,619,620,618,619,620,618,619,620,0,0,0,0,0,595,0,0,0,0,0,218,0,0,0,0,697,698,698,699,0,0,0,0,0,0,0,
0,0,823,824,812,0,0,0,763,0,0,0,0,0,841,730,731,0,0,0,0,0,0,0,0,763,0,767,0,0,0,0,0,0,0,0,0,0,0,0,0,0,0,0,0,0,0,0,0,0,0,0,781,0,767,773,0,0,0,0,0,0,0,0,0,763,0,0,0,748,749,0,0,0,0,745,0,0,0,0,218,0,0,0,0,0,0,0,0,0,0,0,216,0,0,0,0,0,0,0,647,0,0,299,300,0,335,0,695,643,660,695,0,0,0,0,0,0,0,299,300,695,656,0,594,0,0,0,0,670,671,672,237,237,670,671,672,670,671,672,237,0,0,0,0,0,0,0,218,0,0,0,0,0,236,237,237,0,0,0,0,0,0,0,
0,0,823,824,0,0,0,0,781,0,0,0,0,0,805,802,803,0,0,0,0,0,0,0,0,781,746,767,0,0,0,0,0,0,0,727,731,0,0,0,0,0,0,0,727,731,0,0,0,0,0,0,763,0,785,0,0,0,0,0,0,0,0,0,0,781,0,0,0,0,218,0,0,0,0,763,0,0,0,0,2684355180,0,0,0,0,0,0,0,0,0,0,0,643,0,0,0,0,0,0,0,0,618,619,620,618,619,620,618,619,646,0,618,619,620,618,619,620,618,619,618,619,620,0,0,0,0,237,237,238,0,0,0,0,0,0,0,0,0,0,0,0,669,671,0,0,0,296,0,218,695,0,0,0,0,0,0,0,236,0,0,0,0,0,0,
0,0,823,824,0,0,0,0,799,807,0,0,0,0,823,0,0,0,0,0,0,0,0,0,0,763,766,767,0,0,0,0,0,0,0,745,767,0,0,0,0,0,0,0,763,749,0,0,0,0,0,0,745,806,767,0,0,0,808,809,810,811,812,0,0,799,824,824,824,801,802,811,0,0,0,745,0,0,0,0,647,0,0,0,0,0,0,0,0,0,0,0,216,0,0,0,0,0,0,0,0,0,0,0,0,0,657,658,659,657,658,659,657,658,659,0,0,0,0,0,0,0,0,0,0,238,0,0,0,0,0,0,0,0,0,0,0,0,0,0,0,0,0,669,0,0,0,0,697,698,699,0,0,0,0,0,0,0,630,0,296,0,0,0,
0,0,823,824,811,812,0,0,0,745,805,806,806,807,841,729,729,729,731,0,0,0,0,0,0,781,784,785,0,0,0,0,0,0,0,763,785,0,0,0,0,0,0,0,781,767,0,0,0,0,0,0,781,824,785,0,0,0,0,0,0,0,0,0,0,0,0,0,0,0,0,0,0,0,0,763,0,0,0,0,218,0,0,0,0,0,0,0,0,0,0,0,2684355257,0,0,0,0,0,0,0,0,0,0,0,0,0,670,671,672,670,671,672,670,671,672,0,0,0,0,0,0,0,0,0,238,0,0,0,0,0,0,0,0,0,0,0,0,0,0,0,0,0,0,0,236,0,0,0,0,0,218,0,0,0,0,0,0,0,643,0,0,0,0,0,
0,0,841,767,0,0,0,0,0,763,823,824,824,824,824,824,824,807,841,731,0,0,0,0,0,799,802,803,0,0,0,0,727,731,0,781,841,728,729,1081,1081,1081,729,730,843,749,0,727,731,0,0,0,799,800,824,0,0,0,0,0,0,0,0,0,0,0,0,0,0,0,0,0,0,0,0,781,0,0,0,594,218,0,0,0,0,0,0,0,0,0,0,0,2684355258,0,0,0,0,0,0,0,0,0,0,0,0,634,297,298,297,298,0,0,315,297,298,630,0,0,0,0,0,0,670,238,0,0,0,0,0,0,0,0,0,0,0,0,0,0,0,0,0,0,0,0,0,669,0,0,0,0,0,197,621,0,0,0,0,0,216,0,0,0,0,0,
0,0,0,749,0,0,0,0,0,745,823,0,0,0,0,0,773,824,807,841,730,731,0,0,0,0,0,0,0,0,0,0,745,767,0,745,0,0,841,842,842,842,843,0,0,767,0,763,749,0,0,0,0,0,824,824,0,0,0,0,0,0,0,0,0,0,0,0,0,0,0,0,0,0,812,763,0,0,0,0,218,0,0,0,0,0,0,0,0,0,0,0,2684355259,0,0,0,0,0,0,0,0,0,0,0,0,647,0,0,695,0,0,0,335,0,0,643,0,0,0,0,670,238,0,0,0,0,0,0,0,0,0,0,0,0,0,0,0,0,0,0,0,0,0,0,0,0,216,0,0,0,0,0,634,0,0,0,0,0,216,0,296,0,0,0,
0,0,0,767,0,0,810,811,0,763,823,0,0,0,0,0,0,773,824,807,748,749,0,0,0,0,0,0,0,0,0,0,763,785,0,763,0,0,0,0,0,0,0,0,0,785,0,781,767,0,0,0,0,0,0,0,0,0,0,0,0,0,0,0,0,0,0,0,0,0,0,0,0,0,0,781,0,0,0,0,2684355180,0,0,0,0,0,0,0,0,0,0,0,643,0,0,0,0,0,0,237,237,237,237,0,0,660,299,300,695,695,0,0,299,300,300,656,0,0,0,238,0,0,0,0,0,0,0,0,0,0,0,0,617,619,621,0,0,0,0,0,0,0,0,0,0,0,656,0,0,0,0,0,218,0,0,0,0,0,643,0,0,0,0,0,
0,0,0,785,0,0,0,0,0,781,823,0,0,0,0,0,0,0,824,825,766,767,0,0,0,0,0,0,0,0,727,728,824,824,729,843,0,0,0,0,0,0,0,0,0,841,729,824,824,730,731,0,0,0,0,0,0,0,0,0,0,0,0,0,0,0,0,0,0,0,0,0,0,0,0,799,807,0,0,0,647,0,0,0,0,0,0,0,0,0,0,0,216,0,0,0,0,0,218,0,0,0,0,216,0,0,618,619,620,618,619,620,618,619,620,0,671,672,238,0,0,0,0,0,0,0,0,0,675,0,0,0,630,0,218,0,0,0,0,0,0,0,0,0,0,0,669,0,0,0,0,595,218,0,0,0,0,256,237,0,0,0,0,0,
0,0,805,785,0,0,0,0,0,755,824,808,809,810,811,812,0,0,824,825,0,841,728,729,824,824,824,824,729,730,843,841,842,842,843,0,0,0,0,0,0,0,0,0,0,0,841,842,842,843,841,728,729,730,824,824,824,728,729,824,824,731,0,0,0,0,0,727,824,731,0,0,0,0,0,0,799,807,0,0,2684355180,0,0,0,0,0,0,0,0,0,0,0,216,0,0,0,0,0,218,0,0,0,0,216,0,0,0,0,0,0,0,0,0,671,672,238,0,0,0,0,0,0,0,0,0,0,0,0,0,0,0,0,643,296,595,620,621,0,0,0,0,0,0,0,0,0,0,656,0,0,595,0,218,0,0,0,0,0,0,630,0,0,0,0,
0,0,823,824,824,0,0,0,0,773,0,0,0,0,0,0,0,0,824,843,0,0,0,841,842,842,842,842,843,0,0,0,0,0,0,0,0,0,0,0,0,0,0,0,0,0,0,0,0,0,0,0,0,841,842,842,842,843,0,842,842,841,730,731,0,0,0,745,842,749,0,0,0,0,0,0,0,781,0,0,218,0,0,0,0,0,0,0,0,0,0,0,656,0,0,0,0,0,218,0,0,0,0,216,0,0,0,0,0,0,237,237,238,0,0,0,0,0,0,0,0,0,0,0,0,0,0,0,0,0,0,0,656,0,595,237,673,0,0,0,0,0,0,0,0,0,0,669,0,0,0,0,218,0,0,0,0,0,0,643,0,0,0,0,
0,0,823,824,824,0,0,0,0,0,0,0,0,0,0,0,0,0,745,0,0,0,0,0,0,0,0,0,0,0,0,0,0,0,0,0,0,0,0,0,0,0,0,0,0,0,0,0,0,0,0,0,0,0,0,0,0,0,0,0,0,0,0,841,731,0,0,763,766,767,0,0,0,809,0,0,0,799,807,0,218,0,0,0,0,0,0,0,0,0,0,0,216,0,0,0,0,0,218,0,0,0,0,216,0,0,0,0,0,238,0,0,0,0,0,0,0,0,0,0,0,0,0,0,0,0,0,0,0,0,617,619,595,0,634,0,0,0,0,0,0,0,0,0,0,0,0,0,236,0,0,0,634,0,0,256,258,0,0,656,0,0,0,0,
0,0,823,824,824,0,0,0,0,0,0,0,0,0,0,0,0,808,745,0,0,0,0,0,0,0,0,0,0,0,0,0,0,0,0,0,0,0,0,0,0,0,0,0,0,0,0,0,0,0,0,0,0,0,0,0,0,0,0,0,0,0,0,0,841,728,729,843,784,785,0,0,0,0,0,0,0,0,745,0,218,0,0,0,0,0,0,0,0,0,0,0,216,0,0,0,0,0,218,0,0,0,0,216,0,0,0,0,238,0,0,0,0,0,0,0,0,0,0,0,0,0,0,0,0,0,0,0,0,0,669,237,595,0,647,0,0,0,675,0,0,0,0,0,0,0,0,0,0,216,0,0,647,0,0,0,0,0,0,630,0,0,0,0,
0,0,823,824,824,824,0,0,0,0,0,0,0,0,0,0,0,0,763,0,0,0,0,0,0,0,0,0,0,0,0,237,237,237,237,237,237,237,237,237,237,237,237,237,237,237,237,237,237,0,0,0,0,0,0,0,0,0,0,0,0,0,0,0,0,0,0,0,0,218,0,0,0,0,0,0,0,0,216,0,218,0,0,0,0,0,0,0,0,0,0,0,216,594,0,0,0,0,218,0,0,0,256,237,237,237,237,238,0,0,0,0,0,0,0,0,0,0,0,0,0,0,0,0,0,0,0,0,0,0,0,0,630,0,660,0,0,0,0,0,0,0,0,0,0,0,0,0,0,669,657,0,660,695,0,0,0,0,0,643,0,0,0,0,
0,0,0,823,824,824,0,0,0,0,0,0,0,0,0,0,0,0,781,0,0,0,0,0,0,0,0,0,0,237,238,0,0,0,0,0,0,0,0,0,0,0,0,0,0,0,0,0,0,236,0,0,0,0,0,0,0,0,0,0,0,0,0,0,0,0,0,0,0,0,730,731,0,0,0,0,0,0,216,0,218,0,0,0,0,0,0,0,0,0,0,0,656,0,0,0,0,0,218,0,0,0,0,0,0,0,0,0,0,0,0,0,0,0,0,0,0,0,0,0,0,0,0,0,0,0,0,675,0,0,0,0,630,0,660,0,0,0,0,0,0,0,0,0,0,0,0,0,0,0,656,0,595,620,621,0,0,0,0,630,0,0,0,0,
0,0,0,823,824,824,824,824,810,811,812,0,0,812,813,728,729,730,843,0,0,0,0,0,0,0,0,237,238,0,0,0,0,0,0,0,0,0,0,0,0,0,0,0,0,0,0,0,0,0,236,237,0,0,0,0,0,0,0,0,0,0,0,0,0,0,0,0,0,0,0,749,0,0,0,0,0,0,763,0,218,0,0,0,0,0,0,0,0,0,0,0,643,0,0,0,0,0,0,198,0,0,0,0,0,0,0,0,0,0,0,0,0,0,697,698,698,698,699,0,0,0,0,0,0,0,0,0,0,0,0,0,643,296,595,619,621,0,0,0,0,0,0,0,0,0,0,0,0,0,669,670,671,672,673,0,0,0,0,643,0,0,0,0,
0,0,0,0,823,824,824,824,0,0,0,0,0,0,0,216,0,0,0,0,0,0,0,0,0,0,238,0,0,0,0,0,0,0,0,0,0,0,0,0,0,0,0,0,0,0,0,0,0,0,0,0,236,237,0,0,0,0,0,0,0,0,0,0,0,0,0,0,0,0,0,841,197,198,0,0,0,0,216,0,218,0,0,0,0,0,0,0,0,0,0,0,216,0,0,0,0,0,0,218,0,0,0,0,0,0,0,0,0,0,0,0,0,0,0,0,0,0,0,0,0,0,0,0,0,0,0,0,0,0,0,0,656,0,595,671,673,0,0,0,0,0,0,0,0,0,0,0,0,0,0,0,0,0,0,0,0,0,695,656,0,0,0,0,
0,0,0,0,841,842,842,218,0,0,0,0,0,0,0,216,0,0,0,0,0,0,0,0,1113,1114,0,0,0,0,0,0,0,0,0,0,0,0,0,0,0,0,0,0,0,0,0,0,0,0,0,0,0,0,236,0,0,0,0,0,0,0,0,0,0,0,0,0,0,0,0,0,0,238,0,0,0,0,745,0,2684355257,0,0,0,0,0,0,0,0,0,0,0,216,0,0,0,0,0,0,0,198,0,0,0,0,0,0,0,0,0,0,0,0,0,0,0,0,0,0,0,0,0,0,0,0,0,0,0,0,0,617,618,594,659,660,0,0,0,0,0,0,0,0,0,0,0,0,0,0,0,0,0,0,0,0,0,0,617,618,595,0,0,0,0,
0,0,0,0,0,0,0,218,0,0,0,0,811,0,196,0,0,0,0,0,0,0,0,238,0,0,0,0,0,0,0,0,0,0,0,0,0,0,0,0,0,0,0,0,0,0,0,0,0,0,0,0,0,0,0,236,1113,0,0,0,0,0,0,0,0,0,0,0,0,0,0,0,749,0,0,0,0,0,763,0,2684355258,0,0,0,0,0,0,0,0,0,0,0,216,0,0,0,0,0,0,0,0,697,698,699,0,0,0,0,0,0,675,0,0,0,0,0,0,0,0,0,675,0,0,0,0,0,0,0,0,0,669,670,671,672,673,0,0,0,675,0,0,0,0,0,0,0,0,0,0,0,0,0,0,0,0,0,0,630,595,632,0,0,0,0,
0,0,0,0,0,0,0,767,0,0,0,0,0,0,745,0,0,0,0,0,0,0,238,0,0,0,0,0,0,0,0,0,0,0,0,0,0,0,0,0,0,0,0,0,0,0,0,0,0,0,0,0,0,0,0,0,0,1112,0,0,0,0,0,0,0,0,0,0,0,0,0,0,767,0,0,0,0,811,781,0,2684355259,0,0,0,0,0,0,0,0,0,0,0,216,594,595,0,0,0,0,0,0,0,634,0,0,0,0,0,0,0,0,0,0,0,0,0,0,0,0,0,0,0,0,0,0,0,0,0,0,0,0,0,0,0,0,0,0,0,0,0,0,0,0,675,0,0,0,0,0,0,0,0,0,0,0,0,0,643,644,645,0,0,0,0,
0,0,0,0,0,0,0,785,0,0,0,0,0,0,763,0,0,0,0,0,0,238,0,0,0,0,0,0,0,0,0,0,0,0,0,0,0,0,0,0,0,0,0,0,0,0,0,0,0,0,0,0,0,0,0,0,0,0,1112,0,0,0,0,0,0,0,0,0,0,0,0,0,785,0,0,0,0,0,745,0,218,0,0,0,0,0,0,0,0,0,0,0,216,0,0,0,0,0,0,0,296,0,647,0,0,0,0,0,0,0,0,0,0,0,0,0,0,0,0,0,0,0,0,0,0,0,0,0,0,0,0,0,0,0,0,0,0,0,0,0,0,0,0,0,0,0,0,0,0,0,0,0,0,0,0,617,618,594,657,0,0,0,0,0,
0,0,0,0,0,0,0,841,729,730,810,811,0,0,216,0,0,0,0,0,1114,0,0,0,0,0,0,0,0,0,0,0,0,0,0,0,0,0,0,0,0,0,0,0,0,0,0,0,0,0,0,0,0,0,0,0,0,0,0,216,0,0,0,0,0,0,0,0,0,0,805,806,824,0,0,0,0,0,216,0,647,0,0,0,0,0,0,0,0,0,0,0,643,0,0,0,0,0,0,0,0,0,634,0,0,0,0,675,0,0,0,0,0,0,0,0,0,0,0,0,0,0,0,0,0,0,675,0,0,0,0,0,0,0,0,0,0,0,0,0,0,0,0,0,0,0,0,697,699,0,0,0,0,0,0,669,670,671,670,671,595,0,0,0,
0,0,0,0,0,0,0,0,805,238,0,0,0,0,781,0,0,0,0,238,0,0,0,0,0,0,0,0,0,0,0,0,0,0,0,0,0,0,0,0,0,0,0,0,0,0,0,0,0,0,0,0,0,0,0,0,0,0,0,236,0,0,0,0,0,0,0,0,0,0,823,824,824,811,0,0,0,0,216,0,218,0,0,0,0,0,0,0,0,0,0,0,656,0,0,0,0,0,0,0,0,595,647,0,0,0,0,0,0,0,0,0,0,0,0,0,0,0,0,0,0,0,0,0,0,0,0,0,0,0,0,0,0,0,0,0,0,0,0,0,0,0,0,0,0,0,0,0,0,0,0,0,0,0,0,0,0,0,0,315,643,0,631,0,
0,0,0,0,0,0,0,0,749,0,0,0,0,0,216,805,237,237,238,0,0,0,0,0,0,0,0,0,0,0,0,0,0,0,0,0,0,0,0,0,0,0,0,0,0,0,0,0,0,0,0,0,0,0,0,0,0,0,0,0,216,0,0,0,0,0,0,0,0,0,823,824,0,0,0,0,0,0,763,0,218,0,0,0,0,0,0,0,0,0,0,0,216,0,0,0,0,0,0,0,0,0,660,0,0,0,0,0,0,0,0,0,0,0,0,0,0,0,0,0,0,0,0,0,0,0,0,0,0,0,0,0,0,0,0,0,0,0,0,0,0,0,0,0,0,0,0,0,0,0,0,0,617,618,197,620,197,258,0,295,435,0,594,0,
0,0,0,0,0,0,0,0,767,0,0,0,727,728,843,767,0,0,0,0,0,0,0,0,0,0,0,0,0,0,0,0,0,0,0,0,0,0,0,0,0,0,0,0,0,0,0,0,0,0,0,0,0,0,0,0,0,0,0,0,236,0,0,0,0,0,0,0,0,0,218,0,0,0,0,0,0,0,781,0,647,0,0,0,0,0,0,0,0,0,0,0,216,0,0,0,0,0,0,0,296,0,697,698,699,0,0,0,0,0,0,0,0,0,0,0,0,0,0,0,0,0,0,0,0,0,0,0,0,0,0,0,0,0,0,0,0,0,0,0,0,0,0,0,0,0,0,0,0,0,0,0,630,631,632,0,673,0,0,0,656,0,657,0,
0,0,0,0,0,0,0,0,218,0,0,0,799,801,802,803,0,0,0,0,0,0,0,0,0,0,0,0,0,0,0,0,0,0,0,0,0,0,0,0,0,0,0,0,0,0,0,0,0,0,0,0,0,0,0,0,0,0,0,0,0,216,0,0,0,0,0,0,0,0,749,0,0,0,0,0,727,728,843,0,647,0,0,0,0,0,0,0,0,0,0,0,643,0,0,0,0,0,0,0,0,0,634,0,0,0,0,0,0,0,0,0,0,0,0,0,0,0,0,0,0,0,0,0,0,0,0,0,0,0,0,0,0,0,0,0,0,0,0,0,0,0,0,0,0,0,0,0,0,0,0,0,643,644,594,673,0,0,0,423,0,0,631,0,
0,0,0,0,0,0,0,0,218,0,0,0,0,0,0,0,0,0,0,0,0,0,0,0,0,0,0,0,0,0,0,1073742918,1207,1208,1207,1208,2147484752,1093,1207,1208,1207,1208,1207,1208,1207,1208,1142,1142,0,0,0,0,0,0,0,0,0,0,0,0,0,236,0,0,0,0,0,0,0,0,767,0,0,0,0,0,216,746,0,0,218,0,0,0,0,0,0,0,0,0,0,0,216,0,0,0,0,0,0,0,0,595,647,0,0,0,0,0,0,0,0,0,0,0,0,0,0,0,0,0,0,0,0,0,0,0,0,0,0,0,0,0,0,0,0,0,0,0,0,0,0,0,0,0,0,0,0,0,0,0,0,617,645,0,634,315,0,0,0,0,643,0,644,0,
0,0,0,0,0,0,0,0,0,197,198,0,0,0,0,0,0,0,0,0,0,0,0,0,0,0,0,0,0,0,1610613944,1073742918,1073742918,2684355727,2684355707,2684355727,2684355707,1164,1164,1093,1093,1105,2684355707,2684355727,2684355707,2684355727,2684355707,1093,1105,1105,1105,1073742918,0,0,0,0,0,0,0,0,0,0,236,1113,1113,237,237,237,0,0,218,0,0,0,0,0,216,764,0,0,218,0,0,0,0,0,0,0,0,0,0,0,236,0,0,0,0,0,0,0,0,0,634,0,0,0,0,697,699,0,0,0,0,0,0,0,0,0,0,0,0,0,0,0,0,0,0,0,0,0,0,0,0,0,0,0,0,0,0,0,0,0,0,0,0,0,0,0,0,0,0,630,631,0,647,335,0,0,0,0,435,0,657,0,
0,0,0,0,0,0,0,0,0,0,238,0,0,0,0,0,0,0,0,0,0,0,0,0,0,0,0,0,0,0,1610613943,1073742918,1073742918,1161,1162,1164,1164,2147484752,1610613903,1610613883,1610613903,1105,2684355708,2684355728,2684355708,2684355728,2684355729,2684355709,2684355729,2684355709,1073742918,1105,0,0,0,0,0,0,0,0,0,0,0,0,0,0,0,0,236,237,785,0,0,0,727,728,843,0,0,0,647,0,0,0,0,0,0,0,0,0,0,0,0,216,0,0,0,0,0,0,296,0,647,0,0,0,0,0,0,0,0,0,0,0,0,0,0,0,0,0,0,0,0,0,0,0,0,0,0,0,0,0,0,0,0,0,0,0,0,0,0,0,0,0,0,0,0,0,0,0,0,643,644,633,634,0,0,0,617,420,0,0,631,0,
0,0,0,0,0,0,0,0,0,218,0,0,0,0,0,0,0,0,0,0,0,0,0,0,0,0,0,259,0,0,1610613944,1142,0,0,0,1105,1073742918,2147484815,0,0,0,1167,1093,1094,1105,1105,1105,1104,1104,1073742918,1105,1073742918,0,0,0,0,0,0,0,0,0,0,0,0,0,0,0,0,0,0,2684354817,0,0,0,236,237,0,0,0,0,218,0,0,0,0,0,0,0,0,0,0,0,0,236,237,237,0,0,0,0,0,0,660,0,0,0,0,0,0,0,0,0,0,0,0,0,0,0,0,0,0,0,0,0,0,617,619,621,0,617,618,621,0,0,0,0,0,0,0,0,0,0,0,0,0,0,0,0,0,695,0,216,595,646,647,0,0,0,669,452,406,0,644,0,
0,0,0,0,0,0,0,0,0,0,197,197,198,0,0,0,0,0,0,0,0,0,0,0,0,0,0,0,0,0,1610613943,1162,0,0,0,0,1105,1105,0,0,0,1147,1093,1105,1153,0,0,0,0,1104,1105,0,0,0,0,0,0,0,0,0,0,0,0,0,0,0,0,0,0,0,236,258,0,0,0,0,236,237,237,237,238,0,0,0,0,0,0,0,0,0,0,0,0,0,0,0,216,0,0,0,0,0,595,620,621,0,0,0,0,0,0,0,0,0,0,0,0,0,0,0,0,0,0,0,0,669,671,673,0,669,671,673,0,0,0,0,0,0,0,0,0,0,0,0,0,0,0,0,0,216,197,0,0,659,660,299,300,0,0,0,435,0,657,0,
0,0,0,0,0,0,0,0,0,0,0,237,238,0,0,0,0,0,0,0,0,0,256,258,0,0,0,0,0,0,0,1141,1142,0,0,0,0,0,0,0,0,1167,1105,1094,1153,0,0,0,0,0,1105,0,0,0,0,0,0,0,0,0,0,0,0,0,0,0,0,0,0,0,0,0,0,0,0,0,0,0,0,0,0,0,0,0,0,0,0,0,0,0,0,0,0,0,0,0,236,237,237,237,237,237,237,672,673,0,0,0,0,0,0,0,0,0,0,0,0,0,0,0,0,0,0,0,0,0,0,0,0,0,0,0,0,0,0,0,0,0,0,0,0,0,0,0,0,1610612994,0,196,197,0,0,0,0,0,595,618,621,0,0,0,435,0,0,0,
0,0,0,0,0,0,0,0,0,1042,238,0,0,0,0,0,0,196,198,0,0,0,0,0,0,0,0,0,0,0,0,0,0,0,0,0,1073742918,1073742918,2684355707,2684355727,2684355707,1104,1104,1105,1173,0,0,0,0,0,0,0,0,0,0,0,0,0,0,0,0,0,0,0,0,0,0,0,0,0,0,0,0,0,0,0,0,0,0,0,0,0,0,0,0,0,0,0,0,0,0,0,0,0,0,0,0,0,0,0,0,0,0,0,0,0,0,0,0,0,0,0,0,0,0,0,0,0,0,0,0,0,0,0,0,0,0,0,0,0,0,0,0,0,0,0,0,0,0,0,0,0,0,0,0,216,197,0,0,0,0,0,0,0,0,0,466,420,421,0,435,0,0,0,
0,0,0,0,0,0,0,0,0,218,0,0,0,0,0,0,0,216,218,0,0,0,0,0,0,0,0,0,0,0,0,0,0,0,0,0,1073742918,1073742918,1104,1142,1144,1144,1144,1105,1105,2684355734,2684355714,2684355734,2684355714,0,0,0,0,0,0,0,0,0,0,0,0,0,0,0,0,0,0,0,196,728,729,729,824,824,729,197,728,729,730,197,730,197,620,197,197,620,619,197,197,197,619,197,198,0,0,0,0,0,0,0,0,0,0,0,0,0,0,617,619,621,0,0,0,0,0,0,0,0,0,0,0,0,0,0,0,0,0,0,0,0,0,0,0,0,0,0,0,0,0,0,0,0,0,0,196,0,0,0,0,0,0,594,0,0,0,631,632,0,437,0,435,0,0,0,
0,0,0,0,0,0,0,0,1042,238,0,0,0,0,0,0,0,236,237,258,0,0,0,0,0,0,0,0,0,0,0,0,1207,1208,1147,1050,1050,1105,1073742918,1162,1162,1162,1073742918,1105,1105,1073742918,1105,1094,1105,2684355734,2684355734,2684355714,1105,0,0,0,0,0,0,0,0,0,0,0,0,0,0,0,236,0,0,841,842,842,843,0,0,0,0,0,0,0,0,594,0,0,0,0,0,0,595,0,218,0,0,0,0,0,0,0,0,0,0,0,0,0,0,630,632,634,0,0,0,0,0,0,0,0,0,0,0,0,0,0,0,0,0,0,0,0,0,0,0,0,0,0,0,0,0,0,0,695,0,196,0,0,594,0,0,0,595,0,0,0,0,0,0,0,437,0,435,0,0,0,
0,0,0,0,0,0,0,0,2684355594,0,0,0,0,0,0,0,0,0,0,0,0,0,0,0,0,0,0,0,0,0,0,0,1227,1228,1167,1047,1047,1073742918,1105,1104,1162,1073742918,1073742918,1105,1073742918,1094,1094,1093,1105,1105,1093,1105,1105,0,0,0,0,0,0,0,0,0,0,0,0,0,0,0,0,216,0,0,0,0,0,0,0,0,0,0,0,0,0,0,0,0,0,0,0,0,0,0,0,198,0,0,0,0,0,0,0,0,0,0,0,0,0,643,0,594,621,0,0,0,0,0,0,0,0,0,0,0,0,0,0,0,0,0,0,0,0,0,0,0,0,0,0,0,0,0,0,216,197,0,0,594,0,0,0,0,0,0,0,0,0,0,0,0,437,0,435,0,0,0,
0,0,0,0,0,0,0,0,2684355595,0,0,0,0,0,0,0,0,0,0,0,0,0,0,0,0,0,0,0,0,0,0,0,0,0,1147,1148,1149,1047,1050,1050,1050,1050,1050,1050,0,0,0,0,0,0,0,1105,1105,0,0,0,0,0,0,0,256,257,257,258,0,0,0,0,0,216,0,0,0,0,0,0,0,0,0,0,0,0,0,0,0,0,0,0,595,0,0,0,0,0,197,420,197,420,421,0,0,0,0,0,0,617,618,0,0,0,634,0,0,0,0,0,0,0,0,0,0,0,0,0,0,0,0,0,0,0,0,0,0,0,0,0,0,0,1610612994,0,196,0,0,0,0,0,0,0,0,0,0,0,0,0,0,0,0,0,437,0,435,0,0,0,
0,0,0,0,0,0,0,0,2684355596,0,0,0,0,0,0,0,0,0,0,0,196,197,198,0,0,0,0,0,256,258,0,0,0,0,1167,1168,1169,1170,1169,1170,1171,1172,1173,1174,0,0,0,0,0,0,0,0,0,0,0,0,0,0,0,0,0,0,0,0,0,0,0,0,0,216,0,0,0,0,0,0,0,0,0,0,0,0,0,0,0,0,0,0,0,0,0,0,0,0,0,0,0,0,437,0,0,0,0,0,0,630,595,0,0,0,647,0,0,0,0,0,0,0,0,0,0,0,0,0,0,0,0,0,0,0,0,0,0,0,0,0,0,0,216,197,0,595,0,0,0,0,0,0,0,0,0,0,0,0,0,0,0,0,437,0,435,0,0,0,
0,0,0,0,0,0,0,0,2684355596,0,0,0,0,0,0,0,0,0,0,256,237,237,238,0,0,0,0,0,0,0,0,0,0,0,1147,1148,1149,1150,1149,1150,1151,1152,1153,1154,0,0,0,0,0,0,0,0,0,0,0,0,0,0,0,0,0,0,0,0,0,0,0,0,0,236,0,0,0,0,0,0,0,0,0,0,0,0,0,0,0,0,0,0,0,0,0,0,0,0,0,0,0,0,437,0,0,0,0,0,0,643,0,0,0,0,594,0,0,0,0,0,0,0,0,0,0,0,0,0,0,0,0,0,0,0,0,0,0,1610612994,0,196,197,197,0,0,0,0,0,0,0,0,0,0,0,0,0,237,237,237,0,0,0,0,437,0,435,0,0,0,
0,0,0,0,0,0,0,0,2684355595,0,0,0,0,0,0,0,0,0,0,0,0,0,0,0,0,0,0,0,0,0,0,0,0,0,1167,1168,1169,1170,1169,1170,1171,1172,1173,1174,0,0,0,0,0,0,0,0,0,0,0,0,256,258,0,0,0,0,0,0,0,0,0,0,0,0,236,0,0,0,0,0,0,0,0,0,0,0,0,0,0,0,0,0,0,0,0,0,0,0,0,0,0,0,466,420,421,0,0,0,0,435,0,0,0,0,0,618,619,620,618,619,620,618,619,620,618,619,620,618,619,620,619,621,0,617,619,618,620,0,197,0,0,0,0,0,0,0,0,0,0,0,0,0,0,0,238,297,298,315,236,0,0,0,437,0,435,0,0,0,
0,0,0,0,0,0,0,0,2684355594,0,0,0,0,0,0,0,0,0,0,0,0,0,0,0,0,0,0,0,0,0,0,0,1207,1208,1147,1148,1149,1148,1149,1144,1145,1152,1153,1154,0,0,0,0,0,0,0,0,0,0,0,0,0,0,0,0,0,0,0,0,0,0,0,0,0,0,0,216,0,0,0,0,0,0,0,0,0,402,452,452,452,452,452,452,406,0,0,0,0,0,0,0,0,0,402,452,453,0,0,0,0,643,594,0,0,0,0,631,632,633,631,632,633,631,594,595,631,632,633,631,594,595,0,634,0,669,670,671,672,595,0,296,0,0,0,296,0,0,0,296,0,0,0,296,0,218,316,0,0,335,315,216,0,0,437,0,435,0,0,0,
0,0,0,0,0,0,0,0,2684355594,0,518,0,0,518,0,1090,1092,0,0,518,0,0,0,0,0,0,0,0,0,518,0,0,1227,1228,1167,1168,1169,1168,1141,1164,1165,1172,1173,1174,0,0,0,0,0,0,0,0,259,0,0,0,0,0,0,0,0,0,0,0,0,0,0,0,0,0,0,236,0,0,0,0,0,0,0,0,0,437,0,0,0,0,0,0,435,0,0,0,0,0,0,0,0,0,437,0,0,0,0,0,0,435,0,0,0,0,0,0,594,595,0,0,0,0,0,0,0,595,0,0,0,594,595,647,0,0,0,0,0,656,658,657,658,659,657,658,657,658,659,659,657,657,658,659,658,647,0,0,0,0,335,216,0,0,437,0,435,0,0,0,
0,0,0,0,0,0,0,0,2684355594,0,0,0,0,0,0,2147484751,1103,0,0,0,0,0,0,0,0,0,0,0,0,0,0,0,0,0,1147,1169,1149,1150,1161,1162,1151,1152,1153,1154,0,0,0,0,0,0,0,0,0,0,0,0,0,0,0,0,0,0,0,0,0,0,0,0,0,0,0,0,216,0,0,0,0,0,0,0,0,437,0,0,0,0,0,0,435,0,0,0,0,0,0,0,0,0,437,0,0,0,0,419,420,470,0,0,0,0,0,0,0,0,0,0,594,595,0,0,0,0,0,0,594,0,0,595,618,619,620,621,0,669,671,670,237,672,670,671,670,237,237,672,670,670,671,237,671,673,0,0,0,0,0,216,0,0,437,0,435,0,0,0,
0,0,0,0,0,0,0,0,2684355595,0,0,0,0,0,0,2147484751,1103,0,0,0,0,0,0,0,0,0,0,0,0,0,0,0,0,0,1167,1168,1169,1170,1148,1141,1171,1172,1173,1174,0,0,0,256,258,0,0,0,0,0,0,0,0,0,0,0,0,0,0,0,0,0,0,0,0,0,0,0,236,0,0,0,0,0,0,0,0,437,0,0,0,0,0,0,435,0,0,0,0,0,0,0,0,0,437,0,0,0,0,435,0,0,0,0,0,0,0,0,0,0,0,0,0,0,595,0,0,0,0,0,0,0,0,0,631,595,633,634,0,0,0,0,0,0,0,0,0,0,0,0,0,0,0,0,0,0,0,697,698,699,0,216,0,0,437,0,435,0,0,0,
0,0,0,0,0,0,0,0,2684355595,0,0,0,0,0,0,2147484751,2684355602,1092,0,0,0,0,0,256,257,257,258,0,0,0,0,0,0,0,1147,1148,1149,1150,1149,1150,1151,1152,1153,1154,0,0,0,0,0,0,0,0,0,0,0,0,0,0,0,0,0,0,0,0,0,0,0,0,0,0,0,0,0,236,0,0,0,0,0,0,0,437,0,0,0,0,0,0,435,0,0,0,0,0,0,0,0,0,437,0,0,0,0,451,406,0,0,0,0,0,0,0,0,0,0,0,0,0,0,0,0,0,0,0,0,0,0,0,0,0,0,0,618,619,620,618,618,619,197,620,618,619,620,618,618,197,197,620,618,619,618,619,618,619,620,595,0,0,437,0,435,0,0,0,
0,0,0,0,0,0,0,0,2684355594,0,0,0,0,0,0,2147484751,1041,1114,0,0,0,0,0,0,0,0,0,0,0,0,0,0,0,0,1167,1168,1169,1170,1169,1170,1141,1142,1173,1174,0,0,0,0,0,0,0,0,0,0,0,0,0,0,0,0,0,0,0,0,0,0,0,0,0,0,0,0,0,0,216,0,0,0,0,0,0,437,0,0,0,0,0,0,435,0,0,0,0,0,0,0,0,0,466,421,0,0,0,0,451,406,0,0,0,0,0,0,0,0,0,0,0,0,0,0,0,0,0,0,0,0,0,0,0,0,0,0,631,594,595,631,631,632,633,633,631,594,595,631,631,632,633,633,631,632,594,595,631,632,595,0,0,0,437,0,435,0,0,0,
0,0,0,0,0,0,0,0,2684355594,0,0,0,0,0,0,2147484751,1114,0,0,0,0,0,0,0,0,0,0,0,0,0,0,0,1207,1208,1147,1148,1149,1148,1149,1150,1151,1162,1153,1154,0,0,0,0,0,196,1091,1091,197,197,1091,198,0,0,0,0,0,0,0,0,0,0,0,0,0,0,0,0,0,0,216,0,0,0,0,0,0,466,420,421,0,0,419,420,470,0,0,0,0,0,0,0,0,402,452,453,0,0,0,0,0,451,406,0,0,0,0,0,0,0,0,0,0,0,0,0,0,0,0,0,0,0,402,452,452,452,452,406,0,595,0,0,0,0,0,0,0,0,594,0,0,0,0,0,0,0,0,594,0,0,0,0,0,0,437,0,435,0,0,0,
0,0,0,0,0,0,0,0,2684355594,0,0,1090,1092,0,0,1610612992,0,0,0,0,0,0,0,0,0,0,0,0,0,0,0,0,1227,1228,1167,1168,1169,1168,1169,1170,1171,1172,1173,1174,0,0,0,0,0,236,237,237,237,237,237,238,0,0,0,0,0,0,0,0,0,0,0,0,0,0,0,0,0,0,236,452,237,452,237,237,452,452,452,453,0,256,237,452,452,237,452,452,452,452,406,0,0,437,0,0,0,0,0,0,0,0,435,0,0,0,0,0,0,0,0,0,0,0,0,0,0,0,0,0,0,0,437,0,0,0,0,435,0,0,0,0,0,0,0,0,0,0,0,0,0,0,0,0,0,0,0,0,0,0,0,0,0,0,437,0,435,0,0,0,
0,0,0,0,0,0,0,0,2684355594,0,0,1112,1114,0,0,0,0,0,0,0,0,0,0,0,0,0,0,0,0,0,0,0,0,0,1147,1148,1149,1150,1149,1150,1151,1152,1153,1154,0,0,0,0,0,0,0,0,0,0,0,0,0,0,0,0,0,0,0,0,0,0,0,0,0,0,0,0,0,0,0,0,0,0,0,0,0,0,0,0,0,0,0,0,0,0,0,0,0,0,451,406,0,437,0,0,0,419,421,0,0,0,435,0,0,0,0,0,0,0,0,0,0,0,0,0,0,0,0,0,0,0,437,0,419,421,0,435,0,0,0,0,0,0,0,0,0,0,0,0,0,0,0,0,0,0,0,0,0,0,0,0,0,0,437,0,435,0,0,0,
0,0,0,0,0,0,0,0,2684355594,0,0,0,0,0,0,0,0,0,0,0,0,0,0,0,0,0,0,0,256,258,0,0,0,0,1167,1168,1169,1170,1148,1149,1171,1172,1173,1174,0,0,0,0,0,0,0,0,0,0,0,0,0,0,0,1090,1091,1092,0,0,0,0,0,0,0,0,0,0,0,0,0,0,0,0,0,0,0,0,0,0,0,0,0,0,0,0,0,0,0,0,0,451,406,437,0,0,0,451,453,0,0,0,435,0,0,0,0,402,452,452,452,452,452,452,452,452,452,452,406,0,428,0,437,0,435,437,0,435,0,0,0,0,0,0,0,0,0,0,0,0,0,0,0,0,0,0,0,0,0,0,0,0,0,0,437,0,435,0,0,0,
0,0,0,0,0,0,0,0,2684355595,0,0,0,0,0,0,0,536871168,0,0,0,0,0,0,0,0,0,0,0,0,0,0,0,0,0,1147,1148,1149,1150,1168,1169,1151,1152,1153,1154,0,518,0,518,0,0,0,0,0,0,0,0,518,0,0,236,237,238,0,0,518,0,0,0,0,518,0,0,0,0,0,518,0,0,0,0,0,0,0,419,420,421,0,0,0,0,0,0,0,0,0,0,435,437,0,0,0,0,0,0,0,0,435,0,0,0,0,437,0,0,0,0,0,0,0,0,0,0,435,402,452,452,453,0,435,437,0,451,452,452,406,452,452,406,0,0,0,0,0,0,0,0,0,0,0,0,0,0,0,0,0,0,0,0,437,0,435,0,0,0,
0,0,0,0,0,0,0,1042,1114,0,0,0,0,0,0,1090,1103,0,0,0,0,0,1090,1092,0,0,0,0,0,0,0,0,0,0,1167,1168,1169,1170,1148,1149,1171,1172,1173,1154,0,0,0,0,0,0,0,0,0,0,0,0,0,0,0,0,0,0,0,0,0,0,0,0,0,0,0,0,0,0,0,0,0,0,0,0,0,0,0,435,0,437,0,0,0,0,0,0,0,0,0,0,451,453,0,0,0,0,0,0,419,420,470,402,452,452,452,453,0,0,0,0,0,0,0,0,0,0,435,437,0,0,0,0,435,437,0,0,0,0,1610613159,0,0,435,0,402,452,452,452,452,452,452,452,452,452,406,0,0,0,0,0,0,0,0,437,0,435,0,0,0,
0,0,0,0,0,0,0,1103,0,0,0,0,0,0,0,1610613827,1103,0,0,0,0,0,1101,1041,1035,1092,0,0,0,0,0,0,1141,1142,1147,1148,1149,1150,1168,1169,1151,1152,1153,1154,0,0,0,0,0,0,0,0,0,0,0,0,0,0,0,0,0,0,0,0,0,0,1090,1092,0,0,0,0,1090,1092,0,0,0,0,0,196,420,197,420,470,0,437,0,0,0,0,0,0,0,0,0,0,0,0,0,0,0,0,0,0,435,436,0,437,0,0,0,0,0,0,0,0,0,0,0,0,0,0,451,453,0,0,0,0,435,466,421,0,0,0,0,0,0,435,0,437,0,0,0,0,0,0,0,0,0,435,0,0,0,0,0,0,0,0,437,0,435,0,0,0,
0,0,0,0,0,0,1042,1114,0,0,0,0,0,0,0,1610613827,2147484690,1092,0,0,0,1090,1038,0,0,1103,0,0,0,0,0,0,1161,1162,1167,1168,1169,1170,1148,1149,1171,1172,1173,1154,0,0,0,0,0,0,0,0,0,0,0,0,0,0,0,0,0,0,0,0,0,0,1112,1114,0,0,0,0,1112,1114,0,0,0,0,0,216,0,0,0,0,0,466,420,197,197,420,420,197,421,0,0,0,0,0,0,0,0,0,0,0,435,0,0,437,0,0,0,0,0,0,0,0,0,0,0,0,0,0,0,0,0,0,0,0,451,452,453,0,0,0,0,0,0,435,0,437,0,0,0,0,0,0,0,0,0,435,0,402,452,452,452,452,452,452,453,0,435,0,0,0,
0,0,0,0,0,0,2684355594,0,0,0,0,0,0,0,0,1610613827,1042,2684355652,0,0,0,1610613827,0,0,0,1039,1035,1035,258,0,0,0,0,0,1147,1148,1149,1150,1168,1169,1151,1152,1153,1154,0,0,0,0,0,0,0,0,0,0,0,0,0,0,0,0,0,0,0,0,0,0,0,0,0,0,0,0,0,1114,0,0,0,1090,1091,1042,0,0,0,0,0,0,0,0,0,0,0,0,437,0,0,0,0,0,0,0,0,0,419,420,470,0,0,437,0,0,0,0,0,0,0,0,0,0,0,0,0,455,456,458,0,0,0,0,0,0,0,0,0,0,0,0,0,435,0,437,0,0,0,429,0,0,0,0,0,435,0,437,0,0,0,0,0,0,0,0,435,0,0,0,
0,0,0,0,0,0,2684355594,0,0,0,0,0,0,0,0,1610613827,1103,0,0,0,0,1610613827,0,0,0,0,1038,1114,0,0,0,0,0,0,1167,1168,1169,1170,1148,1149,1171,1172,1173,1154,0,0,0,0,0,0,0,0,0,0,0,0,0,0,0,0,0,0,0,0,0,0,0,0,0,0,0,0,0,0,0,0,0,1610613770,0,0,0,0,0,0,0,0,0,0,0,0,0,0,466,421,0,0,0,0,0,0,0,0,451,452,452,452,452,453,0,0,0,0,0,0,0,0,0,0,0,0,0,0,0,0,0,0,0,0,0,0,0,0,0,0,0,0,0,435,0,437,0,0,0,0,0,0,0,429,0,435,428,437,0,455,458,0,0,0,0,0,435,0,0,0,
0,0,0,0,0,0,2684355595,0,1090,1091,1092,0,0,0,0,1610613827,1103,0,0,0,1053,1053,1039,0,0,0,1103,0,0,0,0,0,0,0,1147,1148,1149,1150,1168,1169,1151,1152,1153,1154,0,0,0,0,0,0,0,0,0,0,0,1090,1035,1035,1092,0,0,0,0,0,0,0,0,0,0,0,0,0,0,0,0,1087,1034,1042,0,0,0,0,0,0,0,0,0,0,0,0,0,0,402,453,0,0,0,0,0,0,0,0,0,0,0,0,0,0,0,0,0,0,0,0,0,0,0,0,0,0,0,0,0,0,0,0,0,0,0,0,0,0,0,0,0,0,0,435,0,437,0,0,0,0,0,0,0,0,0,435,0,437,0,0,0,0,0,0,0,0,435,0,0,0,
0,0,0,0,1067,0,2684355595,0,1112,1113,1114,0,0,0,0,1610613827,1103,0,0,0,0,1610613827,0,0,0,0,1103,0,0,0,1058,0,0,0,1167,1168,1169,1170,1171,1172,1171,1172,1173,1174,0,0,0,0,0,0,0,0,0,256,257,1113,1113,1113,1113,257,258,0,0,0,0,0,0,0,0,0,0,0,0,0,0,1610613770,0,0,0,0,0,0,0,0,0,0,0,0,0,0,0,0,437,0,0,0,0,423,424,425,0,0,0,0,0,0,0,0,0,0,0,0,419,420,420,420,420,421,0,0,0,0,0,0,0,0,0,0,0,0,0,462,0,0,0,0,0,435,0,437,1610613201,1610613217,0,0,0,0,0,0,0,435,0,437,0,0,0,0,0,0,0,0,435,0,0,0,
0,0,0,0,0,0,2684355595,0,0,0,0,0,0,0,0,1610613827,1103,0,0,0,0,1610613827,0,3758097426,1113,1113,1114,0,0,0,0,0,0,0,1147,1148,1149,1148,1149,1150,1151,1152,1153,1174,0,0,0,0,0,0,0,0,0,0,0,0,0,0,0,0,0,0,0,0,0,0,0,0,0,0,0,0,0,1090,1034,1042,0,0,0,0,0,0,0,0,0,0,0,0,0,0,0,0,437,0,0,0,0,0,0,0,0,0,0,0,0,0,0,0,0,0,0,0,451,452,452,452,428,437,0,0,0,0,0,0,0,0,0,0,0,0,0,478,0,0,0,0,0,435,0,437,0,0,0,0,455,457,458,0,0,435,0,437,0,0,0,0,0,0,0,0,435,0,0,0,
0,0,0,0,0,0,2684355596,0,0,0,0,0,0,0,0,1610613827,0,1092,0,0,0,1610613827,0,1103,0,0,0,0,0,0,0,0,1141,1142,1144,1145,1141,1142,1141,1142,1141,1142,1144,1145,1141,1142,0,0,0,0,0,0,0,0,0,0,0,0,0,0,0,0,0,0,0,0,0,0,0,0,0,0,0,1053,3221226563,3221226563,3221226507,3221226507,3221226507,3221226507,3221226563,3221226507,3221226563,2147484690,0,0,0,0,0,0,0,0,437,0,0,0,0,0,0,0,0,0,0,0,0,0,0,0,0,0,0,0,0,0,0,0,435,437,0,0,0,0,0,0,0,0,0,0,0,0,0,494,0,1610613161,0,1610613161,0,435,0,437,0,0,0,0,0,0,0,0,0,435,0,437,0,0,0,0,423,420,420,420,470,0,0,0,
0,0,0,0,0,0,2684355595,0,0,0,0,0,0,0,0,536872004,1113,2684355652,0,0,0,1610613827,0,1103,0,0,0,0,0,0,0,0,1161,1162,1164,1165,1144,1145,1161,1162,1144,1223,1164,1165,1161,1162,0,0,0,0,0,1040,1040,0,0,0,0,0,0,0,0,0,0,1062,1064,0,0,0,0,0,0,0,0,1053,0,0,0,0,0,0,0,0,0,1610613827,0,0,0,0,0,0,0,0,437,0,0,259,0,0,0,0,0,0,0,0,0,0,0,0,0,0,0,0,0,0,0,0,435,466,420,420,420,420,420,420,420,420,420,420,421,0,0,1073742247,1073742248,452,1073742248,452,1073742248,452,452,453,0,0,0,0,0,0,0,0,0,435,0,428,424,425,0,0,0,435,0,0,0,0,0,0,
0,0,0,0,0,1042,2684355595,0,0,0,0,0,0,0,0,0,0,0,0,0,1090,1041,0,1103,0,0,0,0,0,0,0,0,1141,1142,1141,1224,1164,1165,1223,1142,1164,1243,1141,1142,1141,1142,0,0,0,0,0,0,0,0,0,0,0,0,0,0,0,0,0,1084,1086,0,0,0,1090,1092,0,0,0,1053,0,0,0,0,0,0,0,0,0,1610613771,0,0,0,0,0,0,0,0,437,518,0,0,0,0,0,0,0,518,0,0,419,420,420,420,420,421,0,0,0,0,0,0,435,402,452,452,452,452,452,452,452,452,452,452,453,0,0,0,0,0,0,0,0,0,0,0,0,0,429,0,0,0,0,0,0,435,0,437,0,0,0,0,0,435,0,0,0,0,0,0,
0,0,0,0,0,0,2684355594,0,0,0,0,0,0,0,0,0,0,0,0,0,1112,1073742866,0,0,1036,1034,1035,1036,1036,1034,1035,1036,1161,1223,0,1244,1161,0,1263,0,1161,1263,0,0,1161,1162,1034,1034,1092,0,0,0,0,0,0,0,0,0,0,0,0,0,0,0,0,0,0,0,1610613827,1103,0,0,0,0,0,0,1053,1052,1052,1053,0,0,0,1610613771,0,0,0,0,0,0,0,0,437,0,0,518,0,0,0,0,0,0,0,0,435,0,428,0,0,437,0,0,0,0,0,0,435,437,0,0,0,0,0,0,0,0,0,0,0,0,0,0,0,0,0,0,0,0,0,0,0,0,0,0,0,0,0,0,0,435,0,437,0,0,0,0,0,435,0,0,0,0,0,0,
0,0,0,0,0,0,2684355594,0,0,0,0,0,0,0,0,0,0,0,0,0,0,1112,1038,0,0,0,0,0,0,0,0,0,0,1263,0,0,0,0,0,0,0,0,0,0,0,1224,0,0,2147484690,1092,0,0,0,0,1090,1034,1034,1034,1092,0,0,0,0,0,0,0,0,0,1610613771,3758097419,0,0,0,0,0,0,0,0,0,0,0,0,0,1610613771,0,0,0,0,0,0,0,0,466,420,421,0,0,0,0,0,0,0,0,0,435,0,0,0,452,453,0,0,0,0,0,0,435,437,0,0,0,0,0,0,0,0,0,0,0,0,0,0,0,0,0,0,0,0,419,420,425,0,0,0,0,429,0,0,0,435,0,437,0,0,0,0,0,435,0,0,0,0,0,0,
0,0,0,0,0,1042,1114,0,0,0,0,0,0,0,0,0,256,258,0,0,0,0,1112,1113,1085,1085,1085,1113,1113,1113,1085,1038,3221226514,1053,1053,1053,1053,1053,1053,1053,1053,1053,1053,1053,1053,1053,1073742866,0,0,2684355595,0,0,0,0,1112,1073742860,1073742859,1113,1114,0,0,0,0,0,0,0,0,0,1610613827,1053,1053,0,0,0,0,0,0,0,0,0,0,0,1053,1053,0,0,0,0,0,0,0,0,402,452,453,0,0,0,0,0,0,0,0,419,470,0,0,437,0,0,0,0,0,0,0,0,435,437,0,0,0,455,456,458,0,0,0,0,0,0,0,0,0,0,0,0,0,0,435,437,0,0,0,0,0,0,0,0,0,435,428,437,0,0,0,0,0,435,428,0,0,0,0,0,
0,0,0,0,1042,1114,0,0,0,0,0,0,0,0,0,0,0,0,0,0,0,0,0,0,0,0,0,0,0,0,0,1101,1053,0,0,0,0,0,0,0,0,0,0,0,0,0,1053,0,0,1103,0,0,0,0,0,0,0,0,0,0,0,0,0,0,0,0,0,0,1610613771,3758097419,0,0,0,0,0,0,0,0,0,0,0,0,0,1610613771,0,0,0,0,0,0,0,0,437,0,0,0,0,423,424,424,425,0,0,435,436,0,0,437,0,0,0,0,0,0,0,0,435,437,0,0,0,0,0,0,0,0,0,0,0,0,0,0,0,0,0,0,0,0,435,437,0,0,0,0,0,0,0,0,0,451,452,453,0,0,0,0,423,452,452,452,406,0,0,0,
0,0,0,0,2684355595,0,0,0,0,0,0,0,0,0,0,0,0,0,0,0,0,0,0,0,0,1090,1091,1035,1035,1092,0,1112,1053,0,0,0,0,0,0,0,0,0,0,0,0,0,1053,0,0,2147484690,1091,1092,0,0,0,0,0,0,0,0,0,0,0,0,0,0,0,0,1610613827,3758097419,0,0,0,0,0,0,0,0,0,0,0,0,0,1101,0,0,0,0,0,0,0,0,437,0,0,0,0,0,0,0,0,0,0,435,0,0,0,437,0,0,419,420,420,421,0,0,435,466,425,0,0,0,0,0,0,0,0,0,0,0,0,419,420,420,420,420,420,420,470,437,0,0,0,0,0,0,0,0,0,0,0,0,0,0,0,0,0,0,0,0,435,0,0,0,
0,0,0,0,2684355595,0,0,0,0,0,0,1090,1035,1035,1034,1034,1034,1034,1035,257,258,0,0,0,0,1610613827,0,0,0,1103,0,0,0,0,0,0,0,0,0,0,0,0,0,0,0,0,1053,0,0,0,0,1103,0,0,0,0,0,0,0,0,0,0,0,0,0,0,0,0,1610613827,2147484690,1610613839,1610613839,1092,0,0,1053,0,0,0,0,1053,0,0,1101,0,0,0,0,0,0,0,0,437,0,0,0,0,0,0,0,0,0,419,470,0,0,0,437,0,0,451,452,452,453,0,0,435,437,0,0,0,0,0,423,424,424,424,424,425,0,0,451,452,452,452,452,406,0,0,437,0,0,0,0,0,0,0,0,0,0,0,0,0,0,0,0,0,0,0,0,435,0,0,0,
0,0,0,0,1103,0,0,0,0,0,1090,1038,0,0,0,0,3758097426,1113,1114,0,0,0,0,0,0,1610613827,0,1067,0,2147484690,2147484739,1034,1053,0,0,0,0,0,0,0,0,0,0,0,0,0,1053,0,0,0,0,1103,0,0,0,0,0,0,0,0,0,0,0,0,0,0,0,0,1610613827,0,0,0,1103,0,0,0,0,0,0,0,0,0,0,1610613771,0,0,0,0,0,0,0,0,437,0,0,0,0,0,0,0,0,0,435,436,0,0,0,437,0,0,0,0,0,0,0,0,435,437,0,0,0,0,0,0,0,0,0,0,0,0,0,0,0,0,0,0,435,0,428,437,0,0,0,0,429,0,0,0,0,0,419,420,421,0,0,0,0,419,421,0,435,0,0,0,
0,0,0,0,1103,0,0,0,1087,1034,1042,0,0,0,0,0,1103,0,0,0,0,0,1090,1034,1091,1042,0,0,1068,0,0,0,1053,0,0,0,0,0,0,0,0,0,0,0,0,0,1053,0,0,0,0,2147484690,1035,1034,1035,1092,0,0,0,0,0,0,0,0,0,0,0,0,1610613771,0,0,0,2147484690,1034,1088,1034,1088,1034,1034,1088,1088,1088,1034,1042,0,0,0,0,0,0,0,436,437,0,0,0,0,0,0,0,419,1091,470,0,0,0,0,437,0,0,0,0,0,0,0,0,435,437,0,0,0,0,0,0,0,0,0,0,0,0,0,0,0,0,0,0,435,0,0,437,0,0,0,0,0,0,0,455,458,0,435,0,437,0,0,0,423,470,437,0,435,0,0,0,
0,0,0,0,1103,0,0,0,1610613770,0,0,0,0,0,0,0,1103,0,0,0,0,1090,1042,0,0,0,0,0,0,0,0,0,2147484690,1053,1053,1053,1053,1053,1053,1053,1053,1053,1053,1053,1053,1053,1042,0,0,0,0,0,0,0,0,1103,0,0,0,0,1090,1092,0,0,0,0,0,0,2147484762,1073742859,1073742860,1073742859,1073742859,1073742859,1073742860,1073742860,1073742859,1073742860,1073742866,0,1042,3221226507,2147484761,2147484761,452,452,452,2147484761,452,2147484761,2147484761,2147484761,453,0,0,0,0,0,0,0,435,436,0,0,0,0,0,437,0,0,0,0,0,0,0,0,435,437,0,0,0,0,0,0,0,0,0,0,0,0,0,0,0,0,0,0,435,0,0,437,0,0,0,0,0,0,0,0,0,0,435,0,437,0,0,0,0,435,437,0,435,0,0,0,
0,0,0,0,1103,0,0,0,1112,1113,1113,1113,1610613778,0,0,0,1103,0,0,0,0,1112,1113,1113,1113,1073742859,1073742858,1073742859,1113,1113,1113,1073742859,1073742859,1073742858,1073742859,1113,1113,1113,1113,1113,1113,1113,1113,1113,1073742859,1073742858,1073742858,1073742858,1073742858,1073742860,1073742858,1073742858,1073742860,1073742858,1073742860,1114,0,0,0,0,1101,2147484690,1092,0,0,0,0,0,0,0,0,0,0,0,0,0,0,0,3758097497,0,1610613849,0,0,0,0,0,0,0,0,0,0,0,0,0,0,0,419,421,0,0,435,0,0,0,0,0,0,0,420,420,420,420,420,420,420,420,470,437,0,0,0,0,0,0,0,0,0,0,0,0,0,0,419,420,420,420,0,0,0,437,0,0,0,0,0,0,0,0,0,0,435,0,437,0,0,0,0,435,437,0,435,0,0,0,
0,0,0,1068,2147484690,1064,0,0,0,0,0,0,1610613770,0,0,0,1103,0,0,0,0,0,0,0,0,0,0,0,0,0,0,0,0,0,0,0,0,0,0,0,0,0,0,0,0,0,0,0,0,0,0,0,0,0,0,0,0,0,0,1053,1053,0,1103,0,0,0,0,0,0,0,0,0,0,0,0,0,0,0,1112,1113,2147484760,0,0,0,0,0,0,0,0,0,0,0,0,0,0,0,435,466,1091,420,470,0,0,0,0,0,0,0,0,0,0,0,0,0,0,0,0,466,420,420,420,420,420,420,420,420,420,420,420,420,420,420,470,428,0,0,0,0,0,0,420,420,420,420,420,420,420,420,420,420,470,0,437,0,0,0,0,435,437,0,435,0,0,0,
0,0,0,0,1042,1086,0,0,0,0,0,0,1101,0,0,0,1053,1053,0,0,0,0,0,0,0,0,0,0,0,0,0,0,0,0,0,0,0,0,0,0,0,0,0,0,0,0,0,0,0,0,0,0,0,0,0,0,0,0,0,0,1101,0,1103,0,0,0,1058,0,0,0,0,0,0,0,0,0,0,0,0,0,0,0,0,0,1090,420,421,0,0,0,0,0,0,0,419,420,470,0,0,0,0,0,0,0,0,0,0,0,0,0,0,0,0,0,0,0,0,0,0,0,428,0,0,0,0,0,0,0,0,0,0,0,0,0,0,0,0,0,0,0,0,0,0,0,0,0,0,0,0,0,0,0,437,0,0,0,0,435,437,0,435,0,0,0,
0,0,0,0,2684355595,0,0,0,0,0,0,0,1610613770,0,0,0,1103,0,0,0,0,0,0,0,0,0,0,0,0,0,0,0,0,0,0,0,0,0,0,0,0,0,0,0,0,0,0,0,0,0,0,0,0,0,0,0,0,0,0,0,1101,0,1103,0,0,0,0,0,0,0,0,0,0,0,0,0,0,0,0,0,0,0,0,0,1101,0,466,421,0,0,0,0,0,0,435,0,0,0,0,0,0,0,0,0,0,0,0,0,0,0,0,0,0,0,0,0,0,0,0,0,0,0,0,0,0,0,0,0,0,0,402,452,452,452,452,452,406,402,452,452,452,452,452,452,452,452,452,452,452,406,0,0,0,425,0,0,0,435,437,0,435,0,0,0,
0,0,0,0,1103,0,1058,0,0,0,0,0,1101,0,0,0,1103,0,0,0,0,0,0,0,0,0,0,0,0,0,0,0,0,0,0,0,0,0,0,0,0,0,0,0,0,0,0,0,0,0,0,0,0,0,0,0,0,1090,1091,1091,1042,0,2147484690,1092,0,0,0,0,0,0,0,0,0,0,0,1087,1034,1035,1035,1034,1034,1035,1035,1091,1042,0,0,466,420,420,1091,1035,1091,420,470,0,0,0,0,0,0,0,0,0,0,0,0,0,0,0,0,0,0,0,0,0,0,0,0,0,0,0,0,0,0,0,0,0,0,402,453,0,0,0,0,0,451,453,0,0,0,0,0,0,0,0,0,0,0,451,406,0,437,0,0,0,0,435,437,0,435,0,0,0,
0,0,0,0,1103,0,0,0,0,0,0,0,1101,0,0,0,1053,1053,0,256,257,258,0,0,0,0,0,0,0,0,0,0,0,0,0,0,0,0,1040,1040,0,0,0,0,0,0,0,0,0,0,0,0,0,0,0,0,0,2147484762,1113,1113,1113,1113,1113,1114,0,0,0,0,0,0,0,0,0,0,0,1610613770,0,0,0,0,0,0,0,0,0,0,0,0,0,0,0,0,0,0,0,0,0,0,0,0,0,0,0,0,0,0,0,0,0,0,0,0,0,428,0,0,0,0,0,0,0,0,0,0,0,0,0,0,0,437,0,0,0,0,0,0,0,0,0,0,0,0,0,0,0,0,0,0,0,0,435,0,466,420,420,420,420,470,437,0,435,0,0,0,
0,0,0,0,2684355595,0,0,0,0,0,0,0,1101,1068,0,0,1103,0,0,0,0,0,0,0,0,0,1053,1053,0,0,0,0,0,0,0,0,0,0,0,0,0,0,0,0,0,0,0,0,0,0,0,0,0,0,0,0,0,0,0,0,0,0,0,0,0,0,0,0,0,0,0,0,0,0,0,1610613770,0,0,0,0,0,0,0,0,0,0,0,0,0,0,0,0,0,0,0,0,0,0,0,0,0,0,0,0,0,0,0,0,0,0,402,452,452,452,452,452,452,452,452,452,452,406,0,0,0,0,0,0,0,437,0,0,0,0,0,0,0,0,0,0,0,0,0,0,0,0,0,0,0,0,451,452,452,452,452,452,452,452,453,0,435,0,0,0,
0,0,0,0,2684355595,0,0,0,256,257,258,0,1610613770,0,0,0,1103,0,0,0,0,0,0,0,0,0,0,0,0,0,0,0,0,0,0,0,0,0,0,0,0,0,0,0,0,1053,1053,1053,0,0,0,0,0,1041,1040,1040,0,0,0,0,0,0,0,0,0,0,1040,1041,1040,0,0,0,0,1087,1034,1042,0,0,0,0,0,0,0,0,0,0,0,0,0,0,0,0,0,0,0,0,0,0,0,0,0,0,0,0,0,0,0,0,0,402,453,0,0,0,0,0,0,0,0,0,0,451,406,0,0,0,0,0,0,437,0,0,0,0,0,0,0,0,0,0,0,0,0,0,0,0,0,0,0,0,0,0,0,0,0,0,0,0,0,0,435,0,0,0,
0,0,0,0,1038,1034,1089,0,0,0,0,0,1610613770,0,0,0,1053,1053,0,0,0,0,0,0,0,0,0,0,0,0,0,0,1040,1040,0,0,0,0,0,0,0,0,0,0,0,0,0,0,0,0,0,0,0,0,0,0,0,0,0,0,0,0,0,0,0,0,0,0,0,0,0,0,0,1610613770,0,0,0,0,0,0,0,0,0,0,0,0,0,0,0,0,0,0,0,0,0,0,0,0,0,0,0,0,0,0,0,0,0,0,0,437,0,0,0,0,0,0,0,0,0,0,0,0,451,452,452,452,452,452,452,453,0,0,0,0,0,0,0,0,0,0,0,0,0,0,0,0,0,0,0,0,0,0,0,0,0,0,0,0,0,0,435,0,0,0,
0,0,0,0,0,0,2684355594,0,0,0,0,0,1610613770,0,0,0,218,0,0,0,0,0,0,0,0,0,0,0,0,0,0,0,0,0,0,0,0,0,0,0,0,0,0,0,0,0,0,0,0,0,0,0,0,0,0,0,0,0,0,0,0,0,0,0,0,0,0,0,0,0,0,0,0,1610613771,0,0,0,0,0,0,0,0,0,0,0,0,0,0,0,0,0,0,0,0,0,0,0,0,0,0,0,0,0,0,0,0,0,0,0,437,0,0,0,0,0,0,0,0,0,0,0,0,0,0,0,0,0,0,0,0,0,0,419,420,421,0,0,0,0,0,0,0,0,0,0,0,0,0,0,0,0,0,0,0,0,0,0,0,0,0,435,0,0,0,
0,0,0,0,0,0,1038,1034,1033,1033,1033,1034,1042,0,0,0,2147484690,1091,1035,1034,1034,1034,1034,1033,1033,1034,1035,1034,1033,1033,1033,1033,1034,1033,1033,1033,1033,1033,1033,1034,1033,1034,1035,1035,1034,1033,1033,1034,1033,1033,1033,1033,1034,1034,1034,1034,1034,1034,1033,1033,1034,1033,1034,1034,1033,1033,1033,1035,1035,1034,1034,1033,1033,1042,0,0,0,0,0,0,0,0,0,0,0,0,0,0,0,0,0,0,0,0,0,0,0,0,0,0,0,0,0,0,0,0,0,0,0,466,420,420,420,420,420,420,420,420,420,420,420,420,420,420,420,420,420,420,420,420,420,420,470,0,466,420,420,420,420,420,420,420,420,420,420,420,420,420,420,420,420,420,420,420,420,420,420,420,420,420,470,0,0,0,
0,0,0,0,0,0,0,0,0,0,0,0,0,0,0,0,0,0,0,0,0,0,0,0,0,0,0,0,0,0,0,0,0,0,0,0,0,0,0,0,0,0,0,0,0,0,0,0,0,0,0,0,0,0,0,0,0,0,0,0,0,0,0,0,0,0,0,0,0,0,0,0,0,0,0,0,0,0,0,0,0,0,0,0,0,0,0,0,0,0,0,0,0,0,0,0,0,0,0,0,0,0,0,0,0,0,0,0,0,0,0,0,0,0,0,0,0,0,0,0,0,0,0,0,0,0,0,0,0,0,0,0,0,0,0,0,0,0,0,0,0,0,0,0,0,0,0,0,0,428,0,0,0,0,0,0,0,0,0,0,0,0,0,0
</data>
 </layer>
 <objectgroup id="9" name="Exit">
  <object id="1580" gid="57" x="1632" y="96" width="16" height="16"/>
 </objectgroup>
 <objectgroup id="13" name="CypherStatues">
  <object id="1538" type="statue6" gid="1600" x="640" y="112" width="16" height="32"/>
  <object id="1539" type="statue3" gid="1601" x="368" y="272" width="16" height="32"/>
  <object id="1540" type="statue4" gid="1602" x="784" y="432" width="16" height="32"/>
  <object id="1541" type="statue2" gid="1603" x="640" y="480" width="16" height="32"/>
  <object id="1542" type="statue5" gid="1604" x="496" y="432" width="16" height="32"/>
  <object id="1543" type="statue1" gid="1605" x="912" y="272" width="16" height="32"/>
 </objectgroup>
 <objectgroup id="12" name="EnemySpawns">
  <object id="978" name="Normal" type="Ground" x="928" y="736">
   <properties>
    <property name="patrolMax" type="int" value="300"/>
    <property name="patrolMin" value="100"/>
   </properties>
   <point/>
  </object>
  <object id="980" name="Normal" type="Ground" x="1680" y="544">
   <properties>
    <property name="patrolMax" type="int" value="300"/>
    <property name="patrolMin" value="100"/>
   </properties>
   <point/>
  </object>
  <object id="981" name="Water" type="Ground" x="224" y="1664">
   <properties>
    <property name="patrolMax" type="int" value="300"/>
    <property name="patrolMin" value="100"/>
   </properties>
   <point/>
  </object>
  <object id="982" name="Water" type="Ground" x="464" y="1584">
   <properties>
    <property name="patrolMax" type="int" value="300"/>
    <property name="patrolMin" value="100"/>
   </properties>
   <point/>
  </object>
  <object id="983" name="Normal" type="Ground" x="432" y="736">
   <properties>
    <property name="patrolMax" type="int" value="300"/>
    <property name="patrolMin" value="100"/>
   </properties>
   <point/>
  </object>
  <object id="984" name="Normal" type="Ground" x="1024" y="128">
   <properties>
    <property name="patrolMax" type="int" value="300"/>
    <property name="patrolMin" value="100"/>
   </properties>
   <point/>
  </object>
  <object id="985" name="Normal" type="Ground" x="1424" y="1440">
   <properties>
    <property name="patrolMax" type="int" value="300"/>
    <property name="patrolMin" value="100"/>
   </properties>
   <point/>
  </object>
  <object id="986" name="Water" type="Ground" x="1264" y="1792">
   <properties>
    <property name="patrolMax" type="int" value="300"/>
    <property name="patrolMin" value="100"/>
   </properties>
   <point/>
  </object>
  <object id="987" name="Normal" type="Ground" x="2464" y="1888">
   <properties>
    <property name="patrolMax" type="int" value="300"/>
    <property name="patrolMin" value="100"/>
   </properties>
   <point/>
  </object>
  <object id="988" name="Normal" type="Ground" x="2272" y="544">
   <properties>
    <property name="patrolMax" type="int" value="300"/>
    <property name="patrolMin" value="100"/>
   </properties>
   <point/>
  </object>
  <object id="989" name="Normal" type="Ground" x="2160" y="272">
   <properties>
    <property name="patrolMax" type="int" value="300"/>
    <property name="patrolMin" value="100"/>
   </properties>
   <point/>
  </object>
  <object id="991" name="Normal" type="Ground" x="2080" y="160">
   <properties>
    <property name="patrolMax" type="int" value="300"/>
    <property name="patrolMin" value="100"/>
   </properties>
   <point/>
  </object>
  <object id="992" name="Normal" type="Ground" x="2304" y="160">
   <properties>
    <property name="patrolMax" type="int" value="300"/>
    <property name="patrolMin" value="100"/>
   </properties>
   <point/>
  </object>
  <object id="994" name="Water" type="Flying" x="688" y="1824">
   <point/>
  </object>
  <object id="995" name="Water" type="Flying" x="528" y="1808">
   <point/>
  </object>
  <object id="996" name="Water" type="Flying" x="480" y="1312">
   <point/>
  </object>
  <object id="997" name="Normal" type="Flying" x="320" y="1072">
   <point/>
  </object>
  <object id="998" name="Normal" type="Flying" x="1168" y="544">
   <point/>
  </object>
  <object id="999" name="Normal" type="Flying" x="1648" y="240">
   <point/>
  </object>
  <object id="1000" name="Normal" type="Flying" x="1728" y="336">
   <point/>
  </object>
  <object id="1001" name="Normal" type="Flying" x="1792" y="848">
   <point/>
  </object>
  <object id="1004" name="Normal" type="Flying" x="2256" y="848">
   <point/>
  </object>
  <object id="1005" name="Normal" type="Flying" x="2432" y="560">
   <point/>
  </object>
  <object id="1006" name="Normal" type="Flying" x="2480" y="288">
   <point/>
  </object>
  <object id="1007" name="Normal" type="Flying" x="1200" y="944">
   <point/>
  </object>
  <object id="1008" name="Normal" type="Flying" x="192" y="800">
   <point/>
  </object>
  <object id="1009" name="Water" type="Flying" x="336" y="1312">
   <point/>
  </object>
  <object id="1010" name="Water" type="Flying" x="816" y="1824">
   <point/>
  </object>
  <object id="1012" name="Normal" type="Flying" x="1632" y="1184">
   <point/>
  </object>
  <object id="1025" name="Normal" type="Flying" x="96" y="576">
   <point/>
  </object>
  <object id="1302" name="Normal" type="Flying" x="2480" y="704">
   <point/>
  </object>
  <object id="1305" name="Water" type="Ground" x="1584" y="1632">
   <properties>
    <property name="patrolMax" type="int" value="300"/>
    <property name="patrolMin" value="100"/>
   </properties>
   <point/>
  </object>
  <object id="1313" name="Water" type="Flying" x="384" y="1792">
   <point/>
  </object>
  <object id="1314" name="Water" type="Flying" x="304" y="1520">
   <point/>
  </object>
  <object id="1315" name="Water" type="Ground" x="400" y="1296">
   <properties>
    <property name="patrolMax" type="int" value="300"/>
    <property name="patrolMin" value="100"/>
   </properties>
   <point/>
  </object>
  <object id="1319" name="Normal" type="Flying" x="304" y="608">
   <point/>
  </object>
  <object id="1544" name="Water" type="Flying" x="192" y="1456">
   <point/>
  </object>
  <object id="1545" name="Water" type="Flying" x="1040" y="1504">
   <point/>
  </object>
  <object id="1546" name="Water" type="Ground" x="896" y="1600">
   <properties>
    <property name="patrolMax" type="int" value="300"/>
    <property name="patrolMin" value="100"/>
   </properties>
   <point/>
  </object>
 </objectgroup>
 <objectgroup id="15" name="Zones" visible="0">
  <object id="1324" name="water" x="16" y="1257" width="688" height="663"/>
  <object id="1325" name="water" x="704" y="1397.75" width="656" height="522.25"/>
  <object id="1326" name="water" x="1360" y="1574" width="320" height="346"/>
  <object id="1327" name="flipG" x="1712" y="1328" width="896" height="592"/>
  <object id="1519" name="flipG" x="2528" y="1056" width="32" height="272"/>
 </objectgroup>
 <objectgroup id="7" name="Spikes">
  <object id="608" name="spike" gid="184" x="2112" y="832" width="16" height="16" rotation="-90"/>
  <object id="609" name="spike" gid="184" x="2112" y="816" width="16" height="16" rotation="-90"/>
  <object id="625" gid="184" x="1776" y="1216" width="16" height="16"/>
  <object id="626" gid="184" x="1792" y="1216" width="16" height="16"/>
  <object id="633" gid="184" x="2080" y="1216" width="16" height="16"/>
  <object id="634" gid="184" x="2096" y="1216" width="16" height="16"/>
  <object id="635" gid="184" x="2112" y="1216" width="16" height="16"/>
  <object id="637" gid="184" x="2144" y="1216" width="16" height="16"/>
  <object id="638" gid="184" x="2160" y="1200" width="16" height="16"/>
  <object id="639" gid="184" x="2176" y="1200" width="16" height="16"/>
  <object id="640" gid="184" x="2192" y="1200" width="16" height="16"/>
  <object id="642" gid="184" x="2224" y="1184" width="16" height="16"/>
  <object id="643" gid="184" x="2240" y="1168" width="16" height="16"/>
  <object id="644" gid="184" x="2240" y="1168" width="16" height="16"/>
  <object id="646" gid="184" x="2272" y="1152" width="16" height="16"/>
  <object id="647" gid="184" x="2288" y="1136" width="16" height="16"/>
  <object id="648" gid="184" x="2304" y="1120" width="16" height="16"/>
  <object id="650" gid="184" x="2336" y="1104" width="16" height="16"/>
  <object id="653" gid="184" x="2352" y="1088" width="16" height="16"/>
  <object id="654" gid="184" x="2368" y="1088" width="16" height="16"/>
  <object id="656" gid="184" x="2400" y="1072" width="16" height="16"/>
  <object id="659" gid="184" x="144" y="1888" width="16" height="16"/>
  <object id="660" gid="184" x="160" y="1888" width="16" height="16"/>
  <object id="661" gid="184" x="176" y="1888" width="16" height="16"/>
  <object id="667" gid="184" x="272" y="1888" width="16" height="16"/>
  <object id="668" gid="184" x="288" y="1888" width="16" height="16"/>
  <object id="669" gid="184" x="304" y="1888" width="16" height="16"/>
  <object id="670" gid="184" x="320" y="1888" width="16" height="16"/>
  <object id="671" gid="184" x="336" y="1888" width="16" height="16"/>
  <object id="672" gid="184" x="352" y="1888" width="16" height="16"/>
  <object id="673" gid="184" x="368" y="1888" width="16" height="16"/>
  <object id="674" gid="184" x="384" y="1888" width="16" height="16"/>
  <object id="675" gid="184" x="400" y="1888" width="16" height="16"/>
  <object id="676" gid="184" x="416" y="1888" width="16" height="16"/>
  <object id="677" gid="184" x="432" y="1888" width="16" height="16"/>
  <object id="678" gid="184" x="448" y="1888" width="16" height="16"/>
  <object id="679" gid="184" x="464" y="1888" width="16" height="16"/>
  <object id="680" gid="184" x="480" y="1888" width="16" height="16"/>
  <object id="681" gid="184" x="496" y="1888" width="16" height="16"/>
  <object id="682" gid="184" x="512" y="1888" width="16" height="16"/>
  <object id="683" gid="184" x="528" y="1888" width="16" height="16"/>
  <object id="684" gid="184" x="544" y="1888" width="16" height="16"/>
  <object id="685" gid="184" x="560" y="1888" width="16" height="16"/>
  <object id="686" gid="184" x="576" y="1888" width="16" height="16"/>
  <object id="687" gid="184" x="592" y="1888" width="16" height="16"/>
  <object id="688" gid="184" x="608" y="1888" width="16" height="16"/>
  <object id="689" gid="184" x="624" y="1888" width="16" height="16"/>
  <object id="690" gid="184" x="640" y="1888" width="16" height="16"/>
  <object id="691" gid="184" x="656" y="1888" width="16" height="16"/>
  <object id="692" gid="184" x="672" y="1888" width="16" height="16"/>
  <object id="693" gid="184" x="688" y="1888" width="16" height="16"/>
  <object id="694" gid="184" x="704" y="1888" width="16" height="16"/>
  <object id="695" gid="184" x="720" y="1888" width="16" height="16"/>
  <object id="696" gid="184" x="736" y="1888" width="16" height="16"/>
  <object id="697" gid="184" x="752" y="1888" width="16" height="16"/>
  <object id="698" gid="184" x="768" y="1888" width="16" height="16"/>
  <object id="699" gid="184" x="784" y="1888" width="16" height="16"/>
  <object id="700" gid="184" x="800" y="1888" width="16" height="16"/>
  <object id="701" gid="184" x="816" y="1888" width="16" height="16"/>
  <object id="702" gid="184" x="832" y="1888" width="16" height="16"/>
  <object id="703" gid="184" x="848" y="1888" width="16" height="16"/>
  <object id="704" gid="184" x="864" y="1888" width="16" height="16"/>
  <object id="705" gid="184" x="880" y="1888" width="16" height="16"/>
  <object id="706" gid="184" x="896" y="1888" width="16" height="16"/>
  <object id="707" gid="184" x="912" y="1888" width="16" height="16"/>
  <object id="708" gid="184" x="928" y="1888" width="16" height="16"/>
  <object id="709" gid="184" x="944" y="1888" width="16" height="16"/>
  <object id="710" gid="184" x="960" y="1888" width="16" height="16"/>
  <object id="711" gid="184" x="976" y="1888" width="16" height="16"/>
  <object id="712" gid="184" x="992" y="1888" width="16" height="16"/>
  <object id="713" gid="184" x="1008" y="1888" width="16" height="16"/>
  <object id="714" gid="184" x="1024" y="1888" width="16" height="16"/>
  <object id="715" gid="184" x="1040" y="1888" width="16" height="16"/>
  <object id="716" gid="184" x="1056" y="1888" width="16" height="16"/>
  <object id="717" gid="184" x="1072" y="1888" width="16" height="16"/>
  <object id="718" gid="184" x="1088" y="1888" width="16" height="16"/>
  <object id="719" gid="184" x="1104" y="1888" width="16" height="16"/>
  <object id="720" gid="184" x="1120" y="1888" width="16" height="16"/>
  <object id="721" gid="184" x="1136" y="1888" width="16" height="16"/>
  <object id="722" gid="184" x="1152" y="1888" width="16" height="16"/>
  <object id="723" gid="184" x="1168" y="1696" width="16" height="16"/>
  <object id="724" gid="184" x="1184" y="1696" width="16" height="16"/>
  <object id="725" gid="184" x="1200" y="1696" width="16" height="16"/>
  <object id="726" gid="184" x="1216" y="1696" width="16" height="16"/>
  <object id="727" gid="184" x="1232" y="1696" width="16" height="16"/>
  <object id="728" gid="184" x="1248" y="1696" width="16" height="16"/>
  <object id="729" gid="184" x="1264" y="1696" width="16" height="16"/>
  <object id="730" gid="184" x="1280" y="1696" width="16" height="16"/>
  <object id="731" gid="184" x="1296" y="1696" width="16" height="16"/>
  <object id="732" gid="184" x="1312" y="1696" width="16" height="16"/>
  <object id="738" gid="184" x="544" y="1280" width="16" height="16" rotation="-90"/>
  <object id="739" gid="184" x="544" y="1296" width="16" height="16" rotation="-90"/>
  <object id="740" gid="184" x="544" y="1312" width="16" height="16" rotation="-90"/>
  <object id="741" gid="184" x="544" y="1328" width="16" height="16" rotation="-90"/>
  <object id="744" gid="184" x="544" y="1232" width="16" height="16" rotation="-90"/>
  <object id="745" gid="184" x="544" y="1216" width="16" height="16" rotation="-90"/>
  <object id="746" gid="184" x="544" y="1200" width="16" height="16" rotation="-90"/>
  <object id="747" gid="184" x="544" y="1184" width="16" height="16" rotation="-90"/>
  <object id="749" gid="184" x="544" y="1376" width="16" height="16" rotation="-90"/>
  <object id="750" gid="184" x="544" y="1392" width="16" height="16" rotation="-90"/>
  <object id="751" gid="184" x="544" y="1408" width="16" height="16" rotation="-90"/>
  <object id="752" gid="184" x="544" y="1424" width="16" height="16" rotation="-90"/>
  <object id="754" gid="184" x="544" y="1472" width="16" height="16" rotation="-90"/>
  <object id="755" gid="184" x="544" y="1488" width="16" height="16" rotation="-90"/>
  <object id="756" gid="184" x="544" y="1504" width="16" height="16" rotation="-90"/>
  <object id="757" gid="184" x="544" y="1520" width="16" height="16" rotation="-90"/>
  <object id="759" gid="184" x="544" y="1536" width="16" height="16" rotation="-90"/>
  <object id="768" gid="184" x="112" y="1888" width="16" height="16"/>
  <object id="769" gid="184" x="128" y="1888" width="16" height="16"/>
  <object id="774" name="spike" gid="184" x="2112" y="864" width="16" height="16" rotation="-90"/>
  <object id="775" name="spike" gid="184" x="2112" y="848" width="16" height="16" rotation="-90"/>
  <object id="783" gid="184" x="2160" y="768" width="16" height="16" rotation="90"/>
  <object id="786" gid="184" x="2160" y="784" width="16" height="16" rotation="90"/>
  <object id="787" gid="184" x="2160" y="800" width="16" height="16" rotation="90"/>
  <object id="788" gid="184" x="2160" y="816" width="16" height="16" rotation="90"/>
  <object id="789" name="spike" gid="184" x="2112" y="736" width="16" height="16" rotation="-90"/>
  <object id="790" name="spike" gid="184" x="2112" y="768" width="16" height="16" rotation="-90"/>
  <object id="791" name="spike" gid="184" x="2112" y="752" width="16" height="16" rotation="-90"/>
  <object id="793" gid="184" x="1808" y="1216" width="16" height="16"/>
  <object id="794" gid="184" x="1824" y="1216" width="16" height="16"/>
  <object id="807" gid="184" x="2368" y="416" width="16" height="16"/>
  <object id="808" gid="184" x="2384" y="416" width="16" height="16"/>
  <object id="809" gid="184" x="2400" y="416" width="16" height="16"/>
  <object id="810" gid="184" x="2416" y="416" width="16" height="16"/>
  <object id="812" gid="184" x="2272" y="400" width="16" height="16"/>
  <object id="813" gid="184" x="2288" y="400" width="16" height="16"/>
  <object id="814" gid="184" x="2304" y="400" width="16" height="16"/>
  <object id="815" gid="184" x="2320" y="400" width="16" height="16"/>
  <object id="816" gid="1073742008" x="2032" y="240" width="16" height="16"/>
  <object id="817" gid="1073742008" x="2048" y="240" width="16" height="16"/>
  <object id="819" gid="1073742008" x="2064" y="240" width="16" height="16"/>
  <object id="820" gid="1073742008" x="2080" y="240" width="16" height="16"/>
  <object id="821" gid="1073742008" x="2096" y="240" width="16" height="16"/>
  <object id="822" gid="1073742008" x="2112" y="240" width="16" height="16"/>
  <object id="823" gid="1073742008" x="2128" y="240" width="16" height="16"/>
  <object id="824" gid="1073742008" x="2144" y="240" width="16" height="16"/>
  <object id="825" gid="1073742008" x="2160" y="240" width="16" height="16"/>
  <object id="826" gid="1073742008" x="2176" y="240" width="16" height="16"/>
  <object id="827" gid="1073742008" x="2192" y="240" width="16" height="16"/>
  <object id="828" gid="1073742008" x="2208" y="240" width="16" height="16"/>
  <object id="829" gid="1073742008" x="2224" y="240" width="16" height="16"/>
  <object id="830" gid="1073742008" x="2240" y="240" width="16" height="16"/>
  <object id="837" gid="184" x="2432" y="416" width="16" height="16"/>
  <object id="838" gid="184" x="2336" y="400" width="16" height="16"/>
  <object id="839" gid="184" x="2160" y="384" width="16" height="16"/>
  <object id="840" gid="184" x="2176" y="384" width="16" height="16"/>
  <object id="841" gid="184" x="2208" y="384" width="16" height="16"/>
  <object id="842" gid="184" x="2192" y="384" width="16" height="16"/>
  <object id="843" gid="184" x="2224" y="384" width="16" height="16"/>
  <object id="844" gid="184" x="2240" y="384" width="16" height="16"/>
  <object id="845" gid="1073742008" x="2256" y="240" width="16" height="16"/>
  <object id="846" gid="1073742008" x="2272" y="240" width="16" height="16"/>
  <object id="847" gid="1073742008" x="2288" y="240" width="16" height="16"/>
  <object id="848" gid="1073742008" x="2304" y="240" width="16" height="16"/>
  <object id="849" gid="1073742008" x="2320" y="240" width="16" height="16"/>
  <object id="850" gid="1073742008" x="2336" y="240" width="16" height="16"/>
  <object id="851" gid="1073742008" x="2352" y="240" width="16" height="16"/>
  <object id="852" gid="1073742008" x="2368" y="240" width="16" height="16"/>
  <object id="853" gid="1073742008" x="2384" y="240" width="16" height="16"/>
  <object id="854" gid="1073742008" x="2400" y="240" width="16" height="16"/>
  <object id="855" gid="184" x="2048" y="512" width="16" height="16"/>
  <object id="856" gid="184" x="2064" y="512" width="16" height="16"/>
  <object id="857" gid="184" x="2096" y="512" width="16" height="16"/>
  <object id="858" gid="184" x="2112" y="512" width="16" height="16"/>
  <object id="859" gid="184" x="2144" y="512" width="16" height="16"/>
  <object id="860" gid="184" x="2160" y="512" width="16" height="16"/>
  <object id="863" gid="184" x="2000" y="1216" width="16" height="16"/>
  <object id="864" gid="184" x="2016" y="1216" width="16" height="16"/>
  <object id="865" gid="184" x="1840" y="1216" width="16" height="16"/>
  <object id="866" gid="184" x="1856" y="1216" width="16" height="16"/>
  <object id="867" gid="184" x="1872" y="1216" width="16" height="16"/>
  <object id="868" gid="184" x="1888" y="1216" width="16" height="16"/>
  <object id="869" gid="184" x="1904" y="1216" width="16" height="16"/>
  <object id="870" gid="184" x="1920" y="1216" width="16" height="16"/>
  <object id="871" gid="184" x="1936" y="1216" width="16" height="16"/>
  <object id="872" gid="184" x="1952" y="1216" width="16" height="16"/>
  <object id="873" gid="184" x="1968" y="1216" width="16" height="16"/>
  <object id="874" gid="184" x="1984" y="1216" width="16" height="16"/>
  <object id="876" gid="184" x="1152" y="320" width="16" height="16" rotation="90"/>
  <object id="877" gid="184" x="1152" y="336" width="16" height="16" rotation="90"/>
  <object id="878" gid="184" x="1152" y="352" width="16" height="16" rotation="90"/>
  <object id="879" gid="184" x="1152" y="368" width="16" height="16" rotation="90"/>
  <object id="903" gid="184" x="288" y="1312" width="16" height="16" rotation="90"/>
  <object id="904" gid="184" x="288" y="1456" width="16" height="16" rotation="90"/>
  <object id="906" gid="184" x="512" y="1264" width="16" height="16" rotation="-90"/>
  <object id="907" gid="184" x="512" y="1360" width="16" height="16" rotation="-90"/>
  <object id="908" gid="184" x="512" y="1456" width="16" height="16" rotation="-90"/>
  <object id="910" gid="184" x="512" y="1168" width="16" height="16" rotation="-90"/>
  <object id="911" gid="184" x="144" y="464" width="16" height="16" rotation="90"/>
  <object id="912" gid="184" x="240" y="640" width="16" height="16" rotation="90"/>
  <object id="913" gid="184" x="240" y="576" width="16" height="16" rotation="90"/>
  <object id="914" gid="184" x="240" y="592" width="16" height="16" rotation="90"/>
  <object id="915" gid="184" x="192" y="592" width="16" height="16" rotation="-90"/>
  <object id="916" gid="184" x="1088" y="576" width="16" height="16" rotation="90"/>
  <object id="918" gid="184" x="1616" y="448" width="16" height="16" rotation="-90"/>
  <object id="919" gid="184" x="1696" y="416" width="16" height="16" rotation="-90"/>
  <object id="920" gid="184" x="1696" y="400" width="16" height="16" rotation="-90"/>
  <object id="921" gid="184" x="1744" y="384" width="16" height="16" rotation="90"/>
  <object id="923" gid="184" x="1744" y="400" width="16" height="16" rotation="90"/>
  <object id="925" gid="184" x="1136" y="480" width="16" height="16" rotation="-90"/>
  <object id="1051" gid="184" x="1776" y="1728" width="16" height="16"/>
  <object id="1052" gid="184" x="1792" y="1728" width="16" height="16"/>
  <object id="1054" gid="184" x="1728" y="1616" width="16" height="16" rotation="90"/>
  <object id="1259" gid="184" x="2128" y="512" width="16" height="16"/>
  <object id="1260" gid="184" x="2080" y="512" width="16" height="16"/>
  <object id="1311" gid="184" x="960" y="1776" width="16" height="16" rotation="-90"/>
  <object id="1312" gid="184" x="960" y="1792" width="16" height="16" rotation="-90"/>
  <object id="1330" gid="184" x="1728" y="1632" width="16" height="16" rotation="90"/>
  <object id="1331" gid="184" x="1728" y="1648" width="16" height="16" rotation="90"/>
  <object id="1332" gid="184" x="1728" y="1664" width="16" height="16" rotation="90"/>
  <object id="1333" gid="184" x="1728" y="1680" width="16" height="16" rotation="90"/>
  <object id="1334" gid="184" x="1728" y="1696" width="16" height="16" rotation="90"/>
  <object id="1335" gid="184" x="1728" y="1712" width="16" height="16" rotation="90"/>
  <object id="1336" gid="1073742008" x="1872" y="1408" width="16" height="16"/>
  <object id="1337" gid="1073742008" x="1888" y="1408" width="16" height="16"/>
  <object id="1338" gid="1073742008" x="1792" y="1408" width="16" height="16"/>
  <object id="1339" gid="1073742008" x="1808" y="1408" width="16" height="16"/>
  <object id="1340" gid="1073742008" x="1824" y="1408" width="16" height="16"/>
  <object id="1341" gid="1073742008" x="1840" y="1408" width="16" height="16"/>
  <object id="1342" gid="1073742008" x="1856" y="1408" width="16" height="16"/>
  <object id="1343" gid="1073742008" x="1936" y="1488" width="16" height="16"/>
  <object id="1344" gid="1073742008" x="1952" y="1488" width="16" height="16"/>
  <object id="1345" gid="1073742008" x="1968" y="1488" width="16" height="16"/>
  <object id="1346" gid="184" x="2016" y="1552" width="16" height="16"/>
  <object id="1347" gid="184" x="2032" y="1552" width="16" height="16"/>
  <object id="1350" gid="1073742008" x="2160" y="1424" width="16" height="16"/>
  <object id="1351" gid="1073742008" x="2176" y="1424" width="16" height="16"/>
  <object id="1352" gid="1073742008" x="2112" y="1424" width="16" height="16"/>
  <object id="1353" gid="1073742008" x="2128" y="1424" width="16" height="16"/>
  <object id="1354" gid="184" x="2112" y="1552" width="16" height="16"/>
  <object id="1355" gid="184" x="2144" y="1552" width="16" height="16"/>
  <object id="1356" gid="184" x="2176" y="1552" width="16" height="16"/>
  <object id="1369" gid="184" x="2096" y="1648" width="16" height="16"/>
  <object id="1370" gid="184" x="2112" y="1648" width="16" height="16"/>
  <object id="1371" gid="184" x="2128" y="1648" width="16" height="16"/>
  <object id="1372" gid="184" x="2144" y="1648" width="16" height="16"/>
  <object id="1373" gid="184" x="2160" y="1648" width="16" height="16"/>
  <object id="1374" gid="184" x="2176" y="1648" width="16" height="16"/>
  <object id="1375" gid="184" x="2192" y="1648" width="16" height="16"/>
  <object id="1376" gid="184" x="2112" y="1728" width="16" height="16"/>
  <object id="1383" gid="184" x="2240" y="1744" width="16" height="16"/>
  <object id="1384" gid="184" x="2256" y="1744" width="16" height="16"/>
  <object id="1385" gid="184" x="2272" y="1744" width="16" height="16"/>
  <object id="1386" gid="184" x="2288" y="1744" width="16" height="16"/>
  <object id="1387" gid="184" x="2304" y="1744" width="16" height="16"/>
  <object id="1388" gid="184" x="2320" y="1744" width="16" height="16"/>
  <object id="1389" gid="184" x="2336" y="1744" width="16" height="16"/>
  <object id="1390" gid="184" x="2352" y="1744" width="16" height="16"/>
  <object id="1391" gid="184" x="2368" y="1744" width="16" height="16"/>
  <object id="1392" gid="184" x="2384" y="1744" width="16" height="16"/>
  <object id="1393" gid="1073742008" x="2320" y="1440" width="16" height="16"/>
  <object id="1394" gid="1073742008" x="2336" y="1440" width="16" height="16"/>
  <object id="1395" gid="1073742008" x="2240" y="1440" width="16" height="16"/>
  <object id="1396" gid="1073742008" x="2256" y="1440" width="16" height="16"/>
  <object id="1397" gid="1073742008" x="2272" y="1440" width="16" height="16"/>
  <object id="1398" gid="1073742008" x="2288" y="1440" width="16" height="16"/>
  <object id="1399" gid="1073742008" x="2304" y="1440" width="16" height="16"/>
  <object id="1400" gid="1073742008" x="2352" y="1440" width="16" height="16"/>
  <object id="1401" gid="1073742008" x="2368" y="1440" width="16" height="16"/>
  <object id="1402" gid="1073742008" x="1952" y="1600" width="16" height="16"/>
  <object id="1403" gid="1073742008" x="1968" y="1600" width="16" height="16"/>
  <object id="1404" gid="1073742008" x="1984" y="1600" width="16" height="16"/>
  <object id="1405" gid="1073742008" x="1968" y="1696" width="16" height="16"/>
  <object id="1406" gid="1073742008" x="1984" y="1696" width="16" height="16"/>
  <object id="1407" gid="1073742008" x="2000" y="1696" width="16" height="16"/>
  <object id="1408" gid="1073742008" x="2016" y="1696" width="16" height="16"/>
  <object id="1409" gid="1073742008" x="2032" y="1696" width="16" height="16"/>
  <object id="1410" gid="1073742008" x="2048" y="1696" width="16" height="16"/>
  <object id="1412" gid="184" x="2032" y="1664" width="16" height="16"/>
  <object id="1413" gid="184" x="2048" y="1664" width="16" height="16"/>
  <object id="1414" gid="1073742008" x="1888" y="1600" width="16" height="16"/>
  <object id="1415" gid="1073742008" x="1904" y="1600" width="16" height="16"/>
  <object id="1426" gid="184" x="2208" y="1600" width="16" height="16"/>
  <object id="1428" gid="184" x="2240" y="1616" width="16" height="16" rotation="90"/>
  <object id="1429" gid="184" x="2240" y="1632" width="16" height="16" rotation="90"/>
  <object id="1430" gid="184" x="2240" y="1648" width="16" height="16" rotation="90"/>
  <object id="1431" gid="184" x="2240" y="1664" width="16" height="16" rotation="90"/>
  <object id="1432" gid="184" x="2240" y="1680" width="16" height="16" rotation="90"/>
  <object id="1433" gid="184" x="2240" y="1696" width="16" height="16" rotation="90"/>
  <object id="1434" gid="184" x="2240" y="1712" width="16" height="16" rotation="90"/>
  <object id="1464" gid="1073742008" x="2448" y="1584" width="16" height="16"/>
  <object id="1465" gid="184" x="2496" y="1648" width="16" height="16" rotation="-90"/>
  <object id="1466" gid="1073742008" x="2496" y="1472" width="16" height="16"/>
  <object id="1467" gid="1073742008" x="2512" y="1472" width="16" height="16"/>
  <object id="1468" gid="1073742008" x="2432" y="1472" width="16" height="16"/>
  <object id="1469" gid="1073742008" x="2448" y="1472" width="16" height="16"/>
  <object id="1470" gid="1073742008" x="2464" y="1472" width="16" height="16"/>
  <object id="1471" gid="1073742008" x="2480" y="1472" width="16" height="16"/>
  <object id="1472" gid="1073742008" x="2528" y="1472" width="16" height="16"/>
  <object id="1475" gid="1073742008" x="2432" y="1584" width="16" height="16"/>
  <object id="1476" gid="184" x="2432" y="1552" width="16" height="16"/>
  <object id="1477" gid="184" x="2448" y="1552" width="16" height="16"/>
  <object id="1496" gid="184" x="2496" y="1712" width="16" height="16" rotation="-90"/>
  <object id="1499" gid="184" x="2464" y="1776" width="16" height="16" rotation="90"/>
  <object id="1504" gid="1073742008" x="2208" y="1808" width="16" height="16"/>
  <object id="1505" gid="1073742008" x="2224" y="1808" width="16" height="16"/>
  <object id="1506" gid="1073742008" x="2240" y="1808" width="16" height="16"/>
  <object id="1509" gid="1073742008" x="2336" y="1808" width="16" height="16"/>
  <object id="1510" gid="1073742008" x="2352" y="1808" width="16" height="16"/>
  <object id="1511" gid="1073742008" x="2368" y="1808" width="16" height="16"/>
  <object id="1512" gid="184" x="2256" y="1888" width="16" height="16"/>
  <object id="1513" gid="184" x="2272" y="1888" width="16" height="16"/>
  <object id="1514" gid="184" x="2288" y="1888" width="16" height="16"/>
  <object id="1515" gid="184" x="2304" y="1888" width="16" height="16"/>
  <object id="1516" gid="184" x="2320" y="1888" width="16" height="16"/>
  <object id="1517" gid="184" x="1984" y="1552" width="16" height="16"/>
  <object id="1518" gid="184" x="2000" y="1552" width="16" height="16"/>
  <object id="1547" gid="1073742008" x="368" y="1760" width="16" height="16"/>
  <object id="1548" gid="1073742008" x="384" y="1760" width="16" height="16"/>
  <object id="1549" gid="1073742008" x="400" y="1760" width="16" height="16"/>
  <object id="1550" gid="1073742008" x="416" y="1760" width="16" height="16"/>
  <object id="1551" gid="1073742008" x="432" y="1760" width="16" height="16"/>
  <object id="1552" gid="1073742008" x="448" y="1760" width="16" height="16"/>
  <object id="1553" gid="1073742008" x="464" y="1760" width="16" height="16"/>
  <object id="1554" gid="1073742008" x="480" y="1760" width="16" height="16"/>
  <object id="1555" gid="1073742008" x="496" y="1760" width="16" height="16"/>
  <object id="1556" gid="1073742008" x="512" y="1760" width="16" height="16"/>
  <object id="1557" gid="1073742008" x="528" y="1760" width="16" height="16"/>
  <object id="1558" gid="1073742008" x="544" y="1760" width="16" height="16"/>
  <object id="1559" gid="1073742008" x="560" y="1760" width="16" height="16"/>
  <object id="1560" gid="1073742008" x="576" y="1760" width="16" height="16"/>
  <object id="1561" gid="1073742008" x="592" y="1760" width="16" height="16"/>
  <object id="1562" gid="1073742008" x="608" y="1760" width="16" height="16"/>
  <object id="1563" gid="1073742008" x="624" y="1760" width="16" height="16"/>
  <object id="1564" gid="1073742008" x="640" y="1760" width="16" height="16"/>
  <object id="1565" gid="1073742008" x="656" y="1760" width="16" height="16"/>
  <object id="1566" gid="1073742008" x="672" y="1760" width="16" height="16"/>
  <object id="1567" gid="1073742008" x="688" y="1760" width="16" height="16"/>
  <object id="1568" gid="1073742008" x="704" y="1760" width="16" height="16"/>
  <object id="1569" gid="1073742008" x="720" y="1760" width="16" height="16"/>
  <object id="1570" gid="1073742008" x="736" y="1760" width="16" height="16"/>
  <object id="1571" gid="1073742008" x="752" y="1760" width="16" height="16"/>
  <object id="1572" gid="1073742008" x="768" y="1760" width="16" height="16"/>
  <object id="1573" gid="1073742008" x="784" y="1760" width="16" height="16"/>
  <object id="1574" gid="1073742008" x="800" y="1760" width="16" height="16"/>
  <object id="1575" gid="1073742008" x="816" y="1760" width="16" height="16"/>
  <object id="1576" gid="1073742008" x="832" y="1760" width="16" height="16"/>
 </objectgroup>
 <objectgroup id="6" name="Coins">
  <object id="577" name="coin" gid="3" x="672" y="1664" width="16" height="16"/>
  <object id="578" name="coin" gid="3" x="688" y="1680" width="16" height="16"/>
  <object id="579" name="coin" gid="3" x="592" y="1680" width="16" height="16"/>
  <object id="580" name="coin" gid="3" x="608" y="1680" width="16" height="16"/>
  <object id="584" name="coin" gid="3" x="576" y="1664" width="16" height="16"/>
  <object id="585" name="coin" gid="3" x="576" y="1680" width="16" height="16"/>
  <object id="586" name="coin" gid="3" x="624" y="1680" width="16" height="16"/>
  <object id="587" name="coin" gid="3" x="656" y="1680" width="16" height="16"/>
  <object id="588" name="coin" gid="3" x="672" y="1680" width="16" height="16"/>
  <object id="589" name="coin" gid="3" x="1328" y="1296" width="16" height="16"/>
  <object id="590" name="coin" gid="3" x="1344" y="1296" width="16" height="16"/>
  <object id="591" name="coin" gid="3" x="1360" y="1296" width="16" height="16"/>
  <object id="592" name="coin" gid="3" x="592" y="1664" width="16" height="16"/>
  <object id="593" name="coin" gid="3" x="608" y="1664" width="16" height="16"/>
  <object id="594" name="coin" gid="3" x="624" y="1664" width="16" height="16"/>
  <object id="595" name="coin" gid="3" x="640" y="1664" width="16" height="16"/>
  <object id="596" name="coin" gid="3" x="656" y="1664" width="16" height="16"/>
  <object id="597" name="coin" gid="3" x="560" y="1680" width="16" height="16"/>
  <object id="598" name="coin" gid="3" x="640" y="1680" width="16" height="16"/>
  <object id="733" name="coin" gid="3" x="1328" y="1280" width="16" height="16"/>
  <object id="734" name="coin" gid="3" x="1344" y="1280" width="16" height="16"/>
  <object id="735" name="coin" gid="3" x="1360" y="1280" width="16" height="16"/>
  <object id="736" name="coin" gid="3" x="1376" y="1280" width="16" height="16"/>
  <object id="737" name="coin" gid="3" x="1376" y="1296" width="16" height="16"/>
  <object id="764" name="coin" gid="3" x="1216" y="1584" width="16" height="16"/>
  <object id="765" name="coin" gid="3" x="1232" y="1584" width="16" height="16"/>
  <object id="766" name="coin" gid="3" x="1248" y="1584" width="16" height="16"/>
  <object id="767" name="coin" gid="3" x="1264" y="1584" width="16" height="16"/>
  <object id="770" name="coin" gid="3" x="880" y="1472" width="16" height="16"/>
  <object id="771" name="coin" gid="3" x="896" y="1472" width="16" height="16"/>
  <object id="772" name="coin" gid="3" x="912" y="1472" width="16" height="16"/>
  <object id="773" name="coin" gid="3" x="928" y="1472" width="16" height="16"/>
  <object id="799" name="coin" gid="3" x="1536" y="224" width="16" height="16"/>
  <object id="800" name="coin" gid="3" x="1552" y="224" width="16" height="16"/>
  <object id="801" name="coin" gid="3" x="1568" y="224" width="16" height="16"/>
  <object id="802" name="coin" gid="3" x="1584" y="224" width="16" height="16"/>
  <object id="831" name="coin" gid="3" x="1936" y="288" width="16" height="16"/>
  <object id="832" name="coin" gid="3" x="1952" y="288" width="16" height="16"/>
  <object id="833" name="coin" gid="3" x="1936" y="272" width="16" height="16"/>
  <object id="834" name="coin" gid="3" x="1952" y="272" width="16" height="16"/>
  <object id="835" name="coin" gid="3" x="1936" y="256" width="16" height="16"/>
  <object id="836" name="coin" gid="3" x="1952" y="256" width="16" height="16"/>
  <object id="861" name="coin" gid="3" x="1936" y="304" width="16" height="16"/>
  <object id="862" name="coin" gid="3" x="1952" y="304" width="16" height="16"/>
  <object id="882" name="coin" gid="3" x="400" y="1568" width="16" height="16"/>
  <object id="883" name="coin" gid="3" x="416" y="1568" width="16" height="16"/>
  <object id="884" name="coin" gid="3" x="432" y="1568" width="16" height="16"/>
  <object id="885" name="coin" gid="3" x="128" y="1840" width="16" height="16"/>
  <object id="886" name="coin" gid="3" x="144" y="1840" width="16" height="16"/>
  <object id="887" name="coin" gid="3" x="160" y="1840" width="16" height="16"/>
  <object id="888" name="coin" gid="3" x="448" y="1568" width="16" height="16"/>
  <object id="889" name="coin" gid="3" x="464" y="1568" width="16" height="16"/>
  <object id="890" name="coin" gid="3" x="480" y="1568" width="16" height="16"/>
  <object id="891" name="coin" gid="3" x="176" y="736" width="16" height="16"/>
  <object id="892" name="coin" gid="3" x="192" y="736" width="16" height="16"/>
  <object id="893" name="coin" gid="3" x="208" y="736" width="16" height="16"/>
  <object id="894" name="coin" gid="3" x="224" y="736" width="16" height="16"/>
  <object id="895" name="coin" gid="3" x="240" y="736" width="16" height="16"/>
  <object id="897" name="coin" gid="3" x="112" y="400" width="16" height="16"/>
  <object id="898" name="coin" gid="3" x="128" y="400" width="16" height="16"/>
  <object id="899" name="coin" gid="3" x="144" y="400" width="16" height="16"/>
  <object id="900" name="coin" gid="3" x="160" y="400" width="16" height="16"/>
  <object id="901" name="coin" gid="3" x="176" y="400" width="16" height="16"/>
  <object id="926" name="coin" gid="3" x="2128" y="1472" width="16" height="16"/>
  <object id="927" name="coin" gid="3" x="2144" y="1472" width="16" height="16"/>
  <object id="928" name="coin" gid="3" x="1600" y="752" width="16" height="16"/>
  <object id="929" name="coin" gid="3" x="1616" y="752" width="16" height="16"/>
  <object id="930" name="coin" gid="3" x="1600" y="768" width="16" height="16"/>
  <object id="931" name="coin" gid="3" x="1616" y="768" width="16" height="16"/>
  <object id="932" name="coin" gid="3" x="1600" y="784" width="16" height="16"/>
  <object id="933" name="coin" gid="3" x="1616" y="784" width="16" height="16"/>
  <object id="943" name="coin" gid="3" x="1104" y="112" width="16" height="16"/>
  <object id="944" name="coin" gid="3" x="1120" y="112" width="16" height="16"/>
  <object id="945" name="coin" gid="3" x="1136" y="112" width="16" height="16"/>
  <object id="946" name="coin" gid="3" x="1104" y="128" width="16" height="16"/>
  <object id="947" name="coin" gid="3" x="1120" y="128" width="16" height="16"/>
  <object id="948" name="coin" gid="3" x="1136" y="128" width="16" height="16"/>
  <object id="949" name="coin" gid="3" x="1152" y="112" width="16" height="16"/>
  <object id="950" name="coin" gid="3" x="1152" y="128" width="16" height="16"/>
  <object id="951" name="coin" gid="3" x="1712" y="256" width="16" height="16"/>
  <object id="952" name="coin" gid="3" x="1696" y="256" width="16" height="16"/>
  <object id="954" name="coin" gid="3" x="2112" y="704" width="16" height="16"/>
  <object id="956" name="coin" gid="3" x="2128" y="704" width="16" height="16"/>
  <object id="958" name="coin" gid="3" x="2144" y="704" width="16" height="16"/>
  <object id="959" name="coin" gid="3" x="2432" y="1888" width="16" height="16"/>
  <object id="960" name="coin" gid="3" x="2416" y="1888" width="16" height="16"/>
  <object id="962" name="coin" gid="3" x="2400" y="1888" width="16" height="16"/>
  <object id="1013" name="coin" gid="3" x="2352" y="384" width="16" height="16"/>
  <object id="1014" name="coin" gid="3" x="2256" y="368" width="16" height="16"/>
  <object id="1015" name="coin" gid="3" x="2448" y="400" width="16" height="16"/>
  <object id="1017" name="coin" gid="3" x="1360" y="1760" width="16" height="16"/>
  <object id="1018" name="coin" gid="3" x="1344" y="1760" width="16" height="16"/>
  <object id="1020" name="coin" gid="3" x="1376" y="1760" width="16" height="16"/>
  <object id="1021" name="coin" gid="3" x="1280" y="1664" width="16" height="16"/>
  <object id="1022" name="coin" gid="3" x="1200" y="1664" width="16" height="16"/>
  <object id="1023" name="coin" gid="3" x="400" y="1280" width="16" height="16"/>
  <object id="1024" name="coin" gid="3" x="384" y="1280" width="16" height="16"/>
  <object id="1026" name="coin" gid="3" x="1536" y="208" width="16" height="16"/>
  <object id="1027" name="coin" gid="3" x="1552" y="208" width="16" height="16"/>
  <object id="1028" name="coin" gid="3" x="1568" y="208" width="16" height="16"/>
  <object id="1029" name="coin" gid="3" x="1584" y="208" width="16" height="16"/>
  <object id="1030" name="coin" gid="3" x="1168" y="384" width="16" height="16"/>
  <object id="1031" name="coin" gid="3" x="1184" y="384" width="16" height="16"/>
  <object id="1032" name="coin" gid="3" x="1088" y="256" width="16" height="16"/>
  <object id="1033" name="coin" gid="3" x="1104" y="256" width="16" height="16"/>
  <object id="1040" name="coin" gid="3" x="2160" y="1504" width="16" height="16"/>
  <object id="1041" name="coin" gid="3" x="2160" y="1488" width="16" height="16"/>
  <object id="1042" name="coin" gid="3" x="2160" y="1472" width="16" height="16"/>
  <object id="1043" name="coin" gid="3" x="1776" y="1696" width="16" height="16"/>
  <object id="1044" name="coin" gid="3" x="1792" y="1696" width="16" height="16"/>
  <object id="1045" name="coin" gid="3" x="1808" y="1696" width="16" height="16"/>
  <object id="1046" name="coin" gid="3" x="1760" y="1696" width="16" height="16"/>
  <object id="1047" name="coin" gid="3" x="2128" y="1488" width="16" height="16"/>
  <object id="1048" name="coin" gid="3" x="2128" y="1504" width="16" height="16"/>
  <object id="1049" name="coin" gid="3" x="2144" y="1488" width="16" height="16"/>
  <object id="1050" name="coin" gid="3" x="2144" y="1504" width="16" height="16"/>
  <object id="1261" name="coin" gid="3" x="1936" y="128" width="16" height="16"/>
  <object id="1262" name="coin" gid="3" x="1920" y="96" width="16" height="16"/>
  <object id="1263" name="coin" gid="3" x="1904" y="96" width="16" height="16"/>
  <object id="1264" name="coin" gid="3" x="1888" y="96" width="16" height="16"/>
  <object id="1265" name="coin" gid="3" x="2288" y="528" width="16" height="16"/>
  <object id="1266" name="coin" gid="3" x="2304" y="528" width="16" height="16"/>
  <object id="1267" name="coin" gid="3" x="2320" y="528" width="16" height="16"/>
  <object id="1274" name="coin" gid="3" x="608" y="1792" width="16" height="16"/>
  <object id="1275" name="coin" gid="3" x="624" y="1792" width="16" height="16"/>
  <object id="1276" name="coin" gid="3" x="512" y="1840" width="16" height="16"/>
  <object id="1277" name="coin" gid="3" x="528" y="1840" width="16" height="16"/>
  <object id="1278" name="coin" gid="3" x="272" y="1760" width="16" height="16"/>
  <object id="1279" name="coin" gid="3" x="272" y="1744" width="16" height="16"/>
  <object id="1280" name="coin" gid="3" x="272" y="1728" width="16" height="16"/>
  <object id="1281" name="coin" gid="3" x="272" y="1712" width="16" height="16"/>
  <object id="1282" name="coin" gid="3" x="144" y="1824" width="16" height="16"/>
  <object id="1283" name="coin" gid="3" x="160" y="1824" width="16" height="16"/>
  <object id="1284" name="coin" gid="3" x="128" y="1824" width="16" height="16"/>
  <object id="1285" name="coin" gid="3" x="480" y="1504" width="16" height="16"/>
  <object id="1286" name="coin" gid="3" x="1616" y="1360" width="16" height="16"/>
  <object id="1287" name="coin" gid="3" x="1632" y="1360" width="16" height="16"/>
  <object id="1288" name="coin" gid="3" x="1312" y="544" width="16" height="16"/>
  <object id="1289" name="coin" gid="3" x="1328" y="544" width="16" height="16"/>
  <object id="1290" name="coin" gid="3" x="1424" y="544" width="16" height="16"/>
  <object id="1291" name="coin" gid="3" x="1440" y="544" width="16" height="16"/>
  <object id="1292" name="coin" gid="3" x="1296" y="544" width="16" height="16"/>
  <object id="1293" name="coin" gid="3" x="1456" y="544" width="16" height="16"/>
  <object id="1295" name="coin" gid="3" x="1136" y="1584" width="16" height="16"/>
  <object id="1296" name="coin" gid="3" x="1136" y="1600" width="16" height="16"/>
  <object id="1297" name="coin" gid="3" x="1136" y="1568" width="16" height="16"/>
  <object id="1298" name="coin" gid="3" x="1056" y="1760" width="16" height="16"/>
  <object id="1299" name="coin" gid="3" x="1248" y="1776" width="16" height="16"/>
  <object id="1300" name="coin" gid="3" x="1264" y="1776" width="16" height="16"/>
  <object id="1301" name="coin" gid="3" x="1280" y="1776" width="16" height="16"/>
  <object id="1303" name="coin" gid="3" x="2480" y="768" width="16" height="16"/>
  <object id="1304" name="coin" gid="3" x="2496" y="768" width="16" height="16"/>
  <object id="1306" name="coin" gid="3" x="1552" y="1616" width="16" height="16"/>
  <object id="1307" name="coin" gid="3" x="1568" y="1616" width="16" height="16"/>
  <object id="1308" name="coin" gid="3" x="1584" y="1616" width="16" height="16"/>
  <object id="1309" name="coin" gid="3" x="1600" y="1616" width="16" height="16"/>
  <object id="1316" name="coin" gid="3" x="416" y="1280" width="16" height="16"/>
  <object id="1317" name="coin" gid="3" x="368" y="1280" width="16" height="16"/>
  <object id="1361" name="coin" gid="3" x="1776" y="1648" width="16" height="16"/>
  <object id="1362" name="coin" gid="3" x="1792" y="1648" width="16" height="16"/>
  <object id="1363" name="coin" gid="3" x="1808" y="1648" width="16" height="16"/>
  <object id="1364" name="coin" gid="3" x="1760" y="1648" width="16" height="16"/>
  <object id="1377" name="coin" gid="3" x="2144" y="1696" width="16" height="16"/>
  <object id="1378" name="coin" gid="3" x="2160" y="1728" width="16" height="16"/>
  <object id="1379" name="coin" gid="3" x="2160" y="1712" width="16" height="16"/>
  <object id="1380" name="coin" gid="3" x="2160" y="1696" width="16" height="16"/>
  <object id="1381" name="coin" gid="3" x="2144" y="1712" width="16" height="16"/>
  <object id="1382" name="coin" gid="3" x="2144" y="1728" width="16" height="16"/>
  <object id="1417" name="coin" gid="3" x="1936" y="1616" width="16" height="16"/>
  <object id="1418" name="coin" gid="3" x="1952" y="1616" width="16" height="16"/>
  <object id="1419" name="coin" gid="3" x="1968" y="1616" width="16" height="16"/>
  <object id="1420" name="coin" gid="3" x="1936" y="1648" width="16" height="16"/>
  <object id="1421" name="coin" gid="3" x="1952" y="1648" width="16" height="16"/>
  <object id="1422" name="coin" gid="3" x="1968" y="1648" width="16" height="16"/>
  <object id="1449" name="coin" gid="3" x="2288" y="1488" width="16" height="16"/>
  <object id="1450" name="coin" gid="3" x="2272" y="1568" width="16" height="16"/>
  <object id="1451" name="coin" gid="3" x="2320" y="1632" width="16" height="16"/>
  <object id="1452" name="coin" gid="3" x="2320" y="1600" width="16" height="16"/>
  <object id="1478" name="coin" gid="3" x="2272" y="1600" width="16" height="16"/>
  <object id="1479" name="coin" gid="3" x="2352" y="1504" width="16" height="16"/>
  <object id="1480" name="coin" gid="3" x="1808" y="1888" width="16" height="16"/>
  <object id="1481" name="coin" gid="3" x="1824" y="1888" width="16" height="16"/>
  <object id="1482" name="coin" gid="3" x="1840" y="1888" width="16" height="16"/>
  <object id="1483" name="coin" gid="3" x="1792" y="1888" width="16" height="16"/>
  <object id="1484" name="coin" gid="3" x="1872" y="1888" width="16" height="16"/>
  <object id="1485" name="coin" gid="3" x="1888" y="1888" width="16" height="16"/>
  <object id="1486" name="coin" gid="3" x="1904" y="1888" width="16" height="16"/>
  <object id="1487" name="coin" gid="3" x="1856" y="1888" width="16" height="16"/>
  <object id="1488" name="coin" gid="3" x="1808" y="1872" width="16" height="16"/>
  <object id="1489" name="coin" gid="3" x="1824" y="1872" width="16" height="16"/>
  <object id="1490" name="coin" gid="3" x="1840" y="1872" width="16" height="16"/>
  <object id="1491" name="coin" gid="3" x="1792" y="1872" width="16" height="16"/>
  <object id="1492" name="coin" gid="3" x="1872" y="1872" width="16" height="16"/>
  <object id="1493" name="coin" gid="3" x="1888" y="1872" width="16" height="16"/>
  <object id="1494" name="coin" gid="3" x="1904" y="1872" width="16" height="16"/>
  <object id="1495" name="coin" gid="3" x="1856" y="1872" width="16" height="16"/>
  <object id="1522" name="coin" gid="3" x="608" y="1072" width="16" height="16"/>
  <object id="1523" name="coin" gid="3" x="624" y="1072" width="16" height="16"/>
  <object id="1524" name="coin" gid="3" x="640" y="1072" width="16" height="16"/>
  <object id="1525" name="coin" gid="3" x="608" y="1088" width="16" height="16"/>
  <object id="1526" name="coin" gid="3" x="624" y="1088" width="16" height="16"/>
  <object id="1527" name="coin" gid="3" x="640" y="1088" width="16" height="16"/>
  <object id="1528" name="coin" gid="3" x="608" y="1104" width="16" height="16"/>
  <object id="1529" name="coin" gid="3" x="624" y="1104" width="16" height="16"/>
  <object id="1530" name="coin" gid="3" x="640" y="1104" width="16" height="16"/>
  <object id="1577" name="coin" gid="3" x="128" y="1488" width="16" height="16"/>
  <object id="1578" name="coin" gid="3" x="144" y="1488" width="16" height="16"/>
  <object id="1579" name="coin" gid="3" x="160" y="1488" width="16" height="16"/>
 </objectgroup>
 <objectgroup id="8" name="Gate">
  <object id="568" gid="48" x="1712" y="96" width="16" height="16"/>
  <object id="569" gid="48" x="1728" y="96" width="16" height="16"/>
  <object id="622" gid="48" x="1744" y="96" width="16" height="16"/>
  <object id="623" gid="48" x="1760" y="96" width="16" height="16"/>
 </objectgroup>
 <objectgroup id="11" name="Keys">
  <object id="599" name="key" gid="97" x="752" y="1120" width="16" height="16"/>
  <object id="601" name="key" gid="97" x="2432" y="1264" width="16" height="16"/>
  <object id="792" name="key" gid="97" x="2128" y="1872" width="16" height="16"/>
 </objectgroup>
 <layer id="4" name="Foreground" width="164" height="120">
  <data encoding="csv">
0,0,0,0,0,0,0,0,0,0,0,0,0,0,0,0,0,0,0,0,0,0,0,0,0,0,0,0,0,0,0,0,0,0,0,0,0,0,0,0,0,0,0,0,0,0,0,0,0,0,0,0,0,0,0,0,0,0,0,0,0,0,0,0,0,0,0,0,0,0,0,0,0,0,0,0,0,0,0,0,0,0,0,0,0,0,0,0,0,0,0,0,0,0,0,0,0,0,0,0,0,0,0,0,0,0,0,0,0,0,0,0,0,0,0,0,0,0,0,0,0,0,0,0,0,0,0,0,0,0,0,0,0,0,0,0,0,0,0,0,0,0,0,0,0,0,0,0,0,0,0,0,0,0,0,0,0,0,0,0,0,0,0,0,
0,0,0,0,0,0,0,0,0,0,0,0,0,0,0,0,0,0,0,0,0,0,0,0,0,0,0,0,0,0,0,0,0,0,0,0,0,0,0,0,0,0,0,0,0,0,0,0,0,0,0,0,0,0,0,0,0,0,0,0,0,0,0,0,0,0,0,0,0,0,0,0,0,0,0,0,0,0,0,0,0,0,0,0,0,0,0,0,0,0,0,0,0,0,0,0,0,0,0,0,0,0,0,0,0,0,0,0,0,0,0,0,0,0,0,0,0,0,0,0,0,0,0,0,0,0,0,0,0,0,0,0,0,0,0,0,0,0,0,0,0,0,0,0,0,0,0,0,0,0,0,0,0,0,0,0,0,0,0,0,0,0,0,0,
0,0,0,0,0,0,0,0,0,0,0,0,0,0,0,0,0,0,0,0,0,0,0,0,0,0,0,0,0,0,0,0,0,0,0,0,0,0,0,0,0,0,0,0,0,0,0,0,0,0,0,0,0,0,0,0,0,0,0,0,0,0,0,0,0,0,0,0,0,0,0,0,0,0,0,0,0,0,0,0,0,0,0,0,0,0,0,0,0,0,0,0,0,0,0,0,0,0,0,0,0,0,0,0,0,0,0,0,0,0,0,0,0,0,0,0,0,0,0,0,0,0,0,0,0,0,0,0,0,0,0,0,0,0,0,0,0,0,0,0,0,0,0,0,0,0,0,0,0,0,0,0,0,0,0,0,0,0,0,0,0,0,0,0,
0,0,0,0,0,0,0,0,0,0,0,0,0,0,0,0,0,0,0,0,0,0,0,0,0,0,0,0,0,0,0,0,0,0,0,0,0,0,0,0,0,0,0,0,0,0,0,0,0,0,0,0,0,0,0,0,0,0,0,0,0,0,0,0,0,0,0,0,0,0,0,0,0,0,0,0,0,0,0,0,0,0,0,0,0,0,0,0,0,0,0,0,0,0,0,0,0,0,0,0,0,0,0,0,0,0,0,0,0,0,0,0,0,0,0,0,0,0,0,0,0,0,0,0,0,0,0,0,0,0,0,0,0,0,0,0,0,0,0,0,0,0,0,0,0,0,0,0,0,0,0,0,0,0,0,0,0,0,0,0,0,0,0,0,
0,0,0,0,0,0,0,0,0,0,0,0,0,0,0,0,0,0,0,0,0,0,0,0,0,0,0,0,0,0,0,0,0,0,0,0,0,0,0,0,0,0,0,0,0,0,0,0,0,0,0,0,0,0,0,0,0,0,0,0,0,0,0,0,0,0,0,0,0,0,0,0,0,0,0,0,0,0,0,0,0,0,0,0,0,0,0,0,0,0,0,0,0,0,0,0,0,0,0,0,0,0,0,0,0,0,0,0,0,0,0,0,0,0,0,0,0,0,0,0,0,0,0,0,0,0,0,0,0,0,0,0,0,0,0,0,0,0,0,0,0,0,0,0,0,0,0,0,0,0,0,0,0,0,0,0,0,0,0,0,0,0,0,0,
0,0,0,0,0,0,0,0,0,0,0,0,0,0,0,0,0,0,0,0,0,0,0,0,0,0,0,0,0,0,0,0,0,0,0,0,0,0,0,0,0,0,0,0,0,0,0,0,0,0,0,0,0,0,0,0,0,0,0,0,0,0,0,0,0,0,0,0,0,0,0,0,0,0,0,0,0,0,0,0,0,0,0,0,0,0,0,0,0,0,0,0,0,0,0,0,0,0,0,0,0,0,0,0,0,0,0,0,0,0,0,0,0,0,0,0,0,0,0,0,0,0,0,0,0,0,0,0,0,0,0,0,0,0,0,0,0,0,0,0,0,0,0,0,0,0,0,0,0,0,0,0,0,0,0,0,0,0,0,0,0,0,0,0,
0,0,0,0,0,0,0,0,0,0,0,0,0,0,0,0,0,0,0,0,0,0,0,0,0,0,0,0,0,0,0,0,0,0,0,0,0,0,0,0,0,0,0,0,0,0,0,0,0,0,0,0,0,0,0,0,0,0,0,0,0,0,0,0,0,0,0,0,0,0,0,0,0,0,0,0,0,0,0,0,0,0,0,0,0,0,0,0,0,0,0,0,0,0,0,0,0,0,0,0,0,0,0,0,0,0,0,0,0,0,0,0,0,0,0,0,0,0,0,0,0,0,0,0,0,0,0,0,0,0,0,0,0,0,0,0,0,0,0,0,0,0,0,0,0,0,0,0,0,0,0,0,0,0,0,0,0,0,0,0,0,0,0,0,
0,0,0,0,0,0,0,0,0,0,0,0,0,0,0,0,0,0,0,0,0,0,0,0,0,0,0,0,0,0,0,0,0,0,0,0,0,0,0,0,0,0,0,0,0,0,0,0,0,0,0,0,0,0,0,0,0,0,0,0,0,0,0,0,0,0,0,0,0,0,0,0,0,0,0,0,0,0,0,0,0,0,0,0,0,0,0,0,0,0,0,0,0,0,0,0,0,0,0,0,0,0,0,0,0,0,0,0,0,0,0,0,0,0,0,0,0,0,0,0,0,0,0,0,0,0,0,0,0,0,0,0,0,0,0,0,0,0,0,0,0,0,0,0,0,0,0,0,0,0,0,0,0,0,0,0,0,0,0,0,0,0,0,0,
0,0,0,0,0,0,0,0,0,0,0,0,0,0,0,0,0,0,0,0,0,0,0,0,0,0,0,0,0,0,0,0,0,0,0,0,0,0,0,0,0,0,0,0,0,0,0,0,0,0,0,0,0,0,0,0,0,0,0,0,0,0,0,0,0,0,0,0,0,0,0,0,0,0,0,0,0,0,0,0,0,0,0,0,0,0,0,0,0,0,0,0,0,0,0,0,0,0,0,0,0,0,0,0,0,0,0,0,0,0,0,0,0,0,0,0,0,0,0,0,0,0,0,0,0,0,0,0,0,0,0,0,0,0,0,0,0,0,0,0,0,0,0,0,0,0,0,0,0,0,0,0,0,0,0,0,0,0,0,0,0,0,0,0,
0,0,0,0,0,0,0,0,0,0,0,0,0,0,0,0,0,0,0,0,0,0,0,0,0,0,0,0,0,0,0,0,0,0,0,0,0,0,0,0,0,0,0,0,0,0,0,0,0,0,0,0,0,0,0,0,0,0,0,0,0,0,0,0,0,0,0,0,0,0,0,0,0,0,0,0,0,0,0,0,0,0,0,0,0,0,0,0,0,0,0,0,0,0,0,0,0,0,0,0,0,0,0,0,0,0,0,0,0,0,0,0,0,0,0,0,0,0,0,0,0,0,0,0,0,0,0,0,0,0,0,0,0,0,0,0,0,0,0,0,0,0,0,0,0,0,0,0,0,0,0,0,0,0,0,0,0,0,0,0,0,0,0,0,
0,0,0,0,0,0,0,0,0,0,0,0,0,0,0,0,0,0,0,0,0,0,0,0,0,0,0,0,0,0,0,0,0,0,0,0,0,0,0,0,0,0,0,0,0,0,0,0,0,0,0,0,0,0,0,0,0,0,0,0,0,0,0,0,0,0,0,0,0,0,0,0,0,0,0,0,0,0,0,0,0,0,0,0,0,0,0,0,0,0,0,0,0,0,0,0,0,0,0,0,0,0,0,0,0,0,0,0,0,0,0,0,0,0,0,0,0,0,0,0,0,0,0,0,0,0,0,0,0,0,0,0,0,0,0,0,0,0,0,0,0,0,0,0,0,0,0,0,0,0,0,0,0,0,0,0,0,0,0,0,0,0,0,0,
0,0,0,0,0,0,0,0,0,0,0,0,0,0,0,0,0,0,0,0,0,0,0,0,0,0,0,0,0,0,0,0,0,0,0,0,0,0,0,0,0,0,0,0,0,0,0,0,0,0,0,0,0,0,0,0,0,0,0,0,0,0,0,0,0,0,0,0,0,0,0,0,0,0,0,0,0,0,0,0,0,0,0,0,0,0,0,0,0,0,0,0,0,0,0,0,0,0,0,0,0,0,0,0,0,0,0,0,0,0,0,0,0,0,0,0,0,0,0,0,0,0,0,0,0,0,0,0,0,0,0,0,0,0,0,0,0,0,0,0,0,0,0,0,0,0,0,0,0,0,0,0,0,0,0,0,0,0,0,0,0,0,0,0,
0,0,0,0,0,0,0,0,0,0,0,0,0,0,0,0,0,0,0,0,0,0,0,0,0,0,0,0,0,0,0,0,0,0,0,0,0,0,0,0,0,0,0,0,0,0,0,0,0,0,0,0,0,0,0,0,0,0,0,0,0,0,0,0,0,0,0,0,0,0,0,0,0,0,0,0,0,0,0,0,0,0,0,0,0,0,0,0,0,0,0,0,0,0,0,0,0,0,0,0,0,0,0,0,0,0,0,0,0,0,0,0,0,0,0,0,0,0,0,0,0,0,0,0,0,0,0,0,0,0,0,0,0,0,0,0,0,0,0,0,0,0,0,0,0,0,0,0,0,0,0,0,0,0,0,0,0,0,0,0,0,0,0,0,
0,0,0,0,0,0,0,0,0,0,0,0,0,0,0,0,0,0,0,0,0,0,0,0,0,0,0,0,0,0,0,0,0,0,0,0,0,0,0,0,0,0,0,0,0,0,0,0,0,0,0,0,0,0,0,0,0,0,0,0,0,0,0,0,0,0,0,0,0,0,0,0,0,0,0,0,0,0,0,0,0,0,0,0,0,0,0,0,0,0,0,0,0,0,0,0,0,0,0,0,0,0,0,0,0,0,0,0,0,0,0,0,0,0,0,0,0,0,0,0,0,0,0,0,0,0,0,0,0,0,0,0,0,0,0,0,0,0,0,0,0,0,0,0,0,0,0,0,0,0,0,0,0,0,0,0,0,0,0,0,0,0,0,0,
0,0,0,0,0,0,0,0,0,0,0,0,0,0,0,0,0,0,0,0,0,0,0,0,0,0,0,0,0,0,0,0,0,0,0,0,0,0,0,0,0,0,0,0,0,0,0,0,0,0,0,0,0,0,0,0,0,0,0,0,0,0,0,0,0,0,0,0,0,0,0,0,0,0,0,0,0,0,0,0,0,0,0,0,0,0,0,0,0,0,0,0,0,0,0,0,0,0,0,0,0,0,0,0,0,0,0,0,0,0,0,0,0,0,0,0,0,0,0,0,0,0,0,0,0,0,0,0,0,0,0,0,0,0,0,0,0,0,0,0,0,0,0,0,0,0,0,0,0,0,0,0,0,0,0,0,0,0,0,0,0,0,0,0,
0,0,0,0,0,0,0,0,0,0,0,0,0,0,0,0,0,0,0,0,0,0,0,0,0,0,0,0,0,0,0,0,0,0,0,0,0,0,0,0,0,0,0,0,0,0,0,0,0,0,0,0,0,0,0,0,0,0,0,0,0,0,0,0,0,0,0,0,0,0,0,0,0,0,0,0,0,0,0,0,0,0,0,0,0,0,0,0,0,0,0,0,0,0,0,0,0,0,0,0,0,0,0,0,0,0,0,0,0,0,0,0,0,0,0,0,0,0,0,0,0,0,0,0,0,0,0,0,0,0,0,0,0,0,0,0,0,0,0,0,0,0,0,0,0,0,0,0,0,0,0,0,0,0,0,0,0,0,0,0,0,0,0,0,
0,0,0,0,0,0,0,0,0,0,0,0,0,0,0,0,0,0,0,0,0,0,0,0,0,0,0,0,0,0,0,0,0,0,0,0,0,0,0,0,0,0,0,0,0,0,0,0,0,0,0,0,0,0,0,0,0,0,0,0,0,0,0,0,0,0,0,0,0,0,0,0,0,0,0,0,0,0,0,0,0,0,0,0,0,0,0,0,0,0,0,0,0,0,0,0,0,0,0,0,0,0,0,0,0,0,0,0,0,0,0,0,0,0,0,0,0,0,0,0,0,0,0,0,0,0,0,0,0,0,0,0,0,0,0,0,0,0,0,0,0,0,0,0,0,0,0,0,0,0,0,0,0,0,0,0,0,0,0,0,0,0,0,0,
0,0,0,0,0,0,0,0,0,0,0,0,0,0,0,0,0,0,0,0,0,0,0,0,0,0,0,0,0,0,0,0,0,0,0,0,0,0,0,0,0,0,0,0,0,0,0,0,0,0,0,0,0,0,0,0,0,0,0,0,0,0,0,0,0,0,0,0,0,0,0,0,0,0,0,0,0,0,0,0,0,0,0,0,0,0,0,0,0,0,0,0,0,0,0,0,0,0,0,0,0,0,0,0,0,0,0,0,0,0,0,0,0,0,0,0,0,0,0,0,0,0,0,0,0,0,0,0,0,0,0,0,0,0,0,0,0,0,0,0,0,0,0,0,0,0,0,0,0,0,0,0,0,0,0,0,0,0,0,0,0,0,0,0,
0,0,0,0,0,0,0,0,0,0,0,0,0,0,0,0,0,0,0,0,0,0,0,0,0,0,0,0,0,0,0,0,0,0,0,0,0,0,0,0,0,0,0,0,0,0,0,0,0,0,0,0,0,0,0,0,0,0,0,0,0,0,0,0,0,0,0,0,0,0,0,0,0,0,0,0,0,0,0,0,0,0,0,0,0,0,0,0,0,0,0,0,0,0,0,0,0,0,0,0,0,0,0,0,0,0,0,0,0,0,0,0,0,0,0,0,0,0,0,0,0,0,0,0,0,0,0,0,0,0,0,0,0,0,0,0,0,0,0,0,0,0,0,0,0,0,0,0,0,0,0,0,0,0,0,0,0,0,0,0,0,0,0,0,
0,0,0,0,0,0,0,0,0,0,0,0,0,0,0,0,0,0,0,0,0,0,0,0,0,0,0,0,0,0,0,0,0,0,0,0,0,0,0,0,0,0,0,0,0,0,0,0,0,0,0,0,0,0,0,0,0,0,0,0,0,0,0,0,0,0,0,0,0,0,0,0,0,0,0,0,0,0,0,0,0,0,0,0,0,0,0,0,0,0,0,0,0,0,0,0,0,0,0,0,0,0,0,0,0,0,0,0,0,0,0,0,0,0,0,0,0,0,0,0,0,0,0,0,0,0,0,0,0,0,0,0,0,0,0,0,0,0,0,0,0,0,0,0,0,0,0,0,0,0,0,0,0,0,0,0,0,0,0,0,0,0,0,0,
0,0,0,0,0,0,0,0,0,0,0,0,0,0,0,0,0,0,0,0,0,0,0,0,0,0,0,0,0,0,0,0,0,0,0,0,0,0,0,0,0,0,0,0,0,0,0,0,0,0,0,0,0,0,0,0,0,0,0,0,0,0,0,0,0,0,0,0,0,0,0,0,0,0,0,0,0,0,0,0,0,0,0,0,0,0,0,0,0,0,0,0,0,0,0,0,0,0,0,0,0,0,0,0,0,0,0,0,0,0,0,0,0,0,0,0,0,0,0,0,0,0,0,0,0,0,0,0,0,0,0,0,0,0,0,0,0,0,0,0,0,0,0,0,0,0,0,0,0,0,0,0,0,0,0,0,0,0,0,0,0,0,0,0,
0,0,0,0,0,0,0,0,0,0,0,0,0,0,0,0,0,0,0,0,0,0,0,0,0,0,0,0,0,0,0,0,0,0,0,0,0,0,0,0,0,0,0,0,0,0,0,0,0,0,0,0,0,0,0,0,0,0,0,0,0,0,0,0,0,0,0,0,0,0,0,0,0,0,0,0,0,0,0,0,0,0,0,0,0,0,0,0,0,0,0,0,0,0,0,0,0,0,0,0,0,0,0,0,0,0,0,0,0,0,0,0,0,0,0,0,0,0,0,0,0,0,0,0,0,0,0,0,0,0,0,0,0,0,0,0,0,0,0,0,0,0,0,0,0,0,0,0,0,0,0,0,0,0,0,0,0,0,0,0,0,0,0,0,
0,0,0,3221225792,0,0,0,0,0,0,0,0,0,0,0,0,0,0,0,0,0,0,0,0,0,0,0,0,0,0,0,0,0,0,0,0,0,0,0,0,0,0,0,0,0,0,0,0,0,0,0,0,0,0,0,0,0,0,0,0,0,0,0,0,0,0,0,0,0,0,0,0,0,0,0,0,0,0,0,0,0,0,0,0,0,0,0,0,0,0,0,0,0,0,0,0,0,0,0,0,0,0,0,0,0,0,0,0,0,0,0,0,0,0,0,0,0,0,0,0,0,0,0,0,0,0,0,0,0,0,0,0,0,0,0,0,0,0,0,0,0,0,0,0,0,0,0,0,0,0,0,0,0,0,0,0,0,0,0,0,0,0,0,0,
0,0,0,0,0,0,0,0,0,0,0,0,0,0,0,0,0,0,0,0,0,0,0,0,0,0,0,0,0,0,0,0,0,0,0,0,0,0,0,0,0,0,0,0,0,0,0,0,0,0,0,0,0,0,0,0,0,0,0,0,0,0,0,0,0,0,0,0,0,0,0,0,0,0,0,0,0,0,0,0,0,0,0,0,0,0,0,0,0,0,0,0,0,0,0,0,0,0,0,0,0,0,0,0,0,0,0,0,0,0,0,0,0,0,0,0,0,0,0,0,0,0,0,0,0,0,0,0,0,0,0,0,0,0,0,0,0,0,0,0,0,0,0,0,0,0,0,0,0,0,0,0,0,0,0,0,0,0,0,0,0,0,0,0,
0,0,0,0,0,0,0,0,0,0,0,0,0,0,0,0,0,0,0,0,0,0,0,0,0,0,0,0,0,0,0,0,0,0,0,0,0,0,0,0,0,0,0,0,0,0,0,0,0,0,0,0,0,0,0,0,0,0,0,0,0,0,0,0,0,0,0,0,0,0,0,0,0,0,0,0,0,0,0,0,0,0,0,0,0,0,0,0,0,0,0,0,0,0,0,0,0,0,0,0,0,0,0,0,0,0,0,0,0,0,0,0,0,0,0,0,0,0,0,0,0,0,0,0,0,0,0,0,0,0,0,0,0,0,0,0,0,0,0,0,0,0,0,0,0,0,0,0,0,0,0,0,0,0,0,0,0,0,0,0,0,0,0,0,
0,0,0,0,0,0,0,0,0,0,0,0,0,0,0,0,0,0,0,0,0,0,0,0,0,0,0,0,0,0,0,0,0,0,0,0,0,0,0,0,0,0,0,0,0,0,0,0,0,0,0,0,0,0,0,0,0,0,0,0,0,0,0,0,0,0,0,0,0,0,0,0,0,0,0,0,0,0,0,0,0,0,0,0,0,0,0,0,0,0,0,0,0,0,0,0,0,0,0,0,0,0,0,0,0,0,0,0,0,0,0,0,0,0,0,0,0,0,0,0,0,0,0,0,0,0,0,0,0,0,0,0,0,0,0,0,0,0,0,0,0,0,0,0,0,0,0,0,0,0,0,0,0,0,0,0,0,0,0,0,0,0,0,0,
0,0,0,0,0,0,0,0,0,0,0,0,0,0,0,0,0,0,0,0,0,0,0,0,0,0,0,0,0,0,0,0,0,0,0,0,0,0,0,0,0,0,0,0,0,0,0,0,0,0,0,0,0,0,0,0,0,0,0,0,0,0,0,0,0,0,0,0,0,0,0,0,0,0,0,0,0,0,0,0,0,0,0,0,0,0,0,0,0,0,0,0,0,0,0,0,0,0,0,0,0,0,0,0,0,0,0,0,0,0,0,0,0,0,0,0,0,0,0,0,0,0,0,0,0,0,0,0,0,0,0,0,0,0,0,0,0,0,0,0,0,0,0,0,0,0,0,0,0,0,0,0,0,0,0,0,0,0,0,0,0,0,0,0,
0,0,0,0,0,0,0,0,0,0,0,0,0,0,0,0,0,0,0,0,0,0,0,0,0,0,0,0,0,0,0,0,0,0,0,0,0,0,0,0,0,0,0,0,0,0,0,0,0,0,0,0,0,0,0,0,0,0,0,0,0,0,0,0,0,0,0,0,0,0,0,0,0,0,0,0,0,0,0,0,0,0,0,0,0,0,0,0,0,0,0,0,0,0,0,0,0,0,0,0,0,0,0,0,0,0,0,0,0,0,0,0,0,0,0,0,0,0,0,0,0,0,0,0,0,0,0,0,0,0,0,0,0,0,0,0,0,0,0,0,0,0,0,0,0,0,0,0,0,0,0,0,0,0,0,0,0,0,0,0,0,0,0,0,
0,0,0,0,0,0,0,0,0,0,0,0,0,0,0,0,0,0,0,0,0,0,0,0,0,0,0,0,0,0,0,0,0,0,0,0,0,0,0,0,0,0,0,0,0,0,0,0,0,0,0,0,0,0,0,0,0,0,0,0,0,0,0,0,0,0,0,0,0,0,0,0,0,0,0,0,0,0,0,0,0,0,0,0,0,0,0,0,0,0,0,0,0,0,0,0,0,0,0,0,0,0,0,0,0,0,0,0,0,0,0,0,0,0,0,0,0,0,0,0,0,0,0,0,0,0,0,0,0,0,0,0,0,0,0,0,0,0,0,0,0,0,0,0,0,0,0,0,0,0,0,0,0,0,0,0,0,0,0,0,0,0,0,0,
0,0,0,0,0,0,0,0,0,0,0,0,0,0,0,0,0,0,0,0,0,0,0,0,0,0,0,0,0,0,0,0,0,0,0,0,0,0,0,0,0,0,0,0,0,0,0,0,0,0,0,0,0,0,0,0,0,0,0,0,0,0,0,0,0,0,0,0,0,0,0,0,0,0,0,0,0,0,0,0,0,0,0,0,0,0,0,0,0,0,0,0,0,0,0,0,0,0,0,0,0,0,0,0,0,0,0,0,0,0,0,0,0,0,0,0,0,0,0,0,0,0,0,0,0,0,0,0,0,0,0,0,0,0,0,0,0,0,0,0,0,0,0,0,0,0,0,0,0,0,0,0,0,0,0,0,0,0,0,0,0,0,0,0,
0,0,0,0,0,0,0,0,0,0,0,0,0,0,0,0,0,0,0,0,0,0,0,0,0,0,0,0,0,0,0,0,0,0,0,0,0,0,0,0,0,0,0,0,0,0,0,0,0,0,0,0,0,0,0,0,0,0,0,0,0,0,0,0,0,0,0,0,0,0,0,0,0,0,0,0,0,0,0,0,0,0,0,0,0,0,0,0,0,0,0,0,0,0,0,0,0,0,0,0,0,0,0,0,0,0,0,0,0,0,0,0,0,0,0,0,0,0,0,0,0,0,0,0,0,0,0,0,0,0,0,0,0,0,0,0,0,0,0,0,0,0,0,0,0,0,0,0,0,0,0,0,0,0,0,0,0,0,0,0,0,0,0,0,
0,0,0,0,0,0,0,0,0,0,0,0,0,0,0,0,0,0,0,0,0,0,0,0,0,0,0,0,0,0,0,0,0,0,0,0,0,0,0,0,0,0,0,0,0,0,0,0,0,0,0,0,0,0,0,0,0,0,0,0,0,0,0,0,0,0,0,0,0,0,0,0,0,0,0,0,0,0,0,0,0,0,0,0,0,0,0,0,0,0,0,0,0,0,0,0,0,0,0,0,0,0,0,0,0,0,0,0,0,0,0,0,0,0,0,0,0,0,0,0,0,0,0,0,0,0,0,0,0,0,0,0,0,0,0,0,0,0,0,0,0,0,0,0,0,0,0,0,0,0,0,0,0,0,0,0,0,0,0,0,0,0,0,0,
0,0,0,0,0,0,0,0,0,0,0,0,0,0,0,0,0,0,0,0,0,0,0,0,0,0,0,0,0,0,0,0,0,0,0,0,0,0,0,0,0,0,0,0,0,0,0,0,0,0,0,0,0,0,0,0,0,0,0,0,0,0,0,0,0,0,0,0,0,0,0,0,0,0,0,0,0,0,0,0,0,0,0,0,0,0,0,0,0,0,0,0,0,0,0,0,0,0,0,0,0,0,0,0,0,0,0,0,0,0,0,0,0,0,0,0,0,0,0,0,0,0,0,0,0,0,0,0,0,0,0,0,0,0,0,0,0,0,0,0,0,0,0,0,0,0,0,0,0,0,0,0,0,0,0,0,0,0,0,0,0,0,0,0,
0,0,0,0,0,0,0,0,0,0,0,0,0,0,0,0,0,0,0,0,0,0,0,0,0,0,0,0,0,0,0,0,0,0,0,0,0,0,0,0,0,0,0,0,0,0,0,0,0,0,0,0,0,0,0,0,0,0,0,0,0,0,0,0,0,0,0,0,0,0,0,0,0,0,0,0,0,0,0,0,0,0,0,0,0,0,0,0,0,0,0,0,0,0,0,0,0,0,0,0,0,0,0,0,0,0,0,0,0,0,0,0,0,0,0,0,0,0,0,0,0,0,0,0,0,0,0,0,0,0,0,0,0,0,0,0,0,0,0,0,0,0,0,0,0,0,0,0,0,0,0,0,0,0,0,0,0,0,0,0,0,0,0,0,
0,0,0,0,0,0,0,0,0,0,0,0,0,0,0,0,0,0,0,0,0,0,0,0,0,0,0,0,0,0,0,0,0,0,0,0,0,0,0,0,0,0,0,0,0,0,0,0,0,0,0,0,0,0,0,0,0,0,0,0,0,0,0,0,0,0,0,0,0,0,0,0,0,0,0,0,0,0,0,0,0,0,0,0,0,0,0,0,0,0,0,0,0,0,0,0,0,0,0,0,0,0,0,0,0,0,0,0,0,0,0,0,0,0,0,0,0,0,0,0,0,0,0,0,0,0,0,0,0,0,0,0,0,0,0,0,0,0,0,0,0,0,0,0,0,0,0,0,0,0,0,0,0,0,0,0,0,0,0,0,0,0,0,0,
0,0,0,0,0,0,0,0,0,0,0,0,0,0,0,0,0,0,0,0,0,0,0,0,0,0,0,0,0,0,0,0,0,0,0,0,0,0,0,0,0,0,0,0,0,0,0,0,0,0,0,0,0,0,0,0,0,0,0,0,0,0,0,0,0,0,0,0,0,0,0,0,0,0,0,0,0,0,0,0,0,0,0,0,0,0,0,0,0,0,0,0,0,0,0,0,0,0,0,0,0,0,0,0,0,0,0,0,0,0,0,0,0,0,0,0,0,0,0,0,0,0,0,0,0,0,0,0,0,0,0,0,0,0,0,0,0,0,0,0,0,0,0,0,0,0,0,0,0,0,0,0,0,0,0,0,0,0,0,0,0,0,0,0,
0,0,0,0,0,0,0,0,0,0,0,0,0,0,0,0,0,0,0,0,0,0,0,0,0,0,0,0,803,0,0,0,0,0,0,0,0,0,0,0,0,0,0,0,0,0,0,0,0,0,0,0,0,0,0,0,0,0,0,0,0,0,0,0,0,0,0,0,0,0,0,0,0,0,0,0,0,0,0,0,0,0,0,0,0,0,0,0,0,0,0,0,0,0,0,0,0,0,0,0,0,0,0,0,0,0,0,0,0,0,0,0,0,0,0,0,0,0,0,0,0,0,0,0,0,0,0,0,0,0,0,0,0,0,0,0,0,0,0,0,0,0,0,0,0,0,0,0,0,0,0,0,0,0,0,0,0,0,0,0,0,0,0,0,
0,0,0,0,0,0,0,0,0,0,0,0,0,0,0,0,0,0,0,0,0,0,0,0,0,0,0,0,0,0,0,0,0,0,0,0,0,0,0,0,0,0,0,0,0,0,0,0,0,0,0,0,0,0,0,0,0,0,0,0,0,0,0,0,0,0,0,0,0,0,0,0,0,0,0,0,0,0,0,0,0,0,0,0,0,0,0,0,0,0,0,0,0,0,0,0,0,0,0,0,0,0,0,0,0,0,0,0,0,0,0,0,0,0,0,0,0,0,0,0,0,0,0,0,0,0,0,0,0,0,0,0,0,0,0,0,0,0,0,0,0,0,0,0,0,0,0,0,0,0,0,0,0,0,0,0,0,0,0,0,0,0,0,0,
0,0,0,0,0,0,0,0,0,0,0,0,0,0,0,0,0,0,0,0,0,0,0,0,0,0,0,0,0,0,0,0,0,0,0,0,0,0,0,0,0,0,0,0,0,0,0,0,0,0,0,0,0,0,0,0,0,0,0,0,0,0,0,0,0,0,0,0,0,0,0,0,0,0,0,0,0,0,0,0,0,0,0,0,0,0,0,0,0,0,0,0,0,0,0,0,0,0,0,0,0,0,0,0,0,0,0,0,0,0,0,0,0,0,0,0,0,0,0,0,0,0,0,0,0,0,0,0,0,0,0,0,0,0,0,0,0,0,0,0,0,0,0,0,0,0,0,0,0,0,0,0,0,0,0,0,0,0,0,0,0,0,0,0,
0,0,0,0,0,0,0,0,0,0,0,0,0,0,0,0,0,0,0,0,0,0,0,0,0,0,0,0,0,0,0,0,0,0,0,0,0,0,0,0,0,0,0,0,0,0,0,0,0,0,0,0,0,0,0,0,0,0,0,0,0,0,0,0,0,0,0,0,0,0,0,0,0,0,0,0,0,0,0,0,0,0,0,0,0,0,0,0,0,0,0,0,0,0,0,0,0,0,0,0,0,0,0,0,0,0,0,0,0,0,0,0,0,0,0,0,0,0,0,0,0,0,0,0,0,0,0,0,0,0,0,0,0,0,0,0,0,0,0,0,0,0,0,0,0,0,0,0,0,0,0,0,0,0,0,0,0,0,0,0,0,0,0,0,
0,0,0,0,0,0,0,0,0,0,0,0,0,0,0,0,0,0,0,0,0,0,0,0,0,0,0,0,0,0,0,0,0,0,0,0,0,0,0,0,0,0,0,0,0,0,0,0,0,0,0,0,0,0,0,0,0,0,0,0,0,0,0,0,0,0,0,0,0,0,0,0,0,0,0,0,0,0,0,0,0,0,0,0,0,0,0,0,0,0,0,0,0,0,0,0,0,0,0,0,0,0,0,0,0,0,0,0,0,0,0,0,0,0,0,0,0,0,0,0,0,0,0,0,0,0,0,0,0,0,0,0,0,0,0,0,0,0,0,0,0,0,0,0,0,0,0,0,0,0,0,0,0,0,0,0,0,0,0,0,0,0,0,0,
0,0,0,0,0,0,0,0,0,0,0,0,0,0,0,0,0,0,0,0,0,0,0,0,0,0,0,0,0,0,0,0,0,0,0,0,0,0,0,0,0,0,0,0,0,0,0,0,0,0,0,0,0,0,0,0,0,0,0,0,0,0,0,0,0,0,0,0,0,0,0,0,0,0,0,0,0,0,0,0,0,0,0,0,0,0,0,0,0,0,0,0,0,0,0,0,0,0,0,0,0,0,0,0,0,0,0,0,0,0,0,0,0,0,0,0,0,0,0,0,0,0,0,0,0,0,0,0,0,0,0,0,0,0,0,0,0,0,0,0,0,0,0,0,0,0,0,0,0,0,0,0,0,0,0,0,0,0,0,0,0,0,0,0,
0,0,0,0,0,0,0,0,0,0,0,0,0,0,0,0,0,0,0,0,0,0,0,0,0,0,0,0,0,0,0,0,0,0,0,0,0,0,0,1073742941,1073742941,3221226589,0,0,0,0,0,0,0,0,0,0,0,0,0,0,0,0,0,0,0,0,0,0,0,0,0,0,0,0,0,0,0,0,0,0,0,0,0,0,0,0,0,0,0,0,0,0,0,0,0,0,0,0,0,0,0,0,0,0,0,0,0,0,0,0,0,0,0,0,0,0,0,0,0,0,0,0,0,0,0,0,0,0,0,0,0,0,0,0,0,0,0,0,0,0,0,0,0,0,0,0,0,0,0,0,0,0,0,0,0,0,0,0,0,0,0,0,0,0,0,0,0,0,
0,0,0,0,0,0,0,0,0,0,0,0,0,0,0,0,0,0,0,0,0,0,0,0,0,0,0,0,0,0,0,0,0,0,0,0,0,0,0,0,0,0,0,0,0,0,0,0,0,0,0,0,0,0,0,0,0,0,0,0,0,0,0,0,0,0,0,0,0,0,0,0,0,0,0,0,0,0,0,0,0,0,0,0,0,0,0,0,0,0,0,0,0,0,0,0,0,0,0,0,0,0,0,0,0,0,0,0,0,0,0,0,0,0,0,0,0,0,0,0,0,0,0,0,0,0,0,0,0,0,0,0,0,0,0,0,0,0,0,0,0,0,0,0,0,0,0,0,0,0,0,0,0,0,0,0,0,0,0,0,0,0,0,0,
0,0,0,0,0,0,0,0,0,0,0,0,0,0,0,0,0,0,0,0,0,0,0,0,0,0,0,0,0,0,0,0,0,0,0,0,0,0,0,0,0,0,0,0,0,0,0,0,0,0,0,0,0,0,0,0,0,0,0,0,0,0,0,0,0,0,0,0,0,0,0,0,0,0,0,0,0,0,0,0,0,0,0,0,0,0,0,0,0,0,0,0,0,0,0,0,0,0,0,0,0,0,0,0,0,0,0,0,0,0,0,0,0,0,0,0,0,0,0,0,0,0,0,0,0,0,0,0,0,0,0,0,0,0,0,0,0,0,0,0,0,0,0,0,0,0,0,0,0,0,0,0,0,0,0,0,0,0,0,0,0,0,0,0,
0,0,0,0,0,0,0,0,0,0,0,0,0,0,0,0,0,0,0,0,0,0,0,0,0,0,0,0,0,0,0,0,0,0,0,0,0,0,0,0,0,0,0,0,0,0,0,0,0,0,0,0,0,0,0,0,0,0,0,0,0,0,0,0,0,0,0,0,0,0,0,0,0,0,0,0,0,0,0,0,0,0,0,0,0,0,0,0,0,0,0,0,0,0,0,0,0,0,0,0,0,0,0,0,0,0,0,0,0,0,0,0,0,0,0,0,0,0,0,0,0,0,0,0,0,0,0,0,0,0,0,0,0,0,0,0,0,0,0,0,0,0,0,0,0,0,0,0,0,0,0,0,0,0,0,0,0,0,0,0,0,0,0,0,
0,0,0,0,0,0,0,0,0,0,0,0,0,0,0,0,0,0,0,0,0,0,0,0,0,0,0,0,0,0,0,0,0,0,0,0,0,0,0,0,0,0,0,0,0,0,0,0,0,0,0,0,0,0,0,0,0,0,0,0,0,0,0,0,0,0,0,0,0,0,0,0,0,0,0,0,0,0,0,0,0,0,0,0,0,0,0,0,0,0,0,0,0,0,0,0,0,0,0,0,0,0,0,0,0,0,0,0,0,0,0,0,0,0,0,0,0,0,0,0,0,0,0,0,0,0,0,0,0,0,0,0,0,0,0,0,0,0,0,0,0,0,0,0,0,0,0,0,0,0,0,0,0,0,0,0,0,0,0,0,0,0,0,0,
0,0,0,0,0,0,0,0,0,0,0,0,0,0,0,0,0,0,0,0,0,0,0,0,0,0,0,0,0,0,0,0,0,0,0,0,0,0,0,0,0,0,0,0,0,0,0,0,0,0,0,0,0,0,0,0,0,0,0,0,0,0,0,0,0,0,0,0,0,0,0,0,0,0,0,0,0,0,0,0,0,0,0,0,0,0,0,0,0,0,0,0,0,0,0,0,0,0,0,0,0,0,0,0,0,0,0,0,0,0,0,0,0,0,0,0,0,0,0,0,0,0,0,0,0,0,0,0,0,0,0,0,0,0,0,0,0,0,0,0,0,0,0,0,0,0,0,0,0,0,0,0,0,0,0,0,0,0,0,0,0,0,0,0,
0,0,0,0,0,0,0,0,0,0,0,0,0,0,0,0,0,0,0,0,0,0,0,0,0,0,0,0,0,0,0,0,0,0,0,0,0,0,0,0,0,0,0,0,0,0,0,0,0,0,0,0,0,0,0,0,0,0,0,0,0,0,0,0,0,0,0,0,0,0,0,0,0,0,0,0,0,0,0,0,0,0,0,0,0,0,0,0,0,0,0,0,0,0,0,0,0,0,0,0,0,0,0,0,0,0,0,0,0,0,0,0,0,0,0,0,0,0,0,0,0,0,0,0,0,0,0,0,0,0,0,0,0,0,0,0,0,0,0,0,0,0,0,0,0,0,0,0,0,0,0,0,0,0,0,0,0,0,0,0,0,0,0,0,
0,0,0,0,0,0,0,0,0,0,0,0,0,0,0,0,0,0,0,0,0,0,0,0,0,0,0,0,0,0,0,0,0,0,0,0,0,0,0,0,0,0,0,0,0,0,0,0,0,0,0,0,0,0,0,0,0,0,0,0,0,0,0,0,0,0,0,0,0,0,0,0,0,0,0,0,0,0,0,0,0,0,0,0,0,0,0,0,0,0,0,0,0,0,0,0,0,0,0,0,0,0,0,0,0,0,0,0,0,0,0,0,0,0,0,0,0,0,0,0,0,0,0,0,0,0,0,0,0,0,0,0,0,0,0,0,0,0,0,0,0,0,0,0,0,0,0,0,0,0,0,0,0,0,0,0,0,0,0,0,0,0,0,0,
0,0,0,0,0,0,0,0,0,0,0,0,0,0,0,0,0,0,0,0,0,0,0,0,0,0,0,0,0,0,0,0,0,0,0,0,0,0,0,0,0,0,0,0,0,0,0,0,0,0,0,0,0,0,0,0,0,0,0,0,0,0,0,0,0,0,0,0,0,0,0,0,0,0,0,0,0,0,0,0,0,0,0,0,0,0,0,0,0,0,0,0,0,0,0,0,0,0,0,0,0,0,0,0,0,0,0,0,0,0,0,0,0,0,0,0,0,0,0,0,0,0,0,0,0,0,0,0,0,0,0,0,0,0,0,0,0,0,0,0,0,0,0,0,0,0,0,0,0,0,0,0,0,0,0,0,0,0,0,0,0,0,0,0,
0,0,0,0,0,0,0,0,0,0,0,0,0,0,0,0,0,0,0,0,0,0,0,0,0,0,0,0,0,0,0,0,0,0,0,0,0,0,0,0,0,0,0,0,0,0,0,0,0,0,0,0,0,0,0,0,0,0,0,0,0,0,0,0,0,0,0,0,0,0,0,0,0,0,0,0,0,0,0,0,0,0,0,0,0,0,0,0,0,0,0,0,0,0,0,0,0,0,0,0,0,0,0,0,0,0,0,0,0,0,0,0,0,0,0,0,0,0,0,0,0,0,0,0,0,0,0,0,0,0,0,0,0,0,0,0,0,0,0,0,0,0,0,0,0,0,0,0,0,0,0,0,0,0,0,0,0,0,0,0,0,0,0,0,
0,0,0,0,0,0,0,0,0,0,0,0,0,0,0,0,0,0,0,0,0,0,0,0,0,0,0,0,0,0,0,0,0,0,0,0,0,0,0,0,0,0,0,0,0,0,0,0,0,0,0,0,0,0,0,0,0,0,0,0,0,0,0,0,0,0,0,0,0,0,0,0,0,0,0,0,0,0,0,0,0,0,0,0,0,0,0,0,0,0,0,0,0,0,0,0,0,0,0,0,0,0,0,0,0,0,0,0,0,0,0,0,0,0,0,0,0,0,0,0,0,0,0,0,0,0,0,0,0,0,0,0,0,0,0,0,0,0,0,0,0,0,0,0,0,0,0,0,0,0,0,0,0,0,0,0,0,0,0,0,0,0,0,0,
0,0,0,0,0,0,0,0,0,0,0,0,0,0,0,0,0,0,0,0,0,0,0,0,0,0,0,0,0,0,0,0,0,0,0,0,0,0,0,0,0,0,0,0,0,0,0,0,0,0,0,0,0,0,0,0,0,0,0,0,0,0,0,0,0,0,0,0,0,0,0,0,0,0,0,0,0,0,0,0,0,0,0,0,0,0,0,0,0,0,0,0,0,0,0,0,0,0,0,0,0,0,0,0,0,0,0,0,0,0,0,0,0,0,0,0,0,0,0,0,0,0,0,0,0,0,0,0,0,0,0,0,0,0,0,0,0,0,0,0,0,0,0,0,0,0,0,0,0,0,0,0,0,0,0,0,0,0,0,0,0,0,0,0,
0,0,0,0,0,0,0,0,0,0,0,0,0,0,0,0,0,0,0,0,0,0,0,0,0,0,0,0,0,0,0,0,0,0,0,0,0,0,0,0,0,0,0,0,0,0,0,0,0,0,0,0,0,0,0,0,0,0,0,0,0,0,0,0,0,0,0,0,0,0,0,0,0,0,0,0,0,0,0,0,0,0,0,0,0,0,0,0,0,0,0,0,0,0,0,0,0,0,0,0,0,0,0,0,0,0,0,0,0,0,0,0,0,0,0,0,0,0,0,0,0,0,0,0,0,0,0,0,0,0,0,0,0,0,0,0,0,0,0,0,0,0,0,0,0,0,0,0,0,0,0,0,0,0,0,0,0,0,0,0,0,0,0,0,
0,0,0,0,0,0,0,0,0,0,0,0,0,0,0,0,0,0,0,0,0,0,0,0,0,0,0,0,0,0,0,0,0,0,0,0,0,0,0,0,0,0,0,0,0,0,0,0,0,0,0,0,0,0,0,0,0,0,0,0,0,0,0,0,0,0,0,0,0,0,0,0,0,0,0,0,0,0,0,0,0,0,0,0,0,0,0,0,0,0,0,0,0,0,0,0,0,0,0,0,0,0,0,0,0,0,0,0,0,0,0,0,0,0,0,0,0,0,0,0,0,0,0,0,0,0,0,0,0,0,0,0,0,0,0,0,0,0,0,0,0,0,0,0,0,0,0,0,0,0,0,0,0,0,0,0,0,0,0,0,0,0,0,0,
0,0,0,0,0,0,0,0,0,0,0,0,0,0,0,0,0,0,0,0,0,0,0,0,0,0,0,0,0,0,0,0,0,0,0,0,0,0,0,0,0,0,0,0,0,0,0,0,0,0,0,0,0,0,0,0,0,0,0,0,0,0,0,0,0,0,0,0,0,0,0,0,0,0,0,0,0,0,0,0,0,0,0,0,0,0,0,0,0,0,0,0,0,0,0,0,0,0,0,0,0,0,0,0,0,0,0,0,0,0,0,0,0,0,0,0,0,0,0,0,0,0,0,0,0,0,0,0,0,0,0,0,0,0,0,0,0,0,0,0,0,0,0,0,0,0,0,0,0,0,0,0,0,0,0,0,0,0,0,0,0,0,0,0,
0,0,0,0,0,0,0,0,0,0,0,0,0,0,0,0,0,0,0,0,0,0,0,0,0,0,0,0,0,0,0,0,0,0,0,0,0,0,0,0,0,0,0,0,0,0,0,0,0,0,0,0,0,0,0,0,0,0,0,0,0,0,0,0,0,0,0,0,0,0,0,0,0,0,0,0,0,0,0,0,0,0,0,0,0,0,0,0,0,0,0,0,0,0,0,0,0,0,0,0,0,0,0,0,0,0,0,0,0,0,0,0,0,0,0,0,0,0,0,0,0,0,0,0,0,0,0,0,0,0,0,0,0,0,0,0,0,0,0,0,0,0,0,0,0,0,0,0,0,0,0,0,0,0,0,0,0,0,0,0,0,0,0,0,
0,0,0,0,0,0,0,0,0,0,0,0,0,0,0,0,0,0,0,0,0,0,0,0,0,0,0,0,0,0,0,0,0,0,0,0,0,0,0,0,0,0,0,0,0,0,0,0,0,0,0,0,0,0,0,0,0,0,0,0,0,0,0,0,0,0,0,0,0,0,0,0,0,0,0,0,0,0,0,0,0,0,0,0,0,0,0,0,0,0,0,0,0,0,0,0,0,0,0,0,0,0,0,0,0,0,0,0,0,0,0,0,0,0,0,0,0,0,0,0,0,0,0,0,0,0,0,0,0,0,0,0,0,0,0,0,0,0,0,0,0,0,0,0,0,0,0,0,0,0,0,0,0,0,0,0,0,0,0,0,0,0,0,0,
0,0,0,0,0,0,0,0,0,0,0,0,0,0,0,0,0,0,0,0,0,0,0,0,0,0,0,0,0,0,0,0,0,0,0,0,0,0,0,0,0,0,0,0,0,0,0,0,0,0,0,0,0,0,0,0,0,0,0,0,0,0,0,0,0,0,0,0,0,0,0,0,0,0,0,0,0,0,0,0,0,0,0,0,0,0,0,0,0,0,0,0,0,0,0,0,0,0,0,0,0,0,0,0,0,0,0,0,0,0,0,0,0,0,0,0,0,0,0,0,0,0,0,0,0,0,0,0,0,0,0,0,0,0,0,0,0,0,0,0,0,0,0,0,0,0,0,0,0,0,0,0,0,0,0,0,0,0,0,0,0,0,0,0,
0,0,0,0,0,0,0,0,0,0,0,0,0,0,0,0,0,0,0,0,0,0,0,0,0,0,0,0,0,0,0,0,0,0,0,0,0,0,0,0,0,0,0,0,0,0,0,0,0,0,0,0,0,0,0,0,0,0,0,0,0,0,0,0,0,0,0,0,0,0,0,0,0,0,0,0,0,0,0,0,0,0,0,0,0,0,0,0,0,0,0,0,0,0,0,0,0,0,0,0,0,0,0,0,0,0,0,0,0,0,0,0,0,0,0,0,0,0,0,0,0,0,0,0,0,0,0,0,0,0,0,0,0,0,0,0,0,0,0,0,0,0,0,0,0,0,0,0,0,0,0,0,0,0,0,0,0,0,0,0,0,0,0,0,
0,0,0,0,0,0,0,0,0,0,0,0,0,0,0,0,0,0,0,0,0,0,0,0,0,0,0,0,0,0,0,0,0,0,0,0,0,0,0,0,0,0,0,0,0,0,0,0,0,0,0,0,0,0,0,0,0,0,0,0,0,0,0,0,0,0,0,0,0,0,0,0,0,0,0,0,0,0,0,0,0,0,0,0,0,0,0,0,0,0,0,0,0,0,0,0,0,0,0,0,0,0,0,0,0,0,0,0,0,0,0,0,0,0,0,0,0,0,0,0,0,0,0,0,0,0,0,0,0,0,0,0,0,0,0,0,0,0,0,0,0,0,0,0,0,0,0,0,0,0,0,0,0,0,0,0,0,0,0,0,0,0,0,0,
0,0,0,0,0,0,0,0,0,0,0,0,0,0,0,0,0,0,0,0,0,0,0,0,0,0,0,0,0,0,0,0,0,0,0,0,1073743087,0,0,1073742942,0,0,1073742942,0,0,1073742941,0,0,0,0,0,0,0,0,0,0,0,0,0,0,0,0,0,0,0,0,0,0,0,0,0,0,0,0,0,0,0,0,0,0,0,0,0,0,0,0,0,0,0,0,0,0,0,0,0,0,0,0,0,0,0,0,0,0,0,0,0,0,0,0,0,0,0,0,0,0,0,0,0,0,0,0,0,0,0,0,0,0,0,0,0,0,0,0,0,0,0,0,0,0,0,0,0,0,0,0,0,0,0,0,0,0,0,0,0,0,0,0,0,0,0,0,0,0,
0,0,0,0,0,0,0,0,0,0,0,0,0,0,0,0,0,0,0,0,0,0,0,0,0,0,0,0,0,0,0,0,1221,0,1222,1610613957,0,0,1073743088,1073742920,1073742930,1073742942,0,0,0,3758097647,1073742942,0,0,1073743088,0,0,0,0,0,0,0,0,0,0,0,0,0,0,0,0,0,0,0,0,0,0,0,0,0,0,0,0,0,0,0,0,0,0,0,0,0,0,0,0,0,0,0,0,0,0,0,0,0,0,0,0,0,0,0,0,0,0,0,0,0,0,0,0,0,0,0,0,0,0,0,0,0,0,0,0,0,0,0,0,0,0,0,0,0,0,0,0,0,0,0,0,0,0,0,0,0,0,0,0,0,0,0,0,0,0,0,0,0,0,0,0,0,0,
0,0,0,0,0,0,0,0,0,0,0,0,0,0,0,0,0,0,0,0,0,0,0,0,0,0,0,0,0,0,1141,0,0,1222,1222,1221,1222,0,0,0,0,0,0,1073743087,0,0,1610613957,0,0,0,0,0,536872176,0,0,0,0,0,0,0,0,0,0,0,0,0,0,0,0,0,0,0,0,0,0,0,0,0,0,0,0,0,0,0,0,0,0,0,0,0,0,0,0,0,0,0,0,0,0,0,0,0,0,0,0,0,0,0,0,0,0,0,0,0,0,0,0,0,0,0,0,0,0,0,0,0,0,0,0,0,0,0,0,0,0,0,0,0,0,0,0,0,0,0,0,0,0,0,0,0,0,0,0,0,0,0,0,0,0,0,0,0,0,0,
0,0,0,0,0,0,0,0,0,0,0,0,0,0,0,0,0,0,0,0,0,0,0,0,0,0,0,0,0,0,2684355824,0,0,0,0,0,0,0,1264,1223,1264,0,1073743087,1073743047,1073743087,1073743087,1610613997,1221,1221,1221,0,0,0,0,0,0,0,0,0,0,0,0,0,0,0,0,0,0,0,0,0,0,0,0,0,0,0,0,0,0,0,0,0,0,0,0,0,0,0,0,0,0,0,0,0,0,0,0,0,0,0,0,0,0,0,0,0,0,0,0,0,0,0,0,0,0,0,0,0,0,0,0,0,0,0,0,0,0,0,0,0,0,0,0,0,0,0,0,0,0,0,0,0,0,0,0,0,0,0,0,0,0,0,0,0,0,0,0,0,0,0,0,0,0,
0,0,0,0,0,0,0,0,0,0,0,0,0,0,0,0,0,0,0,0,0,0,0,0,0,0,0,0,0,0,2684355824,0,1264,0,0,0,0,1610613999,0,1263,0,1610613957,0,0,0,0,0,0,0,0,0,0,0,0,0,0,0,0,0,0,0,0,0,0,0,0,0,0,0,0,0,0,0,0,0,0,0,0,0,0,0,0,0,0,0,0,0,0,0,0,0,0,0,0,0,0,0,0,0,0,0,0,0,0,0,0,0,0,0,0,0,0,0,0,0,0,0,0,0,0,0,0,0,0,0,0,0,0,0,0,0,0,0,0,0,0,0,0,0,0,0,0,0,0,0,0,0,0,0,0,0,0,0,0,0,0,0,0,0,0,0,0,0,0,
0,0,0,0,0,0,0,0,0,0,0,0,0,0,0,0,0,0,0,0,0,0,0,0,0,0,0,0,0,0,1141,0,2684355781,0,0,0,0,0,0,0,0,1610613957,1610613957,0,1264,0,1244,0,1264,0,0,1244,0,0,0,0,0,0,0,0,0,0,0,0,0,0,0,0,0,0,0,0,0,0,0,0,0,0,0,0,0,0,0,0,0,0,0,0,0,0,0,0,0,0,0,0,0,0,0,0,0,0,0,0,0,0,0,0,0,0,0,0,0,0,0,0,0,0,0,0,0,0,0,0,0,0,0,0,0,0,0,0,0,0,0,0,0,0,0,0,0,0,0,0,0,0,0,0,0,0,0,0,0,0,0,0,0,0,0,0,0,0,0,0,
0,0,0,0,0,0,0,0,0,0,0,0,0,0,0,0,0,0,0,0,0,0,0,0,0,0,0,0,0,0,1264,0,0,0,0,0,1243,1263,0,0,0,1610613957,0,0,0,0,1264,0,0,1264,0,0,0,0,0,0,0,0,0,0,0,0,0,0,0,0,0,0,0,0,0,0,0,0,0,0,0,0,0,0,0,0,0,0,0,0,0,0,0,0,0,0,0,0,0,0,0,0,0,0,0,0,0,0,0,0,0,0,0,0,0,0,0,0,0,0,0,0,0,0,0,0,0,0,0,0,0,0,0,0,0,0,0,0,0,0,0,0,0,0,0,0,0,0,0,0,0,0,0,0,0,0,0,0,0,0,0,0,0,0,0,0,0,0,
0,0,0,0,0,0,0,0,0,0,0,0,0,0,0,0,0,0,0,0,0,0,0,0,0,0,0,0,0,0,0,1264,0,0,0,0,0,0,2147484869,2147484869,2147484869,0,0,0,0,1221,0,0,0,0,1244,0,0,0,0,0,0,0,0,0,0,0,0,0,0,0,0,0,0,0,0,0,0,0,0,0,0,0,0,0,0,0,0,0,0,0,0,0,0,0,0,0,0,0,0,0,0,0,0,0,0,0,0,0,0,0,0,0,0,0,0,0,0,0,0,0,0,0,0,0,0,0,0,0,0,0,0,0,0,0,0,0,0,0,0,0,0,0,0,0,0,0,0,0,0,0,0,0,0,0,0,0,0,0,0,0,0,0,0,0,0,0,0,0,
0,0,0,0,0,0,0,0,0,0,0,0,0,0,0,0,0,0,0,0,0,0,0,0,0,0,0,0,0,0,0,0,0,0,0,1610613957,0,0,0,0,0,0,0,0,0,1242,0,1222,1222,0,0,0,0,0,0,0,0,0,0,0,0,0,0,0,0,0,0,0,0,0,0,0,0,0,0,0,0,0,0,0,0,0,0,0,0,0,0,0,0,0,0,0,0,0,0,0,0,0,0,0,0,0,0,0,0,0,0,0,0,0,0,0,0,0,0,0,0,0,0,0,0,0,0,0,0,0,0,0,0,0,0,0,0,0,0,0,0,0,0,0,0,0,0,0,0,0,0,0,0,0,0,0,0,0,0,0,0,0,0,0,0,0,0,0,
0,0,0,0,0,0,0,0,0,0,0,0,0,0,0,0,0,0,0,0,0,0,0,0,0,0,0,0,0,0,0,0,0,0,0,0,0,0,0,0,0,0,0,0,0,0,0,0,0,1222,1222,0,0,536872176,0,0,0,0,0,0,0,0,0,0,0,0,0,0,0,0,0,0,0,0,0,0,0,0,0,0,0,0,0,0,0,0,0,0,0,0,0,0,0,0,0,0,0,0,0,0,0,0,0,0,0,0,0,0,0,0,0,0,0,0,0,0,0,0,0,0,0,0,0,0,0,0,0,0,0,0,0,0,0,0,0,0,0,0,0,0,0,0,0,0,0,0,0,0,0,0,0,0,0,0,0,0,0,0,0,0,0,0,0,0,
0,0,0,0,0,0,0,0,0,0,0,0,0,0,0,0,0,0,0,0,0,0,0,0,0,0,0,0,0,0,0,0,0,0,0,0,0,0,0,0,0,0,0,0,0,0,0,0,0,0,0,0,0,0,0,0,0,0,0,0,0,0,0,0,0,0,0,0,0,0,0,0,0,0,0,0,0,0,0,0,0,0,0,0,0,0,0,0,0,0,0,0,0,0,0,0,0,0,0,0,0,0,0,0,0,0,0,0,0,0,0,0,0,0,0,0,0,0,0,0,0,0,0,0,0,0,0,0,0,0,0,0,0,0,0,0,0,0,0,0,0,0,0,0,0,0,0,0,0,0,0,0,0,0,0,0,0,0,0,0,0,0,0,0,
0,0,0,0,0,0,0,0,0,0,0,0,0,0,0,0,0,0,0,0,0,0,0,0,0,0,0,0,0,0,0,0,0,0,0,1037,1037,0,0,0,0,0,0,0,1264,1223,1264,0,1263,1244,1263,0,0,0,0,0,0,0,0,0,0,0,0,0,0,0,0,0,0,0,0,0,0,0,0,0,0,0,0,0,0,0,0,0,0,0,0,0,0,0,0,0,0,0,0,0,0,0,0,0,0,0,0,0,0,0,0,0,0,0,0,0,0,0,0,0,0,0,0,0,0,0,0,0,0,0,0,0,0,0,0,0,0,0,0,0,0,0,0,0,0,0,0,0,0,0,0,0,0,0,0,0,0,0,0,0,0,0,0,0,0,0,0,0,
0,0,0,0,0,0,0,0,0,0,0,0,0,0,0,0,0,0,0,0,0,0,0,0,0,0,0,0,0,0,0,0,0,0,0,0,0,1037,1037,1037,1037,1037,1037,0,0,1264,0,0,0,1244,0,1073743085,1264,0,0,0,0,0,0,0,0,0,0,0,0,0,0,0,0,0,0,0,0,0,0,0,0,0,0,0,0,0,0,0,0,0,0,0,0,0,0,0,0,0,0,0,0,0,0,0,0,0,0,0,0,0,0,0,0,0,0,0,0,0,0,0,0,0,0,0,0,0,0,0,0,0,0,0,0,0,0,0,0,0,0,0,0,0,0,0,0,0,0,0,0,0,0,0,0,0,0,0,0,0,0,0,0,0,0,0,0,0,0,0,
0,0,0,0,0,0,0,0,0,0,0,0,0,0,0,0,0,0,0,0,0,0,0,0,0,0,0,0,0,0,0,0,0,0,0,0,0,0,0,1221,0,0,0,0,0,0,0,0,0,0,0,0,0,0,0,0,0,0,0,0,0,0,0,0,0,0,0,0,0,0,0,0,0,0,0,0,0,0,0,0,0,0,0,0,0,0,0,0,0,0,0,0,0,0,0,0,0,0,0,0,0,0,0,0,0,0,0,0,0,0,0,0,0,0,0,0,0,0,0,0,0,0,0,0,0,0,0,0,0,0,0,0,0,0,0,0,0,0,0,0,0,0,0,0,0,0,0,0,0,0,0,0,0,0,0,0,0,0,0,0,0,0,0,0,
0,0,0,0,0,0,0,0,0,0,0,0,0,0,0,0,0,0,0,0,0,0,0,0,0,0,0,0,0,0,0,0,0,0,0,0,0,0,0,1261,1221,0,0,0,0,0,0,0,0,0,0,0,0,0,0,0,0,0,0,0,0,0,0,0,0,0,0,0,0,0,0,0,0,0,0,0,0,0,0,0,0,0,0,0,0,0,0,0,0,0,0,0,0,0,0,0,0,0,0,0,0,0,0,0,0,0,0,0,0,0,0,0,0,0,0,0,0,0,0,0,0,0,0,0,0,0,0,0,0,0,0,0,0,0,0,0,0,0,0,0,0,0,0,0,0,0,0,0,0,0,0,0,0,0,0,0,0,0,0,0,0,0,0,0,
0,0,0,0,0,0,0,0,0,0,0,0,0,0,0,0,0,0,0,0,0,0,0,0,0,0,0,0,0,0,0,0,0,0,0,0,0,0,1221,0,0,1610614000,0,0,0,0,0,0,0,0,0,0,0,0,0,0,0,0,0,0,0,0,0,0,0,0,0,0,0,0,0,0,0,0,0,0,0,0,0,0,0,0,0,0,0,0,0,0,0,0,0,0,0,0,0,0,0,0,0,0,0,0,0,0,0,0,0,0,0,0,0,0,0,0,0,0,0,0,0,0,0,0,0,0,0,0,0,0,0,0,0,0,0,0,0,0,0,0,0,0,0,0,0,0,0,0,0,0,0,0,0,0,0,0,0,0,0,0,0,0,0,0,0,0,
0,0,0,0,0,0,0,0,0,1526,1527,1528,1526,1527,1528,0,0,1526,1527,1528,1526,1527,1528,1526,1527,1528,1526,1527,1528,1526,1527,1528,0,0,0,0,0,536872154,0,0,0,2684355802,0,0,0,0,0,0,0,0,0,0,0,0,0,0,0,0,0,0,0,0,0,0,0,0,0,0,0,0,0,0,0,0,0,0,0,0,0,0,0,0,0,0,0,0,0,0,0,0,0,0,0,0,0,0,0,0,0,0,0,0,0,0,0,0,0,0,0,0,0,0,0,0,0,0,0,0,0,0,0,0,0,0,0,0,0,0,0,0,0,0,0,0,0,0,0,0,0,0,0,0,0,0,0,0,0,0,0,0,0,0,0,0,0,0,0,0,0,0,0,0,0,0,
0,0,0,0,0,0,0,0,0,0,0,0,0,0,0,0,0,0,0,0,0,0,0,0,0,0,0,0,0,0,0,0,0,0,0,0,0,0,0,0,1223,0,0,0,0,0,0,0,0,0,0,0,0,0,0,0,0,0,0,0,0,0,0,0,0,0,0,0,0,0,0,0,0,0,0,0,0,0,0,0,0,0,0,0,0,0,0,0,0,0,0,0,0,0,0,0,0,0,0,0,0,0,0,0,0,0,0,0,0,0,0,0,0,0,0,0,0,0,0,0,0,0,0,0,0,0,0,0,0,0,0,0,0,0,0,0,0,0,0,0,0,0,0,0,0,0,0,0,0,0,0,0,0,0,0,0,0,0,0,0,0,0,0,0,
0,0,0,0,0,0,0,0,0,0,0,0,0,0,0,0,0,0,0,0,0,0,0,0,0,0,0,0,0,0,0,0,0,0,0,0,0,0,1223,0,1264,0,0,0,0,0,0,0,0,0,0,0,0,0,0,0,0,0,0,0,0,0,0,0,0,0,0,0,0,0,0,0,0,0,0,0,0,0,0,0,0,0,0,0,0,0,0,0,0,0,0,0,0,0,0,0,0,0,0,0,0,0,0,0,0,0,0,0,0,0,0,0,0,0,0,0,0,0,0,0,0,0,0,0,0,0,0,0,0,0,0,0,0,0,0,0,0,0,0,0,0,0,0,0,0,0,0,0,0,0,0,0,0,0,0,0,0,0,0,0,0,0,0,0,
0,0,0,0,0,0,0,0,0,0,0,0,0,0,0,0,0,0,0,0,0,0,0,0,0,0,0,0,0,0,0,0,0,0,0,0,0,0,2147484912,1263,3221226736,3221226736,0,0,0,0,0,0,0,0,0,0,0,0,0,0,0,0,0,0,0,0,0,0,0,0,0,0,0,0,0,0,0,0,0,0,0,0,0,0,0,0,0,0,0,0,0,0,0,0,0,0,0,0,0,0,0,0,0,0,0,0,0,0,0,0,0,0,0,0,0,0,0,0,0,0,0,0,0,0,0,0,0,0,0,0,0,0,0,0,0,0,0,0,0,0,0,0,0,0,0,0,0,0,0,0,0,0,0,0,0,0,0,0,0,0,0,0,0,0,0,0,0,0,
0,0,0,0,0,0,0,0,0,0,0,0,0,0,0,0,0,0,0,0,0,0,0,0,0,0,0,0,0,0,0,0,0,0,0,0,0,0,0,0,0,0,0,0,0,0,0,0,0,0,0,0,0,0,0,0,0,0,0,0,0,0,0,0,0,0,0,0,0,0,0,0,0,0,0,0,0,0,0,0,0,0,0,0,0,0,0,0,0,0,0,0,0,0,0,0,0,0,0,0,0,0,0,0,0,0,0,0,0,0,0,0,0,0,0,0,0,0,0,0,0,0,0,0,0,0,0,0,0,0,0,0,0,0,0,0,0,0,0,0,0,0,0,0,0,0,0,0,0,0,0,0,0,0,0,0,0,0,0,0,0,0,0,0,
0,0,0,0,0,0,0,0,0,0,0,0,0,0,0,0,0,0,0,0,0,0,0,0,0,0,0,0,0,0,0,0,1141,1142,0,0,0,0,0,0,1263,0,0,0,0,0,0,0,0,0,0,0,0,0,0,0,0,0,0,0,0,0,0,0,0,0,0,0,0,0,0,0,0,0,0,0,0,0,0,0,0,0,0,0,0,0,0,0,0,0,0,0,0,0,0,0,0,0,0,0,0,0,0,0,0,0,0,0,0,0,0,0,0,0,0,0,0,0,0,0,0,0,0,0,0,0,0,0,0,0,0,0,0,0,0,0,0,0,0,0,0,0,0,0,0,0,0,0,0,0,0,0,0,0,0,0,0,0,0,0,0,0,0,0,
0,0,0,0,0,0,0,0,0,0,0,0,0,0,0,0,0,0,0,0,0,0,0,0,0,0,0,0,0,0,0,0,1263,1244,0,0,0,1221,0,0,1222,1263,0,0,0,0,0,0,0,0,0,0,0,0,0,0,0,0,0,0,0,0,0,0,0,0,0,0,0,0,0,0,0,0,0,0,0,0,0,0,0,0,0,0,0,0,0,0,0,0,0,0,0,0,0,0,0,0,0,0,0,0,0,0,0,0,0,0,0,0,0,0,0,0,0,0,0,0,0,0,0,0,0,0,0,0,0,0,0,0,0,0,0,0,0,0,0,0,0,0,0,0,0,0,0,0,0,0,0,0,0,0,0,0,0,0,0,0,0,0,0,0,0,0,
0,0,0,0,0,0,0,0,0,0,0,0,0,0,0,0,0,0,0,0,0,0,0,0,0,0,0,0,0,0,0,0,0,1264,0,0,1221,1241,1221,0,1242,0,1222,0,0,0,0,0,0,0,0,0,0,0,0,0,0,0,0,0,0,0,0,0,0,0,0,0,0,0,0,0,0,0,0,0,0,0,0,0,0,0,0,0,0,0,0,0,0,0,0,0,0,0,0,0,0,0,0,0,0,0,0,0,0,0,0,0,0,0,0,0,0,0,0,0,0,0,0,0,0,0,0,0,0,0,0,0,0,0,0,0,0,0,0,0,0,0,0,0,0,0,0,0,0,0,0,0,0,0,0,0,0,0,0,0,0,0,0,0,0,0,0,0,
0,0,0,0,0,0,0,0,0,0,0,0,0,0,0,0,0,0,0,0,0,0,0,0,0,0,0,0,0,0,0,0,0,0,1222,1221,1241,1261,1241,0,1262,1222,1262,0,0,0,0,0,0,0,0,0,0,0,0,0,0,0,0,0,0,0,0,0,0,0,0,0,0,0,0,0,0,0,0,0,0,0,0,0,0,0,0,0,0,0,0,0,0,0,0,0,0,0,0,0,0,0,0,0,0,0,0,0,0,0,0,0,0,0,0,0,0,0,0,0,0,0,0,0,0,0,0,0,0,0,0,0,0,0,0,0,0,0,0,0,0,0,0,0,0,0,0,0,0,0,0,0,0,0,0,0,0,0,0,0,0,0,0,0,0,0,0,0,
0,0,0,0,0,0,0,0,0,0,0,0,0,0,0,0,0,0,0,0,0,0,0,0,0,0,0,0,0,0,0,0,0,0,1141,1142,1164,1165,1144,1145,1141,1142,1141,0,1526,1527,1528,1526,1527,1528,1526,1527,1528,1526,1527,1528,1526,1527,1528,0,0,0,1526,1527,1528,1526,1527,1528,1526,1527,1528,1526,1527,1528,1526,1527,1528,1526,1527,1528,1526,1527,1528,0,0,0,0,0,0,0,0,0,0,0,0,0,0,0,0,0,0,0,0,0,0,0,0,0,0,0,0,0,0,0,0,0,0,0,0,0,0,0,0,0,0,0,0,0,0,0,0,0,0,0,0,0,0,0,0,0,0,0,0,0,0,0,0,0,0,0,0,0,0,0,0,0,0,0,0,0,0,0,0,0,
0,0,0,0,0,0,0,0,0,0,0,0,0,0,0,0,0,0,0,0,0,0,0,0,0,0,0,0,0,0,0,0,1241,0,1141,1610614000,1144,1145,1144,1145,1144,1145,1161,1610614000,0,0,0,0,0,0,0,0,0,0,0,0,0,0,0,0,0,0,0,0,0,0,0,0,0,0,0,0,0,0,0,0,0,0,0,0,0,0,0,0,0,0,0,0,0,0,0,0,0,0,0,0,0,0,0,0,0,0,0,0,0,0,0,0,0,0,0,0,0,0,0,0,0,0,0,0,0,0,0,0,0,0,0,0,0,0,0,0,0,0,0,0,0,0,0,0,0,0,0,0,0,0,0,0,0,0,0,0,0,0,0,0,0,0,0,0,0,0,0,0,
0,0,0,0,0,0,0,0,0,0,0,0,0,0,0,0,0,0,0,0,0,0,0,0,0,0,0,0,0,0,0,0,1223,0,1161,1164,1223,1224,0,1223,1164,1165,1610614000,0,0,0,0,0,0,0,0,0,0,0,0,0,0,0,0,0,0,0,0,0,0,0,0,0,0,0,0,0,0,0,0,0,0,0,0,0,0,0,0,0,0,0,0,0,0,0,0,0,0,0,0,0,0,0,0,0,0,0,0,0,0,0,0,0,0,0,0,0,0,0,0,0,0,0,0,0,0,0,0,0,0,0,0,0,0,0,0,0,0,0,0,0,0,0,0,0,0,0,0,0,0,0,0,0,0,0,0,0,0,0,0,0,0,0,0,0,0,0,0,0,
0,0,0,0,0,0,0,0,0,0,0,0,0,0,0,0,0,0,0,0,0,0,0,0,0,0,0,0,0,0,0,0,1243,0,1141,1164,1243,1264,0,1263,1164,1165,1610614000,0,0,0,0,0,0,0,0,0,0,0,0,0,0,0,0,0,0,0,0,0,0,0,0,0,0,0,0,0,0,0,0,0,0,0,0,0,0,0,0,0,0,0,0,0,0,0,0,0,0,0,0,0,0,0,0,0,0,0,0,0,0,0,0,0,0,0,0,0,0,0,0,0,0,0,0,0,0,0,0,0,0,0,0,0,0,0,0,0,0,0,0,0,0,0,0,0,0,0,0,0,0,0,0,0,0,0,0,0,0,0,0,0,0,0,0,0,0,0,0,0,
0,0,0,0,0,0,0,0,0,0,0,0,0,0,0,0,0,0,0,0,0,0,0,0,0,0,0,0,0,0,0,0,1263,0,1161,1161,1263,0,1222,1165,1161,1141,1610614000,0,0,0,0,0,0,0,0,0,0,0,0,0,0,0,0,0,0,0,0,0,0,0,0,0,0,0,0,0,0,0,0,0,0,0,0,0,0,0,0,0,0,0,0,0,0,0,0,0,0,0,0,0,0,0,0,0,0,0,0,0,0,0,0,0,0,0,0,0,0,0,0,0,0,0,0,0,0,0,0,0,0,0,0,0,0,0,0,0,0,0,0,0,0,0,0,0,0,0,0,0,0,0,0,0,0,0,0,0,0,0,0,0,0,0,0,0,0,0,0,0,
0,0,0,0,0,0,0,0,0,0,0,0,0,0,0,0,0,0,0,0,0,0,0,0,0,0,0,0,0,0,0,0,0,0,1161,1162,1164,1221,1242,1162,1144,1223,1161,0,0,0,0,0,0,0,0,0,0,0,0,0,0,0,0,0,0,0,0,0,0,0,0,0,0,0,0,0,0,0,0,0,0,0,0,0,0,0,0,0,0,0,0,0,0,0,0,0,0,0,0,0,0,0,0,0,0,0,0,0,0,0,0,0,0,0,0,0,0,0,0,0,0,0,0,0,0,0,0,0,0,0,0,0,0,0,0,0,0,0,0,0,0,0,0,0,0,0,0,0,0,0,0,0,0,0,0,0,0,0,0,0,0,0,0,0,0,0,0,0,
0,0,0,0,0,0,0,0,0,0,0,0,0,0,0,0,0,0,0,0,0,0,0,0,0,0,0,0,0,0,0,0,0,0,1161,1162,1164,1165,1165,1144,0,1263,1161,1162,2684355802,0,0,0,0,0,0,0,0,0,0,0,0,0,0,0,0,0,0,0,0,0,0,0,0,0,0,0,0,0,0,0,0,0,0,0,0,0,0,0,0,0,0,0,0,0,0,0,0,0,0,0,0,0,0,0,0,0,0,0,0,0,0,0,0,0,0,0,0,0,0,0,0,0,0,0,0,0,0,0,0,0,0,0,0,0,0,0,0,0,0,0,0,0,0,0,0,0,0,0,0,0,0,0,0,0,0,0,0,0,0,0,0,0,0,0,0,0,0,0,
0,0,0,0,0,0,0,0,0,0,0,0,0,0,0,0,0,0,0,0,0,0,0,0,0,0,0,0,0,0,0,0,0,0,1161,1162,1161,1141,1142,1221,0,1222,1161,1162,0,0,0,0,0,0,0,0,0,0,0,0,0,0,0,0,0,0,0,0,0,0,0,0,0,0,0,0,0,0,0,0,0,0,0,0,0,0,0,0,0,0,0,0,0,0,0,0,0,0,0,0,0,0,0,0,0,0,0,0,0,0,0,0,0,0,0,0,0,0,0,0,0,0,0,0,0,0,0,0,0,0,0,0,0,0,0,0,0,0,0,0,0,0,0,0,0,0,0,0,0,0,0,0,0,0,0,0,0,0,0,0,0,0,0,0,0,0,0,0,
0,0,0,0,0,0,0,0,0,0,0,0,0,0,0,0,0,0,0,0,0,0,0,0,0,0,0,0,0,0,0,0,3221226589,0,1141,1141,1141,1141,1141,1141,1164,1165,1141,1142,1610614000,0,0,0,0,0,0,0,0,0,0,0,0,0,0,0,0,0,0,0,0,0,0,0,0,0,0,0,0,0,0,0,0,0,0,0,0,0,0,0,0,0,0,0,0,0,0,0,0,0,0,0,0,0,0,0,0,0,0,0,0,0,0,0,0,0,0,0,0,0,0,0,0,0,0,0,0,0,0,0,0,0,0,0,0,0,0,0,0,0,0,0,0,0,0,0,0,0,0,0,0,0,0,0,0,0,0,0,0,0,0,0,0,0,0,0,0,0,0,0,
0,0,0,0,0,0,0,0,0,0,0,0,0,0,0,0,0,0,0,0,0,0,0,0,0,0,0,0,0,0,0,2684355677,0,0,0,0,0,0,0,0,0,0,0,0,0,0,1610614000,0,0,0,0,0,0,0,0,0,0,0,0,0,0,0,0,0,0,0,0,0,0,0,0,0,0,0,0,0,0,0,0,0,0,0,0,0,0,0,0,0,0,0,0,0,0,0,0,0,0,0,0,0,0,0,0,0,0,0,0,0,0,0,0,0,0,0,0,0,0,0,0,0,0,0,0,0,0,0,0,0,0,0,0,0,0,0,0,0,0,0,0,0,0,0,0,0,0,0,0,0,0,0,0,0,0,0,0,0,0,0,0,0,0,0,0,0,
0,0,0,0,0,0,0,0,0,0,0,0,0,0,0,0,0,0,0,0,0,0,0,0,0,0,0,0,0,0,0,2684355666,0,0,0,0,0,0,0,0,0,0,0,0,0,0,0,0,0,0,0,0,0,0,0,0,0,0,0,0,0,0,0,0,0,0,0,0,0,0,0,0,0,0,0,0,0,0,0,0,0,0,0,0,0,0,0,0,0,0,0,0,0,0,0,0,0,0,0,0,0,0,0,0,0,0,0,0,0,0,0,0,0,0,0,0,0,0,0,0,0,0,0,0,0,0,0,0,0,0,0,0,0,0,0,0,0,0,0,0,0,0,0,0,0,0,0,0,0,0,0,0,0,0,0,0,0,0,0,0,0,0,0,0,
0,0,0,0,0,0,0,0,0,0,0,0,0,0,0,0,0,0,0,0,0,0,0,0,0,0,0,0,0,0,0,2684355677,0,0,0,0,0,0,0,0,0,0,0,0,0,0,2684355802,0,0,0,0,0,0,0,0,0,0,0,0,0,0,0,0,0,0,0,0,0,0,0,0,0,0,0,0,0,0,0,0,0,0,0,0,0,0,0,0,0,0,0,0,0,0,1526,1527,1528,1526,1527,1528,1526,1527,1528,1526,1527,0,0,0,0,0,0,0,0,0,0,0,0,0,0,0,0,0,0,0,0,0,0,0,0,0,0,0,0,0,0,0,0,0,0,0,0,0,0,0,0,0,0,0,0,0,0,0,0,0,0,0,0,0,0,0,0,0,0,0,0,
0,0,0,0,0,0,0,0,0,0,0,0,0,0,0,0,0,0,0,0,0,0,0,0,0,0,0,0,0,0,0,0,0,0,1264,0,0,1243,0,1264,0,0,3221226733,1264,0,0,0,0,0,0,0,0,0,0,0,0,0,0,0,0,0,0,0,0,0,0,0,0,0,0,0,0,0,0,0,0,0,0,0,0,0,0,0,0,0,0,0,0,0,0,0,0,0,0,0,0,0,0,0,0,0,0,0,0,0,0,0,0,0,0,0,0,0,0,0,0,0,0,0,428,0,0,0,0,0,0,0,0,0,0,0,0,0,0,0,0,0,0,0,0,0,0,0,0,0,0,0,0,0,0,0,0,0,0,0,0,0,0,0,0,0,0,0,0,
0,0,0,0,0,0,0,0,0,0,0,0,0,0,0,0,0,0,0,0,0,0,0,0,0,0,0,0,0,0,0,0,1223,0,0,0,3221226733,0,0,0,1243,0,0,0,1264,0,0,0,0,0,0,0,0,0,0,0,0,0,0,0,0,0,0,0,0,0,0,0,0,0,0,0,0,0,0,0,0,0,0,0,0,0,0,0,0,0,0,0,0,0,0,0,0,0,0,0,0,0,0,0,0,0,0,0,0,0,0,0,0,0,0,0,0,0,0,0,0,0,0,0,0,0,0,0,0,0,0,0,0,0,0,0,0,0,0,0,0,0,0,0,0,0,0,0,0,0,0,0,0,0,0,0,0,0,0,0,0,0,0,0,0,0,0,0,
0,0,0,0,0,0,0,0,0,0,0,0,0,0,0,0,0,0,0,0,0,0,0,0,0,0,0,0,0,0,0,0,0,0,0,0,1117,0,0,0,0,0,0,0,0,0,0,0,0,0,0,0,0,0,0,0,0,0,0,0,0,0,0,0,0,0,0,0,0,0,0,0,0,0,0,0,0,0,0,0,0,0,0,0,0,0,0,0,0,0,0,0,0,0,0,0,0,0,0,0,0,0,0,0,0,0,0,0,0,0,0,0,0,0,0,0,0,0,0,0,0,0,0,0,0,0,0,0,0,0,0,0,0,0,0,0,0,0,0,0,0,0,0,0,0,0,0,0,0,0,0,0,0,0,0,0,0,0,0,0,0,0,0,0,
0,0,0,0,0,0,0,0,0,0,0,0,0,0,0,0,0,0,0,0,0,0,0,0,0,0,0,0,0,0,0,0,0,0,0,0,0,0,0,0,0,0,0,0,0,0,3221226589,0,0,0,0,0,0,0,0,0,0,0,0,0,0,0,0,0,0,0,0,0,0,0,0,0,0,0,0,0,0,0,0,0,0,0,0,0,0,0,0,0,0,0,0,0,0,0,0,0,0,0,0,0,0,0,0,0,0,0,0,0,0,0,0,0,0,0,0,0,0,0,0,0,0,0,0,0,0,0,0,0,0,0,0,0,0,0,0,0,0,0,0,0,0,0,0,0,0,0,0,0,0,0,0,0,0,0,0,0,0,0,0,0,0,0,0,0,
0,0,0,0,0,0,0,0,0,0,0,0,0,0,0,0,0,0,0,0,0,0,0,0,0,0,0,0,0,0,0,0,0,0,0,0,0,0,0,0,0,0,0,0,0,2684355677,1104,0,0,0,0,0,0,0,0,0,0,0,0,0,0,0,0,0,0,0,0,0,0,0,0,0,0,0,0,0,0,0,0,0,0,0,0,0,0,0,0,0,0,0,0,0,0,0,0,0,0,0,0,0,0,0,0,0,0,0,0,0,0,0,0,0,0,0,0,0,0,0,0,0,0,0,0,0,0,0,0,0,0,0,0,0,0,0,0,0,0,0,0,0,0,0,0,0,0,0,0,0,0,0,0,0,0,0,0,0,0,0,0,0,0,0,0,0,
0,0,0,0,0,0,0,0,0,0,0,0,0,0,0,0,0,0,0,0,0,0,0,0,0,0,0,0,0,0,0,0,0,0,0,0,0,0,0,0,0,0,0,0,0,0,1117,0,0,0,0,0,0,0,0,0,0,0,0,0,0,0,0,0,0,0,0,0,0,0,0,0,0,0,0,0,0,0,0,0,0,0,0,0,0,0,0,0,0,0,0,0,0,0,0,0,0,0,0,0,0,0,0,0,0,0,0,0,0,0,0,0,0,0,0,0,0,0,0,0,0,0,0,0,0,0,0,0,0,0,0,0,0,0,0,0,0,0,0,0,0,0,0,0,0,0,0,0,0,0,0,0,0,0,0,0,0,0,0,0,0,0,0,0,
0,0,0,0,0,0,0,0,0,0,0,0,0,0,0,0,0,0,0,0,0,0,0,0,0,0,0,0,0,0,0,0,0,0,0,0,0,0,0,0,0,0,0,0,0,0,0,0,0,0,0,0,0,0,0,0,0,0,0,0,0,0,0,0,0,0,0,0,0,0,0,0,0,0,0,0,0,0,0,0,0,0,0,0,0,0,0,0,0,0,0,0,0,0,0,0,0,0,0,0,0,0,0,0,444,445,0,0,0,0,0,0,0,0,0,0,0,0,0,0,0,0,0,0,0,0,0,0,0,0,0,0,0,0,0,0,0,0,0,0,0,0,0,0,0,0,0,0,0,0,0,0,0,0,0,0,0,0,0,0,0,0,0,0,
0,0,0,0,0,0,0,0,0,0,0,0,0,0,0,0,0,0,0,0,0,0,0,0,0,0,0,0,0,0,0,0,0,0,0,0,0,1073742941,0,0,0,0,0,0,0,0,0,0,0,0,0,0,0,0,0,0,0,0,0,0,0,0,0,0,0,0,0,0,0,0,0,0,0,0,0,0,0,0,0,0,0,0,0,0,0,0,0,0,0,0,0,0,0,0,0,0,0,0,0,0,0,0,0,0,460,461,0,0,0,0,0,0,0,0,0,0,0,0,0,0,0,0,0,0,0,0,0,0,0,0,0,0,0,0,0,0,0,0,0,0,0,0,0,0,0,0,0,0,0,0,0,0,0,0,0,0,0,0,0,0,0,0,0,0,
0,0,0,0,0,0,0,0,0,0,0,0,0,0,0,0,0,0,0,0,0,0,0,0,0,0,0,0,0,0,0,0,0,0,0,0,2684355666,1104,1610613832,0,0,0,0,0,0,0,0,0,0,0,0,0,0,0,0,0,0,0,0,0,0,0,0,0,0,0,0,0,0,0,0,0,0,0,0,0,0,0,0,0,0,0,0,0,0,0,0,0,0,0,0,0,0,0,0,0,0,0,0,0,0,0,0,0,476,477,0,0,0,0,0,0,0,0,0,0,0,0,0,0,0,0,0,0,0,0,0,0,0,0,0,0,0,0,0,0,0,0,0,0,0,0,0,0,0,0,0,0,0,0,0,0,0,0,0,0,0,0,0,0,0,0,0,0,
0,0,0,0,0,0,0,0,0,0,0,0,0,0,0,0,0,0,0,0,0,0,0,0,0,0,0,0,0,0,0,0,0,0,0,0,0,1117,0,0,0,0,0,0,0,0,0,0,0,0,0,0,0,0,0,0,0,0,0,0,0,0,0,0,0,0,0,0,0,0,0,0,0,0,0,0,0,0,0,0,0,0,0,0,0,0,0,0,0,0,0,0,0,0,0,0,0,0,0,0,0,0,444,445,492,493,462,0,0,0,0,428,0,0,0,0,0,0,0,0,0,0,0,0,0,0,0,0,0,0,0,0,0,0,0,0,0,0,0,0,0,0,0,0,0,0,0,0,0,0,0,0,0,0,0,0,0,0,0,0,0,0,0,0,
0,0,0,0,0,0,0,0,0,0,0,0,0,0,0,0,0,0,0,0,0,0,0,0,0,0,0,0,0,0,0,0,0,0,0,0,0,0,0,0,0,0,0,0,0,0,0,0,0,0,0,0,0,0,0,0,0,0,0,0,0,0,0,0,0,0,0,0,0,0,0,0,0,0,0,0,0,0,0,0,0,0,0,0,0,0,0,0,0,0,0,0,0,0,0,0,0,0,0,0,0,0,460,461,476,477,478,0,0,0,0,0,0,0,0,0,0,0,0,0,0,0,0,0,0,0,0,0,0,0,0,0,0,0,0,0,0,0,0,0,0,0,0,0,0,0,0,0,0,0,0,0,0,0,0,0,0,0,0,0,0,0,0,0,
0,0,0,0,0,0,0,0,0,0,0,0,0,0,0,0,0,0,0,0,0,0,0,0,0,0,0,0,0,0,0,0,0,0,0,0,0,0,0,0,0,0,0,0,0,0,0,0,0,0,0,0,0,0,0,0,0,0,0,0,0,0,0,0,0,0,0,0,0,0,0,0,0,0,0,0,0,0,0,0,0,0,0,0,0,0,0,0,0,0,0,0,0,0,0,0,0,0,0,0,0,0,476,477,492,493,494,462,0,0,0,0,0,0,0,0,0,0,0,0,0,0,0,0,0,0,0,0,0,0,0,0,0,0,0,0,0,0,0,0,0,0,0,0,0,0,0,0,0,0,0,0,0,0,0,0,0,0,0,0,0,0,0,0,
0,0,0,0,0,0,0,0,0,0,0,0,0,0,0,0,0,0,0,0,0,0,0,0,0,0,0,0,0,0,0,0,0,0,0,0,0,0,0,0,0,0,0,0,0,0,0,0,0,0,0,0,0,0,0,0,0,0,0,0,0,0,0,0,0,0,0,0,0,0,0,0,0,0,0,0,0,0,0,0,0,0,0,0,0,0,0,0,0,0,0,0,0,0,0,0,0,0,0,0,0,0,492,493,476,477,478,478,0,0,0,0,0,0,0,0,0,0,0,0,0,0,0,0,0,0,0,0,0,0,0,0,0,0,0,0,0,0,0,0,0,0,0,0,0,0,0,0,0,0,0,0,0,0,0,0,0,0,0,0,0,0,0,0,
0,0,0,0,0,0,0,0,0,0,0,0,0,0,0,0,0,0,0,0,0,0,0,0,0,0,0,0,0,0,0,0,0,0,0,0,0,0,0,0,0,0,0,0,0,0,0,0,0,0,0,0,0,0,0,0,0,0,0,0,0,0,0,0,0,0,0,0,0,0,0,0,0,0,0,0,0,0,0,0,0,0,0,0,0,0,0,0,0,0,0,0,0,0,0,0,444,445,0,0,462,0,476,477,492,493,494,494,0,0,0,0,0,0,0,0,0,0,0,0,0,0,0,0,0,0,0,0,0,0,0,0,0,0,0,0,0,0,0,0,0,0,0,0,0,0,0,0,0,0,0,0,0,0,0,0,0,0,0,0,0,0,0,0,
0,0,0,0,0,0,0,0,0,0,0,0,0,0,0,0,0,0,0,0,0,0,0,0,0,0,0,0,0,0,0,0,0,0,0,0,0,0,0,0,0,0,0,0,0,0,0,0,0,0,0,0,0,0,0,0,0,0,0,0,0,0,0,0,0,0,0,0,0,0,0,0,0,0,0,0,0,0,0,0,0,0,0,0,0,0,0,0,462,444,445,0,0,0,0,0,460,461,0,0,478,0,492,493,476,477,478,478,0,0,0,0,0,0,0,0,0,0,0,0,0,0,0,0,0,0,0,0,0,0,0,0,0,0,0,0,0,0,0,0,0,0,0,0,0,0,0,0,0,0,0,0,0,0,0,0,0,0,0,0,0,0,0,0,
0,0,0,0,0,0,0,0,0,0,0,0,0,0,0,0,0,0,0,0,0,0,0,0,0,0,0,0,0,0,0,0,0,0,0,0,0,0,0,0,0,0,0,0,0,0,0,0,0,0,0,0,0,0,0,0,0,0,0,0,0,0,0,0,0,0,0,0,0,0,0,0,0,0,0,0,0,0,0,0,0,0,0,0,0,0,0,0,478,460,461,444,445,0,0,462,476,477,444,445,494,0,476,477,492,493,494,494,0,0,0,0,0,0,0,0,0,0,0,0,0,0,0,0,0,0,444,445,0,0,0,0,0,0,0,0,0,0,0,0,0,0,0,0,0,0,0,0,0,0,0,0,0,0,0,0,0,0,0,0,0,0,0,0,
0,0,0,0,0,0,0,0,0,0,0,0,0,0,0,0,0,0,0,0,0,0,0,0,0,0,0,0,0,0,0,0,0,0,0,0,0,0,0,0,0,0,0,0,0,0,0,0,0,0,0,0,0,0,0,0,0,0,0,0,0,0,0,0,0,0,0,0,0,0,0,0,0,0,0,0,0,0,0,0,0,0,0,0,0,0,0,0,494,476,477,460,461,0,0,478,492,493,460,461,478,0,492,493,476,477,478,478,0,0,0,0,0,0,0,0,0,0,0,0,0,0,0,0,0,0,460,461,444,445,446,0,0,0,0,0,0,0,0,0,0,0,0,0,0,0,0,0,0,0,0,0,0,0,0,0,0,0,0,0,0,0,0,0,
0,0,0,0,0,0,0,0,0,0,0,0,0,0,0,0,0,0,0,0,0,0,0,0,0,0,0,0,0,0,0,0,0,0,0,0,0,0,0,0,0,0,0,0,0,0,0,0,0,0,0,0,0,0,0,0,0,0,0,0,0,0,0,0,0,0,0,0,0,0,0,0,0,0,0,0,0,0,0,0,0,0,0,0,0,0,0,0,478,492,493,476,477,462,0,494,476,477,476,477,494,0,476,477,492,493,494,494,0,0,0,0,0,0,0,0,0,0,0,0,0,0,0,0,0,0,476,477,460,461,462,0,0,0,0,0,0,0,0,0,0,0,0,0,0,0,0,0,0,0,0,0,0,0,0,0,0,0,0,0,0,0,0,0,
0,0,0,0,0,0,0,0,0,0,0,0,0,0,0,0,0,0,0,0,0,0,0,0,0,0,0,0,0,0,0,0,0,0,0,0,0,0,0,0,0,0,0,0,0,0,0,0,0,0,0,0,0,0,0,0,0,0,0,0,0,0,0,0,0,0,0,0,0,0,0,0,0,0,0,0,0,0,0,0,0,0,0,0,0,0,0,0,494,476,477,492,493,478,0,478,492,493,492,493,478,0,492,493,476,477,478,478,0,0,0,0,0,0,0,0,0,0,0,0,0,0,0,0,0,462,492,493,476,477,478,0,0,0,0,0,0,0,0,0,0,0,0,0,0,0,0,0,0,0,0,0,0,0,0,0,0,444,445,0,0,0,0,0,
0,0,0,0,0,0,0,0,0,0,0,0,0,0,0,0,0,0,0,0,0,0,0,0,0,0,0,0,0,0,0,0,0,0,0,0,0,0,0,0,0,0,0,0,0,0,0,0,0,0,0,0,0,0,0,0,0,0,0,0,0,0,0,0,0,0,0,0,0,0,0,0,0,0,0,0,0,0,0,0,0,0,0,0,0,0,0,0,478,492,493,476,477,494,0,494,476,477,476,477,478,0,476,477,492,493,494,494,0,0,0,0,0,0,0,0,0,0,0,0,0,0,0,0,0,478,476,477,492,493,494,0,0,0,0,0,0,0,0,0,0,0,0,0,0,0,0,0,0,0,0,0,0,0,0,444,445,460,461,0,0,0,0,0,
0,0,0,0,0,0,0,0,0,0,0,0,0,0,0,0,0,0,0,0,0,0,0,0,0,0,0,0,0,0,0,0,0,0,0,0,0,0,0,0,0,0,0,0,0,0,0,0,0,0,0,0,0,0,0,0,0,0,0,0,0,0,0,0,0,0,0,0,0,0,0,0,0,0,0,0,0,0,0,0,0,0,0,0,0,0,0,0,494,476,477,492,493,478,0,478,492,493,492,493,494,0,492,493,476,477,478,478,0,0,0,0,0,0,0,0,0,0,0,0,0,0,0,0,0,494,492,493,476,477,478,0,0,0,462,0,444,445,0,0,462,0,0,0,0,0,0,0,0,0,0,0,0,0,0,460,461,476,477,0,0,0,0,0
</data>
 </layer>
</map>
